!!!COM: Haydn, Franz Joseph
!!!OPR: Symphony in C Major
!!!OTL: Affettuoso 
!!!OMV: 4
!!!SCT: H I:97
!!!SCA: Thematisch-bibliographisches Werkevererzeichnis (A. van Hoboken)
!!!YOR: Dover Edition
!!!EED: Frances Bennion
!!!ENC: Frances Bennion
!!!CDT: 1732/3/31/-1809/5/31/
!!!OCY: Österreich
!!!YEC: Copyright (c) 1994, 2000 Center for Computer Assisted Research in the Humanities
!!!YEM: Rights to all derivative editions reserved.
!!!YEM: Refer to licensing agreement for further details.
!!!YEN: United States of America
**kern	**kern	**kern	**kern	**kern	**kern	**kern	**kern	**kern	**kern	**kern	**kern	**kern	**kern	**kern	**kern
*k[]	*k[]	*k[]	*k[]	*k[]	*k[]	*k[]	*k[]	*k[]	*k[]	*k[]	*k[]	*k[]	*k[]	*k[]	*k[]
*C:	*C:	*C:	*C:	*C:	*C:	*C:	*C:	*C:	*C:	*C:	*C:	*C:	*C:	*C:	*C:
*clefF	*clefF	*clefF4	*clefF	*clefF	*clefC3	*clefF4	*clefF4	*clefF	*clefF	*clefF	*clefF4	*clefF4	*clefF	*clefF	*clefF
*M2/4	*M2/4	*M2/4	*M2/4	*M2/4	*M2/4	*M2/4	*M2/4	*M2/4	*M2/4	*M2/4	*M2/4	*M2/4	*M2/4	*M2/4	*M2/4
*tb32	*tb32	*tb32	*tb32	*tb32	*tb32	*tb32	*tb32	*tb32	*tb32	*tb32	*tb32	*tb32	*tb32	*tb32	*tb32
=0-	=0-	=0-	=0-	=0-	=0-	=0-	=0-	=0-	=0-	=0-	=0-	=0-	=0-	=0-	=0-
4.r	4.r	4.r	4.r	4.r	4.r	4.r	4.r	4.r	4.r	4.r	4.r	4.r	4.r	4.r	4.r
8r	8r	8r	16e	8r	8r	8r	8r	8r	8r	8r	8r	8r	8r	8r	8r
.	.	.	16f	.	.	.	.	.	.	.	.	.	.	.	.
=1	=1	=1	=1	=1	=1	=1	=1	=1	=1	=1	=1	=1	=1	=1	=1
2r	2r	2r	4g	8r	8r	8r	8r	2r	2r	2r	2r	2r	2r	2r	2r
.	.	.	.	8e	8G	8C	8C	.	.	.	.	.	.	.	.
.	.	.	8e	8e	8G	8C	8C	.	.	.	.	.	.	.	.
.	.	.	8cc	8r	8r	8r	8r	.	.	.	.	.	.	.	.
=2	=2	=2	=2	=2	=2	=2	=2	=2	=2	=2	=2	=2	=2	=2	=2
2r	2r	2r	4b	8r	8r	8r	8r	2r	2r	2r	2r	2r	2r	2r	2r
.	.	.	.	8c	8F	8F	8F	.	.	.	.	.	.	.	.
.	.	.	8a	8c	8F	8F	8F	.	.	.	.	.	.	.	.
.	.	.	16ff	8r	8r	8r	8r	.	.	.	.	.	.	.	.
.	.	.	16dd	.	.	.	.	.	.	.	.	.	.	.	.
=3	=3	=3	=3	=3	=3	=3	=3	=3	=3	=3	=3	=3	=3	=3	=3
2r	2r	2r	4cc	8r	8r	8r	8r	2r	2r	2r	2r	2r	2r	2r	2r
.	.	.	.	8f	8d	8G	8G	.	.	.	.	.	.	.	.
.	.	.	8b	8f	8d	8G	8G	.	.	.	.	.	.	.	.
.	.	.	8gg	8r	8r	8r	8r	.	.	.	.	.	.	.	.
=4	=4	=4	=4	=4	=4	=4	=4	=4	=4	=4	=4	=4	=4	=4	=4
4.r	2r	2r	4ff	8r	8r	8r	8r	4.r	4.r	4.r	4.r	4.r	2r	2r	2r
.	.	.	.	8d	8B	8C	8C	.	.	.	.	.	.	.	.
.	.	.	8ee	8e	8c	8C	8C	.	.	.	.	.	.	.	.
8ccc	.	.	8ccc	8cc	8cc	8c	8c	8ccc	8ccc	8ccc	8c	8c	.	.	.
=5	=5	=5	=5	=5	=5	=5	=5	=5	=5	=5	=5	=5	=5	=5	=5
8bb	2r	2r	8bb	8b	8b	8B	8B	8bb	8bb	8bb	8B	8B	2r	2r	2r
8aa	.	.	8aa	8a	8a	8A	8A	8aa	8aa	8aa	8A	8A	.	.	.
8gg	.	.	8gg	8g	8g	8G	8G	8gg	8gg	8gg	8G	8G	.	.	.
8ff	.	.	8ff	8f	8f	8F	8F	8ff	8ff	8ff	8F	8F	.	.	.
=6	=6	=6	=6	=6	=6	=6	=6	=6	=6	=6	=6	=6	=6	=6	=6
8ee	2r	2r	8ee	8e	8e	8E	8E	8ee	8ee	8ee	8E	8E	2r	2r	2r
8dd	.	.	8dd	8d	8d	8D	8D	8dd	8dd	8dd	8D	8D	.	.	.
8cc	.	.	8cc	8c	8c	8C	8C	8cc	8cc	8cc	8C	8C	.	.	.
8b	.	.	8b	8B	8B	8BB	8BB	8b	8b	8b	8BB	8BB	.	.	.
=7	=7	=7	=7	=7	=7	=7	=7	=7	=7	=7	=7	=7	=7	=7	=7
8a	2r	2r	8a	8A	8A	8AA	8AA	8a	8a	8a	8AA	8AA	2r	2r	2r
8r	.	.	8r	8r	8r	8r	8r	8r	8r	8r	8r	8r	.	.	.
8dd	.	.	8dd	8d	8d	8D	8D	8dd	8dd	8dd	8D	8D	.	.	.
8r	.	.	8r	8r	8r	8r	8r	8r	8r	8r	8r	8r	.	.	.
=8	=8	=8	=8	=8	=8	=8	=8	=8	=8	=8	=8	=8	=8	=8	=8
4g	2r	2r	4g	4G	4G	4GG	4GG	4g	4g	4g	4GG	4GG	2r	2r	2r
4r	.	.	8r	4r	4r	4r	4r	4r	4r	4r	8r	4r	.	.	.
.	.	.	16e	.	.	.	.	.	.	.	16E	.	.	.	.
.	.	.	16f	.	.	.	.	.	.	.	16F	.	.	.	.
=9	=9	=9	=9	=9	=9	=9	=9	=9	=9	=9	=9	=9	=9	=9	=9
2r	2r	2r	4g	8r	8r	8r	8r	2r	2r	2r	4G	2r	2r	2r	2r
.	.	.	.	8e	8G	8C	8C	.	.	.	.	.	.	.	.
.	.	.	8e	8e	8G	8C	8C	.	.	.	8E	.	.	.	.
.	.	.	8cc	8r	8r	8r	8r	.	.	.	8c	.	.	.	.
=10	=10	=10	=10	=10	=10	=10	=10	=10	=10	=10	=10	=10	=10	=10	=10
2r	2r	2r	4b	8r	8r	8r	8r	2r	2r	2r	4B	2r	2r	2r	2r
.	.	.	.	8c	8F	8F	8F	.	.	.	.	.	.	.	.
.	.	.	8a	8c	8F	8F	8F	.	.	.	8A	.	.	.	.
.	.	.	16ff	8r	8r	8r	8r	.	.	.	16f	.	.	.	.
.	.	.	16dd	.	.	.	.	.	.	.	16d	.	.	.	.
=11	=11	=11	=11	=11	=11	=11	=11	=11	=11	=11	=11	=11	=11	=11	=11
2r	2r	2r	4cc	8r	8r	8r	8r	2r	2r	2r	4c	2r	2r	2r	2r
.	.	.	.	8f	8d	8G	8G	.	.	.	.	.	.	.	.
.	.	.	8b	8f	8d	8G	8G	.	.	.	8B	.	.	.	.
.	.	.	8gg	8r	8r	8r	8r	.	.	.	8g	.	.	.	.
=12	=12	=12	=12	=12	=12	=12	=12	=12	=12	=12	=12	=12	=12	=12	=12
4.r	2r	2r	4ff	8r	8r	8r	8r	4.r	4.r	4.r	4f	4.r	2r	2r	2r
.	.	.	.	8d	8B	8C	8C	.	.	.	.	.	.	.	.
.	.	.	8ee	8e	8c	8C	8C	.	.	.	8e	.	.	.	.
8eee	.	.	8eee	8ee	8ee	8e	8e	8eee	8ee	8ee	8e	8e	.	.	.
=13	=13	=13	=13	=13	=13	=13	=13	=13	=13	=13	=13	=13	=13	=13	=13
8ddd	2r	2r	8ddd	8dd	8dd	8d	8d	8ddd	8dd	8dd	8d	8d	2r	2r	2r
8ccc	.	.	8ccc	8cc	8cc	8c	8c	8ccc	8cc	8cc	8c	8c	.	.	.
8bb	.	.	8bb	8b	8b	8B	8B	8bb	8b	8b	8B	8B	.	.	.
8aa	.	.	8aa	8a	8a	8A	8A	8aa	8a	8a	8A	8A	.	.	.
=14	=14	=14	=14	=14	=14	=14	=14	=14	=14	=14	=14	=14	=14	=14	=14
8gg#	2r	2r	8gg#	8g#	8g#	8G#	8G#	8gg#	8g#	8g#	8G#	8G#	2r	2r	2r
8aa	.	.	8aa	8a	8a	8A	8A	8aa	8a	8a	8A	8A	.	.	.
8bb	.	.	8bb	8b	8b	8B	8B	8bb	8b	8b	8B	8B	.	.	.
8ccc	.	.	8ccc	8cc	8cc	8c	8c	8ccc	8cc	8cc	8c	8c	.	.	.
=15	=15	=15	=15	=15	=15	=15	=15	=15	=15	=15	=15	=15	=15	=15	=15
8ddd	2r	2r	8ddd	8dd	8dd	8d	8d	8ddd	8dd	8dd	8d	8d	2r	2r	2r
8r	.	.	8r	8r	8r	8r	8r	8r	8r	8r	8r	8r	.	.	.
8ff#	.	.	8ff#	8f#	8f#	8F#	8F#	8ff#	8ff#	8ff#	8F#	8F#	.	.	.
8r	.	.	8r	8r	8r	8r	8r	8r	8r	8r	8r	8r	.	.	.
=16	=16	=16	=16	=16	=16	=16	=16	=16	=16	=16	=16	=16	=16	=16	=16
4gg	4.r	4.r	4gg	4g	4g	4G	4G	4gg	4gg	4gg	4G	4G	4.r	4.r	4.r
8r	.	.	8r	8r	8r	8r	8r	8r	8r	8r	8r	8r	.	.	.
8r	8r	8r	8B	8B	8G	8G	8G	8r	8r	8r	8r	8r	8gg	8g	8r
=17	=17	=17	=17	=17	=17	=17	=17	=17	=17	=17	=17	=17	=17	=17	=17
2r	2r	2r	8c	8c	8A	8A	8A	2r	2r	2r	2r	2r	8gg	8g	2r
.	.	.	8d	8d	8B	8B	8B	.	.	.	.	.	8gg	8g	.
.	.	.	8e	8e	8c	8c	8c	.	.	.	.	.	8gg	8g	.
.	.	.	8f	8f	8d	8d	8d	.	.	.	.	.	8gg	8g	.
=18	=18	=18	=18	=18	=18	=18	=18	=18	=18	=18	=18	=18	=18	=18	=18
2r	2r	2r	4g	4g	4e	4e	4e	2r	4.r	4.r	2r	2r	8gg	8g	2r
.	.	.	.	.	.	.	.	.	.	.	.	.	8gg	8g	.
.	.	.	4r	4r	4r	4r	4r	.	.	.	.	.	8gg	8g	.
.	.	.	.	.	.	.	.	.	8gg	8ee	.	.	8gg	8g	.
=19	=19	=19	=19	=19	=19	=19	=19	=19	=19	=19	=19	=19	=19	=19	=19
2r	2r	2r	2r	2r	2r	2r	2r	2r	8aa	8ff	2r	2r	8gg	8g	2r
.	.	.	.	.	.	.	.	.	8gg	8ee	.	.	8gg	8g	.
.	.	.	.	.	.	.	.	.	8ff	8dd	.	.	8gg	8g	.
.	.	.	.	.	.	.	.	.	8ee	8cc#	.	.	8gg	8g	.
=20	=20	=20	=20	=20	=20	=20	=20	=20	=20	=20	=20	=20	=20	=20	=20
2r	2r	2r	4.r	4.r	4.r	4.r	4.r	2r	4ff	4dd	2r	2r	8gg	8g	2r
.	.	.	.	.	.	.	.	.	.	.	.	.	8gg	8g	.
.	.	.	.	.	.	.	.	.	4r	4r	.	.	8gg	8g	.
.	.	.	8d	8d	8d	8D	8D	.	.	.	.	.	8gg	8g	.
=21	=21	=21	=21	=21	=21	=21	=21	=21	=21	=21	=21	=21	=21	=21	=21
2r	2r	2r	8B	8B	8B	8BB	8BB	2r	2r	2r	2r	2r	8gg	8g	2r
.	.	.	8B-	8B-	8B-	8BB-	8BB-	.	.	.	.	.	8gg	8g	.
.	.	.	8A	8A	8A	8AA	8AA	.	.	.	.	.	8gg	8g	.
.	.	.	8A-	8A-	8A-	8AA-	8AA-	.	.	.	.	.	8gg	8g	.
=22	=22	=22	=22	=22	=22	=22	=22	=22	=22	=22	=22	=22	=22	=22	=22
2r	2r	2r	4G	4G	4G	4GG	4GG	2r	4.r	4.r	2r	2r	8gg	8g	2r
.	.	.	.	.	.	.	.	.	.	.	.	.	8gg	8g	.
.	.	.	4r	4r	4r	4r	4r	.	.	.	.	.	8gg	8g	.
.	.	.	.	.	.	.	.	.	8ff	8dd	.	.	8gg	8g	.
=23	=23	=23	=23	=23	=23	=23	=23	=23	=23	=23	=23	=23	=23	=23	=23
2r	2r	2r	2r	2r	2r	2r	2r	2r	8gg	8ee	2r	2r	8gg	8g	2r
.	.	.	.	.	.	.	.	.	8ff	8dd	.	.	8gg	8g	.
.	.	.	.	.	.	.	.	.	8ee	8cc	.	.	8gg	8g	.
.	.	.	.	.	.	.	.	.	8dd	8b	.	.	8gg	8g	.
=24	=24	=24	=24	=24	=24	=24	=24	=24	=24	=24	=24	=24	=24	=24	=24
4.r	8c	4C	4.r	4.r	4.r	4.r	4.r	4.r	4ee	4cc	2r	2r	4ee	4cc	8cc
.	8c	.	.	.	.	.	.	.	.	.	.	.	.	.	8cc
.	8c	4r	.	.	.	.	.	.	4r	4r	.	.	4r	4r	8cc
8ccc	8c	.	8cc	8cc	8cc	8c	8c	8ccc	.	.	.	.	.	.	8cc
=25	=25	=25	=25	=25	=25	=25	=25	=25	=25	=25	=25	=25	=25	=25	=25
8aa	8c	2r	8a	8a	8a	8A	8A	8aa	2r	2r	2r	2r	2r	2r	8cc
8aa-	8c	.	8a-	8a-	8a-	8A-	8A-	8aa-	.	.	.	.	.	.	8cc
8gg	8c	.	8g	8g	8g	8G	8G	8gg	.	.	.	.	.	.	8cc
8ff	8c	.	8f	8f	8f	8F	8F	8ff	.	.	.	.	.	.	8cc
=26	=26	=26	=26	=26	=26	=26	=26	=26	=26	=26	=26	=26	=26	=26	=26
8ee	8c	4C	8e	8e	8e	8E	8E	8ee	2r	2r	2r	2r	2r	2r	8cc
8ee	8c	.	8e	8e	8e	8E	8E	8ee	.	.	.	.	.	.	8cc
8ee	8c	4r	8e	8e	8e	8E	8E	8ee	.	.	.	.	.	.	8cc
8ddd	8c	.	8dd	8dd	8dd	8d	8d	8ddd	.	.	.	.	.	.	8cc
=27	=27	=27	=27	=27	=27	=27	=27	=27	=27	=27	=27	=27	=27	=27	=27
8ccc	8c	2r	8cc	8cc	8cc	8c	8c	8ccc	2r	2r	2r	2r	2r	2r	8cc
8bb-	8c	.	8b-	8b-	8b-	8B-	8B-	8bb-	.	.	.	.	.	.	8cc
8aa	8c	.	8a	8a	8a	8A	8A	8aa	.	.	.	.	.	.	8cc
8gg	8c	.	8g	8g	8g	8G	8G	8gg	.	.	.	.	.	.	8cc
=28	=28	=28	=28	=28	=28	=28	=28	=28	=28	=28	=28	=28	=28	=28	=28
8ff	4c	4C	8f	8f	8f	8F	8F	8ff	8aa	8a	8A	8A	2r	2r	4cc
8ff	.	.	8f	8f	8f	8F	8F	8ff	8aa	8a	8A	8A	.	.	.
8ff	4r	4r	8f	8f	8f	8F	8F	8ff	8aa	8a	8A	8A	.	.	4r
8aa	.	.	8aa	8a	8e	8C#	8C#	8aa	8aa	8a	8A	8A	.	.	.
=29	=29	=29	=29	=29	=29	=29	=29	=29	=29	=29	=29	=29	=29	=29	=29
8aa	2r	2r	8ff	8a	8f	8D	8D	8aa	8aa	8a	8A	8A	2r	2r	2r
8aa	.	.	8ee	8a	8g	8E	8E	8aa	8aa	8a	8A	8A	.	.	.
8aa	.	.	8dd	8a	8a	8F	8F	8aa	8aa	8a	8A	8A	.	.	.
8aa	.	.	8cc#	8a	8e	8G	8G	8aa	8aa	8a	8A	8A	.	.	.
=30	=30	=30	=30	=30	=30	=30	=30	=30	=30	=30	=30	=30	=30	=30	=30
8aa	2r	2r	8dd	8a	8f	8F	8F	8aa	8aa	8a	8A	8A	2r	2r	2r
8aa	.	.	8dd	8a	8f	8F	8F	8aa	8aa	8a	8A	8A	.	.	.
8aa	.	.	8dd	8a	8f	8F	8F	8aa	8aa	8a	8A	8A	.	.	.
8aa	.	.	8aa	8a	8e	8C#	8C#	8aa	8aa	8a	8A	8A	.	.	.
=31	=31	=31	=31	=31	=31	=31	=31	=31	=31	=31	=31	=31	=31	=31	=31
8aa	2r	2r	8ff	8a	8f	8D	8D	8aa	8aa	8a	8A	8A	2r	2r	2r
8aa	.	.	8ee	8a	8g	8E	8E	8aa	8aa	8a	8A	8A	.	.	.
8aa	.	.	8dd	8a	8a	8F	8F	8aa	8aa	8a	8A	8A	.	.	.
8aa	.	.	8cc	8a	8d	8F#	8F#	8aa	8aa	8a	8A	8A	.	.	.
=32	=32	=32	=32	=32	=32	=32	=32	=32	=32	=32	=32	=32	=32	=32	=32
8gg	8g	8GG	8gg	8g	8G	8G	8G	8gg	8gg	8g	8G	8G	8dd	8g	8gg
8gg	8g	8GG	8gg	8b	8g	8G	8G	8gg	8gg	8g	8G	8G	8dd	8g	8gg
8gg	8g	8GG	8gg	8b	8g	8G	8G	8gg	8gg	8g	8G	8G	8dd	8g	8gg
8ccc	8g	8GG	8ccc	8ee	8g	8G	8G	8ccc	8ccc	8ee	8G	8G	8ee	8cc	8gg
=33	=33	=33	=33	=33	=33	=33	=33	=33	=33	=33	=33	=33	=33	=33	=33
8bb	8g	8GG	8bb	8dd	8G	8G	8G	8bb	8bb	8dd	8G	8G	8dd	8g	8gg
8gg	8g	8GG	8gg	8b	8g	8G	8G	8gg	8gg	8b	8G	8G	8dd	8g	8gg
8gg	8g	8GG	8gg	8b	8g	8G	8G	8gg	8gg	8b	8G	8G	8dd	8g	8gg
8eee	8g	8GG	8ccc	8ee	8g	8G	8G	8eee	8ccc	8ee	8G	8G	8ee	8cc	8gg
=34	=34	=34	=34	=34	=34	=34	=34	=34	=34	=34	=34	=34	=34	=34	=34
8bb	8g	8GG	8bb	8dd	8G	8G	8G	8bb	8bb	8dd	8G	8G	8dd	8g	8gg
8gg	8g	8GG	8gg	8b	8g	8G	8G	8gg	8gg	8b	8G	8G	8dd	8g	8gg
8gg	8g	8GG	8gg	8b	8g	8G	8G	8gg	8gg	8b	8G	8G	8dd	8g	8gg
8eee	8g	8GG	8ccc	8ee	8g	8G	8G	8eee	8ccc	8ee	8G	8G	8ee	8cc	8gg
=35	=35	=35	=35	=35	=35	=35	=35	=35	=35	=35	=35	=35	=35	=35	=35
8ddd	8g	8GG	8bb	8dd	8G	8G	8G	8ddd	8bb	8dd	8G	8G	4dd	4g	8gg
8ccc	8g	8GG	8aa	8cc	8g	8G	8G	8ccc	8aa	8cc	8G	8G	.	.	8gg
8bb	8g	8GG	8gg	8b	8g	8G	8G	8bb	8gg	8b	8G	8G	4r	4r	8gg
8aa	8g	8GG	8ff#	8a	8g	8G	8G	8aa	8ff#	8a	8G	8G	.	.	8gg
=36	=36	=36	=36	=36	=36	=36	=36	=36	=36	=36	=36	=36	=36	=36	=36
4gg	4g	4GG	4gg	4g	4G	4G	4G	4gg	4gg	4g	4G	4G	4dd	4g	4gg
4r	4r	4r	8r	4r	4r	4r	4r	4r	4r	4r	8r	4r	4r	4r	4r
.	.	.	16e	.	.	.	.	.	.	.	16E	.	.	.	.
.	.	.	16f	.	.	.	.	.	.	.	16F	.	.	.	.
=37	=37	=37	=37	=37	=37	=37	=37	=37	=37	=37	=37	=37	=37	=37	=37
2r	2r	2r	4g	8r	8r	8r	8r	2r	2r	2r	4G	2r	2r	2r	2r
.	.	.	.	8e	8G	8C	8C	.	.	.	.	.	.	.	.
.	.	.	8e	8e	8G	8C	8C	.	.	.	8E	.	.	.	.
.	.	.	8cc	8r	8r	8r	8r	.	.	.	8c	.	.	.	.
=38	=38	=38	=38	=38	=38	=38	=38	=38	=38	=38	=38	=38	=38	=38	=38
2r	2r	2r	4b	8r	8r	8r	8r	2r	2r	2r	4B	2r	2r	2r	2r
.	.	.	.	8c	8F	8F	8F	.	.	.	.	.	.	.	.
.	.	.	8a	8c	8F	8F	8F	.	.	.	8A	.	.	.	.
.	.	.	16ff	8r	8r	8r	8r	.	.	.	16f	.	.	.	.
.	.	.	16dd	.	.	.	.	.	.	.	16d	.	.	.	.
=39	=39	=39	=39	=39	=39	=39	=39	=39	=39	=39	=39	=39	=39	=39	=39
2r	2r	2r	4cc	8r	8r	8r	8r	2r	2r	2r	4c	2r	2r	2r	2r
.	.	.	.	8f	8d	8G	8G	.	.	.	.	.	.	.	.
.	.	.	8b	8f	8d	8G	8G	.	.	.	8B	.	.	.	.
.	.	.	8gg	8r	8r	8r	8r	.	.	.	8g	.	.	.	.
=40	=40	=40	=40	=40	=40	=40	=40	=40	=40	=40	=40	=40	=40	=40	=40
4.r	4.r	4.r	4ff	8r	8r	8r	8r	4.r	4.r	4.r	4f	4.r	4.r	4.r	4.r
.	.	.	.	8d	8B	8C	8C	.	.	.	.	.	.	.	.
.	.	.	8ee	8e	8c	8C	8C	.	.	.	8e	.	.	.	.
8eee	8cc	8C	8eee	8ccc	8e	8C	8C	8eee	8ccc	8ee	8C	8C	8ee	8cc	8ee
=41	=41	=41	=41	=41	=41	=41	=41	=41	=41	=41	=41	=41	=41	=41	=41
8eee	8cc	8C	8eee	8ccc	8f	8D	8D	8eee	8ccc	8ee	8D	8D	8ee	8cc	8ee
8eee	8cc	8C	8eee	8ccc	8g	8E	8E	8eee	8ccc	8ee	8E	8E	8ee	8cc	8ee
8eee	8cc	8C	8eee	8ccc	8a	8F	8F	8eee	8ccc	8ee	8F	8F	8ee	8cc	8ee
8eee	8cc	8C	8eee	8ccc	8b	8G	8G	8eee	8ccc	8ee	8G	8G	8ee	8cc	8ee
=42	=42	=42	=42	=42	=42	=42	=42	=42	=42	=42	=42	=42	=42	=42	=42
8.eee	4cc	4C	8.eee	8.ccc	4cc	4A	4A	8.eee	8.ccc	8.ee	4A	4A	4ee	4cc	4ee
16ddd	.	.	16ddd	16bb	.	.	.	16ddd	16bb	16dd	.	.	.	.	.
8ccc	8r	8r	8ccc	8aa	8r	8r	8r	8ccc	8aa	8cc	8r	8r	8r	8r	8r
8ccc	8cc	8C	8ccc	8aa	8A	8A	8A	8ccc	8aa	8cc	8A	8A	8cc	8cc	8cc
=43	=43	=43	=43	=43	=43	=43	=43	=43	=43	=43	=43	=43	=43	=43	=43
8ccc	8cc	8C	8ccc	8aa	8B-	8B-	8B-	8ccc	8aa	8cc	8B-	8B-	8cc	8cc	8cc
8ccc	8cc	8C	8ccc	8aa	8c	8c	8c	8ccc	8aa	8cc	8c	8c	8cc	8cc	8cc
8ccc	8cc	8C	8ccc	8aa	8d	8d	8d	8ccc	8aa	8cc	8d	8d	8cc	8cc	8cc
8ccc	8cc	8C	8ccc	8aa	8e	8e	8e	8ccc	8aa	8cc	8e	8e	8cc	8cc	8cc
=44	=44	=44	=44	=44	=44	=44	=44	=44	=44	=44	=44	=44	=44	=44	=44
8.ccc	4cc	4C	8.ccc	8.aa	4f	4f	4f	8.ccc	8.aa	8.cc	4f	4f	4cc	4cc	4cc
16bb-	.	.	16bb-	16gg	.	.	.	16bb-	16gg	16b-	.	.	.	.	.
8aa	4r	4r	8aa	8ff	4r	4r	4r	8aa	8ff	8a	4r	4r	4r	4r	4r
8r	.	.	8a	8f	.	.	.	8r	8r	8r	.	.	.	.	.
=45	=45	=45	=45	=45	=45	=45	=45	=45	=45	=45	=45	=45	=45	=45	=45
2r	2r	2r	8a	8f	2r	2r	2r	2r	2r	2r	2r	2r	2r	2r	2r
.	.	.	8a	8f	.	.	.	.	.	.	.	.	.	.	.
.	.	.	8a	8f	.	.	.	.	.	.	.	.	.	.	.
.	.	.	8a	8f	.	.	.	.	.	.	.	.	.	.	.
=46	=46	=46	=46	=46	=46	=46	=46	=46	=46	=46	=46	=46	=46	=46	=46
2r	2r	2r	4a	4f	4.r	4.r	4.r	2r	2r	2r	2r	2r	2r	2r	2r
.	.	.	8r	8r	.	.	.	.	.	.	.	.	.	.	.
.	.	.	8c#	8c#	8c#	8C#	8C#	.	.	.	.	.	.	.	.
=47	=47	=47	=47	=47	=47	=47	=47	=47	=47	=47	=47	=47	=47	=47	=47
2r	2r	2r	8c#	8c#	8c#	8C#	8C#	2r	2r	2r	2r	2r	2r	2r	2r
.	.	.	8c#	8c#	8c#	8C#	8C#	.	.	.	.	.	.	.	.
.	.	.	8c#	8c#	8c#	8C#	8C#	.	.	.	.	.	.	.	.
.	.	.	8c#	8c#	8c#	8C#	8C#	.	.	.	.	.	.	.	.
=48	=48	=48	=48	=48	=48	=48	=48	=48	=48	=48	=48	=48	=48	=48	=48
2r	2r	2r	8.d	8.d	8.d	8.D	8.D	2r	2r	2r	2r	2r	2r	2r	2r
.	.	.	16e	16e	16e	16E	16E	.	.	.	.	.	.	.	.
.	.	.	8f	8f	8f	8F	8F	.	.	.	.	.	.	.	.
.	.	.	8a	8f	8F	8FF	8FF	.	.	.	.	.	.	.	.
=49	=49	=49	=49	=49	=49	=49	=49	=49	=49	=49	=49	=49	=49	=49	=49
2r	2r	2r	8g	8e	8G	8GG	8GG	2r	2r	2r	2r	2r	2r	2r	2r
.	.	.	8f	8d	8G	8GG	8GG	.	.	.	.	.	.	.	.
.	.	.	8e	8c	8G	8GG	8GG	.	.	.	.	.	.	.	.
.	.	.	8d	8B	8G	8GG	8GG	.	.	.	.	.	.	.	.
=50	=50	=50	=50	=50	=50	=50	=50	=50	=50	=50	=50	=50	=50	=50	=50
4.r	4.r	4.r	4c	4c	4E	4C	4C	4.r	4.r	4.r	4.r	4.r	4.r	4.r	4.r
.	.	.	8r	8r	8r	8r	8r	.	.	.	.	.	.	.	.
8r	8r	8r	8r	8r	8r	8r	8r	8r	8r	8r	8r	8r	8r	8r	8r
=51	=51	=51	=51	=51	=51	=51	=51	=51	=51	=51	=51	=51	=51	=51	=51
2r	2r	2r	4.c	4c	2E	8CC	8CC	2r	4.cc	2r	2e	2c	2r	2r	2r
.	.	.	.	.	.	8C	8C	.	.	.	.	.	.	.	.
.	.	.	.	4r	.	8C	8C	.	.	.	.	.	.	.	.
.	.	.	16B	.	.	8C	8C	.	16b	.	.	.	.	.	.
.	.	.	16c	.	.	.	.	.	16cc	.	.	.	.	.	.
=52	=52	=52	=52	=52	=52	=52	=52	=52	=52	=52	=52	=52	=52	=52	=52
2r	2r	2r	4.d	4.B	2F	8C	8C	2r	4.dd	2r	2f	2B	2r	2r	2r
.	.	.	.	.	.	8C	8C	.	.	.	.	.	.	.	.
.	.	.	.	.	.	8C	8C	.	.	.	.	.	.	.	.
.	.	.	16e	16c	.	8C	8C	.	16ee	.	.	.	.	.	.
.	.	.	16f	16d	.	.	.	.	16ff	.	.	.	.	.	.
=53	=53	=53	=53	=53	=53	=53	=53	=53	=53	=53	=53	=53	=53	=53	=53
2r	2r	2r	8g	2e	4E	8CC	8CC	2r	8gg	2r	2e	2c	2r	2r	2r
.	.	.	8e	.	.	8C	8C	.	8ee	.	.	.	.	.	.
.	.	.	8c	.	4G	8C	8C	.	8cc	.	.	.	.	.	.
.	.	.	8c	.	.	8C	8C	.	8cc	.	.	.	.	.	.
=54	=54	=54	=54	=54	=54	=54	=54	=54	=54	=54	=54	=54	=54	=54	=54
2r	2r	2r	8d	2B	2F	8C	8C	2r	8dd	2r	2f	2B	2r	2r	2r
.	.	.	8c	.	.	8C	8C	.	8cc	.	.	.	.	.	.
.	.	.	8d	.	.	8C	8C	.	8dd	.	.	.	.	.	.
.	.	.	8e	.	.	8C	8C	.	8ee	.	.	.	.	.	.
=55	=55	=55	=55	=55	=55	=55	=55	=55	=55	=55	=55	=55	=55	=55	=55
2r	2r	2r	4.c	2c	2E	8CC	8CC	2r	4.cc	2r	2e	2c	2r	2r	2r
.	.	.	.	.	.	8C	8C	.	.	.	.	.	.	.	.
.	.	.	.	.	.	8C	8C	.	.	.	.	.	.	.	.
.	.	.	16B	.	.	8C	8C	.	16b	.	.	.	.	.	.
.	.	.	16c	.	.	.	.	.	16cc	.	.	.	.	.	.
=56	=56	=56	=56	=56	=56	=56	=56	=56	=56	=56	=56	=56	=56	=56	=56
2r	2r	2r	4.d	4.B	2F	8C	8C	2r	4.dd	2r	2f	2B	2r	2r	2r
.	.	.	.	.	.	8C	8C	.	.	.	.	.	.	.	.
.	.	.	.	.	.	8C	8C	.	.	.	.	.	.	.	.
.	.	.	16e	16c	.	8C	8C	.	16ee	.	.	.	.	.	.
.	.	.	16f	16d	.	.	.	.	16ff	.	.	.	.	.	.
=57	=57	=57	=57	=57	=57	=57	=57	=57	=57	=57	=57	=57	=57	=57	=57
2r	2r	2r	8g	2e	4E	8CC	8CC	2r	8gg	2r	2e	2c	2r	2r	2r
.	.	.	8e	.	.	8C	8C	.	8ee	.	.	.	.	.	.
.	.	.	8c	.	4G	8C	8C	.	8cc	.	.	.	.	.	.
.	.	.	8c	.	.	8C	8C	.	8cc	.	.	.	.	.	.
=58	=58	=58	=58	=58	=58	=58	=58	=58	=58	=58	=58	=58	=58	=58	=58
2r	2r	2r	8d	2B	2F	8C	8C	2r	8dd	2r	2f	2B	2r	2r	2r
.	.	.	8c	.	.	8C	8C	.	8cc	.	.	.	.	.	.
.	.	.	8d	.	.	8C	8C	.	8dd	.	.	.	.	.	.
.	.	.	8e	.	.	8C	8C	.	8ee	.	.	.	.	.	.
=59	=59	=59	=59	=59	=59	=59	=59	=59	=59	=59	=59	=59	=59	=59	=59
2r	4.c	4C	4c	4.c	4E	4C	4C	2r	4cc	4.r	4e	4c	2r	2r	4.cc
.	.	8r	4r	.	8r	8r	8r	.	8r	.	8r	8r	.	.	.
.	8c	8C	.	8cc	8e	8C	8C	.	8cc	8e	8C	8C	.	.	8cc
=60	=60	=60	=60	=60	=60	=60	=60	=60	=60	=60	=60	=60	=60	=60	=60
2r	8c	8C	2r	8cc	8f	8D	8D	2r	8cc	8f	8F	8F	2r	2r	8cc
.	8c	8C	.	8cc	8g	8E	8E	.	8cc	8g	8G	8G	.	.	8cc
.	8c	8C	.	8cc	8a	8F	8F	.	8cc	8a	8A	8A	.	.	8cc
.	8c	8C	.	8cc	8b	8G	8G	.	8cc	8b	8B	8B	.	.	8cc
=61	=61	=61	=61	=61	=61	=61	=61	=61	=61	=61	=61	=61	=61	=61	=61
2r	4c	4C	2r	8.cc	4.cc	4.A	4.A	2r	8.cc	4.cc	4.c	4.c	2r	2r	4cc
.	.	.	.	32dd	.	.	.	.	32dd	.	.	.	.	.	.
.	.	.	.	32ee	.	.	.	.	32ee	.	.	.	.	.	.
.	4r	4r	.	8ff	.	.	.	.	8ff	.	.	.	.	.	4r
.	.	.	.	8ee	8b	8G	8G	.	8ee	8b	8B	8B	.	.	.
=62	=62	=62	=62	=62	=62	=62	=62	=62	=62	=62	=62	=62	=62	=62	=62
2r	2r	2r	2r	4.aa	8a	8F	8F	2r	4.aa	8a	8A	8A	2r	2r	2r
.	.	.	.	.	4cc	8c	8c	.	.	4cc	8c	8c	.	.	.
.	.	.	.	.	.	8f	8f	.	.	.	8f	8f	.	.	.
.	.	.	.	8gg	8cc	8e	8e	.	8gg	8cc	8e	8e	.	.	.
=63	=63	=63	=63	=63	=63	=63	=63	=63	=63	=63	=63	=63	=63	=63	=63
2r	2r	2r	2r	8ff	8dd	8d	8d	2r	8ff	8ff	8d	8d	2r	2r	2r
.	.	.	.	8ee	8cc	8c	8c	.	8ee	8ee	8c	8c	.	.	.
.	.	.	.	8dd	8b	8B	8B	.	8dd	8dd	8B	8B	.	.	.
.	.	.	.	8cc	8a	8A	8A	.	8cc	8cc	8A	8A	.	.	.
=64	=64	=64	=64	=64	=64	=64	=64	=64	=64	=64	=64	=64	=64	=64	=64
4.r	2g	4GG	4.r	8b	8g	8G	8G	4.r	8b	4b	8G	8G	2dd	2g	2dd
.	.	.	.	8aa	8b	8F	8F	.	8aa	.	8F	8F	.	.	.
.	.	4r	.	8gg	8cc	8E	8E	.	8gg	8cc	8E	8E	.	.	.
8gg	.	.	8gg	8ff	8dd	8D	8D	8gg	8ff	8dd	8D	8D	.	.	.
=65	=65	=65	=65	=65	=65	=65	=65	=65	=65	=65	=65	=65	=65	=65	=65
8gg	4cc	4C	8gg	8ee	8cc	4C	4C	8gg	4ee	8ee	8C	8C	4ee	4cc	4ee
8gg	.	.	8gg	8dd	8b	.	.	8gg	.	8dd	8B	8B	.	.	.
8gg	4r	4r	8gg	8ee	8cc	4r	4r	8gg	4r	8ee	8c	8c	4r	4r	4r
8gg	.	.	8gg	8ff	8dd	.	.	8gg	.	8ff	8d	8d	.	.	.
=66	=66	=66	=66	=66	=66	=66	=66	=66	=66	=66	=66	=66	=66	=66	=66
8.gg	2r	2r	8.gg	4.ee	4.cc	2r	2r	8.gg	4.ee	4.ee	4.c	4.c	2r	2r	2r
32aa	.	.	32aa	.	.	.	.	32aa	.	.	.	.	.	.	.
32bb	.	.	32bb	.	.	.	.	32bb	.	.	.	.	.	.	.
8ccc	.	.	8ccc	.	.	.	.	8ccc	.	.	.	.	.	.	.
8bb	.	.	8bb	8dd	8g	.	.	8bb	8dd	8dd	8G	8G	.	.	.
=67	=67	=67	=67	=67	=67	=67	=67	=67	=67	=67	=67	=67	=67	=67	=67
4.eee	2r	2r	4.eee	8cc	8e	2r	2r	4.eee	8cc	8cc	8E	8E	2r	2r	2r
.	.	.	.	8gg	8c	.	.	.	8gg	8gg	8C	8C	.	.	.
.	.	.	.	8ccc	8a	.	.	.	8ccc	8ccc	8A	8A	.	.	.
8ddd	.	.	8ddd	8bb	8b	.	.	8ddd	8bb	8bb	8B	8B	.	.	.
=68	=68	=68	=68	=68	=68	=68	=68	=68	=68	=68	=68	=68	=68	=68	=68
8ccc	2r	2r	8ccc	8aa	4.cc	2r	2r	8ccc	8aa	8aa	4.c	4.c	2r	2r	2r
8bb	.	.	8bb	8gg	.	.	.	8bb	8gg	8gg	.	.	.	.	.
8aa	.	.	8aa	8ff#	.	.	.	8aa	8ff#	8ff#	.	.	.	.	.
8gg	.	.	8gg	8ee	8cc#	.	.	8gg	8ee	8ee	8c#	8c#	.	.	.
=69	=69	=69	=69	=69	=69	=69	=69	=69	=69	=69	=69	=69	=69	=69	=69
8ff#	2r	2r	8ff#	8dd	8dd	2r	2r	8ff#	8r	8dd	8d	8d	2r	2r	2r
8eee	.	.	8eee	8ff#	8d	.	.	8eee	8ccc	8ff#	8D	8D	.	.	.
8ddd	.	.	8ddd	8gg	8d	.	.	8ddd	8bb	8gg	8D	8D	.	.	.
8ccc	.	.	8ccc	8aa	16e	.	.	8ccc	8aa	8aa	16E	16E	.	.	.
.	.	.	.	.	16f#	.	.	.	.	.	16F#	16F#	.	.	.
=70	=70	=70	=70	=70	=70	=70	=70	=70	=70	=70	=70	=70	=70	=70	=70
8bb	4.r	4.r	8bb	8dd	4g	4.r	4.r	8bb	8bb	8dd	4G	4G	4.r	4.r	4.r
8aa	.	.	8aa	8cc	.	.	.	8aa	8aa	8cc	.	.	.	.	.
8gg	.	.	8gg	8b	8r	.	.	8gg	8gg	8b	8r	8r	.	.	.
8aa	8c	8C	8aa	8ff	8c	8C	8C	8aa	8aa	8ff	8C	8C	8cc	8c	8cc
=71	=71	=71	=71	=71	=71	=71	=71	=71	=71	=71	=71	=71	=71	=71	=71
8gg	8c	8C	8gg	8ee	8c	8C	8C	8gg	8gg	8ee	8C	8C	8cc	8c	8cc
8ff	8c	8C	8ff	8dd	8c	8C	8C	8ff	8ff	8dd	8C	8C	8cc	8c	8cc
8ee	8c	8C	8ee	8cc	8c	8C	8C	8ee	8ee	8cc	8C	8C	8cc	8c	8cc
8dd	8c	8C	8dd	8b	8c	8C	8C	8dd	8dd	8b	8C	8C	8cc	8c	8cc
=72	=72	=72	=72	=72	=72	=72	=72	=72	=72	=72	=72	=72	=72	=72	=72
8.ee	[2c	4C	8.ee	4.cc	8.c	8.C	8.C	8.ee	4ee	[2cc	8.C	8.C	4cc	4c	[2cc
32ff	.	.	32ff	.	32d	32D	32D	32ff	.	.	32D	32D	.	.	.
32gg	.	.	32gg	.	32e	32E	32E	32gg	.	.	32E	32E	.	.	.
8aa	.	4r	8aa	.	8f	8F	8F	8aa	4r	.	8F	8F	4r	4r	.
8gg	.	.	8gg	8c	8e	8E	8E	8gg	.	.	8E	8E	.	.	.
=73	=73	=73	=73	=73	=73	=73	=73	=73	=73	=73	=73	=73	=73	=73	=73
8ff	4c]	2r	8ff	8cc	4.a	4.A	4.A	8ff	8r	4.cc]	4.A	4.A	2r	2r	4cc]
8cc	.	.	8cc	8cc	.	.	.	8cc	8cc	.	.	.	.	.	.
8ff	4r	.	8ff	8cc	.	.	.	8ff	8ff	.	.	.	.	.	4r
8ee	.	.	8ee	8b	8g	8G	8G	8ee	8ee	8b	8G	8G	.	.	.
=74	=74	=74	=74	=74	=74	=74	=74	=74	=74	=74	=74	=74	=74	=74	=74
8dd	2r	2r	8dd	8a	8f	8F	8F	8dd	8dd	8a	8F	8F	2r	2r	2r
8cc	.	.	8cc	8g	8e	8E	8E	8cc	8cc	8g	8E	8E	.	.	.
8b	.	.	8b	8f	8d	8D	8D	8b	8b	8f	8D	8D	.	.	.
8aa	.	.	8aa	8e	8c	8C	8C	8aa	8aa	8e	8C	8C	.	.	.
=75	=75	=75	=75	=75	=75	=75	=75	=75	=75	=75	=75	=75	=75	=75	=75
8gg	2g	4GG	8gg	8d	8B	8BB	8BB	8gg	8gg	4d	8BB	8BB	2r	2r	2dd
8ff	.	.	8ff	8c	8a	8A	8A	8ff	8ff	.	8A	8A	.	.	.
8ee	.	4r	8ee	8B	8g	8G	8G	8ee	8ee	8r	8G	8G	.	.	.
8dd	.	.	8dd	8b	8g	8F	8F	8dd	8dd	8b	8F	8F	.	.	.
=76	=76	=76	=76	=76	=76	=76	=76	=76	=76	=76	=76	=76	=76	=76	=76
8cc	4cc	4C	8cc	8cc	8g	8E	8E	8cc	4cc	8cc	8E	8E	2r	2r	4ee
8gg	.	.	8gg	8ff	8B	8D	8D	8gg	.	8ff	8D	8D	.	.	.
8ccc	4r	4r	8ccc	8ee	8c	8C	8C	8ccc	4r	8ee	8C	8C	.	.	4r
8bb	.	.	8bb	8dd	8f	8G	8G	8bb	.	8dd	8G	8G	.	.	.
=77	=77	=77	=77	=77	=77	=77	=77	=77	=77	=77	=77	=77	=77	=77	=77
8aa	2r	2r	8aa	8ee	4e	8c	8c	8aa	4.r	8ee	8c	8c	2r	2r	2r
8gg	.	.	8gg	8dd	.	8B	8B	8gg	.	8dd	8B	8B	.	.	.
8ff#	.	.	8ff#	8cc	4r	8A	8A	8ff#	.	8cc	8A	8A	.	.	.
8aa	.	.	8aa	8b	.	8G	8G	8aa	8aa	8b	8G	8G	.	.	.
=78	=78	=78	=78	=78	=78	=78	=78	=78	=78	=78	=78	=78	=78	=78	=78
8ddd	2r	2r	8ddd	4a	8r	8F#	8F#	8ddd	8ddd	4a	8F#	8F#	2r	2r	2r
8ccc	.	.	8ccc	.	4F#	8A	8A	8ccc	8ccc	.	8A	8A	.	.	.
8bb	.	.	8bb	8r	.	8d	8d	8bb	8bb	8r	8d	8d	.	.	.
8aa	.	.	8aa	8f#	8d	8c	8c	8aa	8aa	8f#	8c	8c	.	.	.
=79	=79	=79	=79	=79	=79	=79	=79	=79	=79	=79	=79	=79	=79	=79	=79
8gg	2r	2r	8gg	8g	8G	8B	8B	8gg	4gg	8g	8B	8B	2r	2r	2r
8ff#	.	.	8ff#	8cc	8d	8d	8d	8ff#	.	8cc	8d	8d	.	.	.
8ee	.	.	8ee	8b	8g	8g	8g	8ee	4r	8b	8g	8g	.	.	.
8dd	.	.	8dd	8a	8f#	8f#	8f#	8dd	.	8a	8f#	8f#	.	.	.
=80	=80	=80	=80	=80	=80	=80	=80	=80	=80	=80	=80	=80	=80	=80	=80
8cc	2r	2r	8cc	8g	8e	8e	8e	8cc	4.r	8g	8e	8e	2r	2r	2r
8bb	.	.	8b	8f#	8d	8d	8d	8bb	.	4.r	8d	8d	.	.	.
8aa	.	.	8a	8e	8c	8c	8c	8aa	.	.	8c	8c	.	.	.
8gg	.	.	8g	8d	8B	8B	8B	8gg	8gg	.	8B	8B	.	.	.
=81	=81	=81	=81	=81	=81	=81	=81	=81	=81	=81	=81	=81	=81	=81	=81
8ff#	2r	2r	8f#	8c	8A	8A	8A	8ff#	8ff#	2r	8A	8A	2r	2r	2r
8eee	.	.	8e	8B	8G	8G	8G	8eee	8ee	.	8G	8G	.	.	.
8ddd	.	.	8d	8A	8F#	8F#	8F#	8ddd	8dd	.	8F#	8F#	.	.	.
8ccc#	.	.	8c#	8g	8E	8E	8E	8ccc#	8cc#	.	8E	8E	.	.	.
=82	=82	=82	=82	=82	=82	=82	=82	=82	=82	=82	=82	=82	=82	=82	=82
2ddd	2r	2r	8d	2f# 2A	8D	8D	8D	2ddd	2dd	[2f#	8D	8D	[2dd	[2dd	2r
.	.	.	16e	.	8D	8D	8D	.	.	.	8D	8D	.	.	.
.	.	.	16f#	.	.	.	.	.	.	.	.	.	.	.	.
.	.	.	16g	.	8D	8D	8D	.	.	.	8D	8D	.	.	.
.	.	.	16a	.	.	.	.	.	.	.	.	.	.	.	.
.	.	.	16b	.	8D	8D	8D	.	.	.	8D	8D	.	.	.
.	.	.	16cc#	.	.	.	.	.	.	.	.	.	.	.	.
=83	=83	=83	=83	=83	=83	=83	=83	=83	=83	=83	=83	=83	=83	=83	=83
2aa	2r	2r	16dd	2f# 2cc	8A	8D	8D	2aa	2cc	2f#]	8D	8D	2dd]	2dd]	2r
.	.	.	16ee	.	.	.	.	.	.	.	.	.	.	.	.
.	.	.	16ff#	.	8A	8D	8D	.	.	.	8D	8D	.	.	.
.	.	.	16gg	.	.	.	.	.	.	.	.	.	.	.	.
.	.	.	8aa	.	8A	8D	8D	.	.	.	8D	8D	.	.	.
.	.	.	8cc	.	8A	8D	8D	.	.	.	8D	8D	.	.	.
=84	=84	=84	=84	=84	=84	=84	=84	=84	=84	=84	=84	=84	=84	=84	=84
4bb	2g	4GG	8.b	16d	16B	8G	8G	4bb	4b	4g	8G	8G	2dd	2g	2dd
.	.	.	.	16b	16d	.	.	.	.	.	.	.	.	.	.
.	.	.	.	16d	16B	8G	8G	.	.	.	8G	8G	.	.	.
.	.	.	16cc	16b	16d	.	.	.	.	.	.	.	.	.	.
8r	.	4r	8dd	16d	16B	8G	8G	8r	8r	8r	8G	8G	.	.	.
.	.	.	.	16b	16d	.	.	.	.	.	.	.	.	.	.
8ddd	.	.	8ddd	16d	16B	8G	8G	8ddd	8aa	8dd	8G	8G	.	.	.
.	.	.	.	16b	16d	.	.	.	.	.	.	.	.	.	.
=85	=85	=85	=85	=85	=85	=85	=85	=85	=85	=85	=85	=85	=85	=85	=85
8ddd	2dd	2r	8ddd	16d	16c	8F#	8F#	8ddd	8aa	8dd	8F#	8F#	[2dd	2dd	2dd
.	.	.	.	16cc	16d	.	.	.	.	.	.	.	.	.	.
8ddd	.	.	8ddd	16d	16c	8F#	8F#	8ddd	8aa	8dd	8F#	8F#	.	.	.
.	.	.	.	16cc	16d	.	.	.	.	.	.	.	.	.	.
8ddd	.	.	8ddd	16d	16c	8F#	8F#	8ddd	8aa	8dd	8F#	8F#	.	.	.
.	.	.	.	16cc	16d	.	.	.	.	.	.	.	.	.	.
8ddd	.	.	8ddd	16d	16c	8F#	8F#	8ddd	8aa	8dd	8F#	8F#	.	.	.
.	.	.	.	16cc	16d	.	.	.	.	.	.	.	.	.	.
=86	=86	=86	=86	=86	=86	=86	=86	=86	=86	=86	=86	=86	=86	=86	=86
4ddd	2g	4GG	8.ddd	16d	16B	8G	8G	4ddd	4bb	4dd	8G	8G	2dd_	2g	2dd
.	.	.	.	16b	16d	.	.	.	.	.	.	.	.	.	.
.	.	.	.	16d	16B	8G	8G	.	.	.	8G	8G	.	.	.
.	.	.	16ccc	16b	16d	.	.	.	.	.	.	.	.	.	.
8r	.	4r	8bb	16d	16B	8G	8G	8r	8r	8r	8G	8G	.	.	.
.	.	.	.	16b	16d	.	.	.	.	.	.	.	.	.	.
8ddd	.	.	8dd	16d	16B	8G	8G	8ddd	8cc	8a	8G	8G	.	.	.
.	.	.	.	16b	16d	.	.	.	.	.	.	.	.	.	.
=87	=87	=87	=87	=87	=87	=87	=87	=87	=87	=87	=87	=87	=87	=87	=87
8ddd	2dd	2r	8dd	16d	16c	8F#	8F#	8ddd	8cc	8a	8F#	8F#	2dd]	2dd	2dd
.	.	.	.	16cc	16d	.	.	.	.	.	.	.	.	.	.
8ddd	.	.	8dd	16d	16c	8F#	8F#	8ddd	8cc	8a	8F#	8F#	.	.	.
.	.	.	.	16cc	16d	.	.	.	.	.	.	.	.	.	.
8ddd	.	.	8dd	16d	16c	8F#	8F#	8ddd	8cc	8a	8F#	8F#	.	.	.
.	.	.	.	16cc	16d	.	.	.	.	.	.	.	.	.	.
8ddd	.	.	8dd	16d	16c	8F#	8F#	8ddd	8cc	8a	8F#	8F#	.	.	.
.	.	.	.	16cc	16d	.	.	.	.	.	.	.	.	.	.
=88	=88	=88	=88	=88	=88	=88	=88	=88	=88	=88	=88	=88	=88	=88	=88
4ddd	4g	4GG	8.dd	16d	16B	4G	4G	4ddd	4b	4b	4G	4G	4dd	4g	4dd
.	.	.	.	16b	16d	.	.	.	.	.	.	.	.	.	.
.	.	.	.	16d	16B	.	.	.	.	.	.	.	.	.	.
.	.	.	16cc	16b	16d	.	.	.	.	.	.	.	.	.	.
4r	4r	4r	8b	8d	8B	4r	4r	4r	4r	4r	4r	4r	4r	4r	4r
.	.	.	8aa	8dd	8f#	.	.	.	.	.	.	.	.	.	.
=89	=89	=89	=89	=89	=89	=89	=89	=89	=89	=89	=89	=89	=89	=89	=89
2ddd	2r	2r	8aa	8dd	8f#	2r	2r	2r	2aa	[2dd	2f#	2r	2r	2r	2r
.	.	.	8aa	8dd	8f#	.	.	.	.	.	.	.	.	.	.
.	.	.	8aa	8dd	8f#	.	.	.	.	.	.	.	.	.	.
.	.	.	8aa	8dd	8f#	.	.	.	.	.	.	.	.	.	.
=90	=90	=90	=90	=90	=90	=90	=90	=90	=90	=90	=90	=90	=90	=90	=90
4bb	2r	2r	8.bb	8.dd	8.g	4.r	2r	2r	4bb	4dd]	4g	2r	2r	2r	2r
.	.	.	16ccc	16cc	16a	.	.	.	.	.	.	.	.	.	.
4r	.	.	8ddd	8b	8b	.	.	.	4r	4r	4r	.	.	.	.
.	.	.	8ff#	8b	8d#	8d#	.	.	.	.	.	.	.	.	.
=91	=91	=91	=91	=91	=91	=91	=91	=91	=91	=91	=91	=91	=91	=91	=91
2bb	2r	2r	8ff#	8b	8d#	8d#	2r	2r	2ff#	[2b	2d#	2r	2r	2r	2r
.	.	.	8ff#	8b	8d#	8d#	.	.	.	.	.	.	.	.	.
.	.	.	8ff#	8b	8d#	8d#	.	.	.	.	.	.	.	.	.
.	.	.	8ff#	8b	8d#	8d#	.	.	.	.	.	.	.	.	.
=92	=92	=92	=92	=92	=92	=92	=92	=92	=92	=92	=92	=92	=92	=92	=92
4gg	2r	2r	8.gg	8.b	8.e	8.e	2r	2r	4gg	4b]	4e	2r	2r	2r	2r
.	.	.	16aa	16a	16f#	16f#	.	.	.	.	.	.	.	.	.
4r	.	.	8bb	8g	8g	8g	.	.	4r	4r	4r	.	.	.	.
.	.	.	8dd#	8g	8B	8B	.	.	.	.	.	.	.	.	.
=93	=93	=93	=93	=93	=93	=93	=93	=93	=93	=93	=93	=93	=93	=93	=93
[2gg	2r	2r	8dd#	8g	8B	8B	2r	2r	2dd#	[2g	2B	2r	2r	2r	2r
.	.	.	8dd#	8g	8B	8B	.	.	.	.	.	.	.	.	.
.	.	.	8dd#	8g	8B	8B	.	.	.	.	.	.	.	.	.
.	.	.	8dd#	8g	8B	8B	.	.	.	.	.	.	.	.	.
=94	=94	=94	=94	=94	=94	=94	=94	=94	=94	=94	=94	=94	=94	=94	=94
4gg]	2r	2r	4ee	4g	4c	4c	4.r	2r	4ee	4g]	4c	2r	2r	2r	2r
4r	.	.	8r	8r	8r	8r	.	.	4r	4r	4r	.	.	.	.
.	.	.	8G#	8G#	8G#	8GG#	8GG#	.	.	.	.	.	.	.	.
=95	=95	=95	=95	=95	=95	=95	=95	=95	=95	=95	=95	=95	=95	=95	=95
2gg#	2r	2r	8G#	8G#	8G#	8GG#	8GG#	2gg#	2gg#	2g#	2G#	2G#	2r	2r	2r
.	.	.	8G#	8G#	8G#	8GG#	8GG#	.	.	.	.	.	.	.	.
.	.	.	8G#	8G#	8G#	8GG#	8GG#	.	.	.	.	.	.	.	.
.	.	.	8G#	8G#	8G#	8GG#	8GG#	.	.	.	.	.	.	.	.
=96	=96	=96	=96	=96	=96	=96	=96	=96	=96	=96	=96	=96	=96	=96	=96
8.aa	2r	2r	8.A	8.A	8.A	8.AA	8.AA	8.aa	4.aa	4.a	8.A	8.A	2r	2r	2r
16bb	.	.	16B	16B	16B	16BB	16BB	16bb	.	.	16B	16B	.	.	.
8ccc	.	.	8c	8c	8c	8C	8C	8ccc	.	.	8c	8c	.	.	.
8eee	.	.	8ee	8cc	8c	8C	8C	8eee	8ccc	8ee	8c	8c	.	.	.
=97	=97	=97	=97	=97	=97	=97	=97	=97	=97	=97	=97	=97	=97	=97	=97
8ddd	2r	2r	8dd	8b	8d	8D	8D	8ddd	8bb	8dd	4d	4d	2r	2r	2r
8ccc	.	.	8cc	8a	8d	8D	8D	8ccc	8aa	8cc	.	.	.	.	.
8bb	.	.	8b	8g	8d	8D	8D	8bb	8gg	8b	4D	4D	.	.	.
8aa	.	.	8a	8f#	8d	8D	8D	8aa	8ff#	8a	.	.	.	.	.
=98	=98	=98	=98	=98	=98	=98	=98	=98	=98	=98	=98	=98	=98	=98	=98
4.gg	2g	4GG	4.g	4g	2d 2B	8GG	8GG	4.gg	2gg	2g	[2d	[2d	2gg	2g	2gg
.	.	.	.	.	.	8G	8G	.	.	.	.	.	.	.	.
.	.	4r	.	4r	.	8G	8G	.	.	.	.	.	.	.	.
16ff#	.	.	16f#	.	.	8G	8G	16ff#	.	.	.	.	.	.	.
16gg	.	.	16g	.	.	.	.	16gg	.	.	.	.	.	.	.
=99	=99	=99	=99	=99	=99	=99	=99	=99	=99	=99	=99	=99	=99	=99	=99
4.aa	2dd	4GG	4.a	4.f#	2c 2d	8GG	8GG	4.aa	2ff#	2cc	2d_	2d_	2dd	2dd	2dd
.	.	.	.	.	.	8G	8G	.	.	.	.	.	.	.	.
.	.	4r	.	.	.	8G	8G	.	.	.	.	.	.	.	.
16bb	.	.	16b	16g	.	8G	8G	16bb	.	.	.	.	.	.	.
16ccc	.	.	16cc	16a	.	.	.	16ccc	.	.	.	.	.	.	.
=100	=100	=100	=100	=100	=100	=100	=100	=100	=100	=100	=100	=100	=100	=100	=100
8ddd	2g	4GG	8dd	8b	2d 2B	8GG	8GG	8ddd	2gg	2b	2d_	2d_	2gg	2g	2gg
8bb	.	.	8b	8g	.	8G	8G	8bb	.	.	.	.	.	.	.
8gg	.	4r	8g	8d	.	8G	8G	8gg	.	.	.	.	.	.	.
8gg	.	.	8g	8d	.	8G	8G	8gg	.	.	.	.	.	.	.
=101	=101	=101	=101	=101	=101	=101	=101	=101	=101	=101	=101	=101	=101	=101	=101
8aa	2dd	4GG	8a	2f# 2A	2d 2c	8GG	8GG	8aa	2ff#	2cc	2d_	2d_	2dd	2dd	2ff#
8gg	.	.	8g	.	.	8G	8G	8gg	.	.	.	.	.	.	.
8aa	.	4r	8a	.	.	8G	8G	8aa	.	.	.	.	.	.	.
8bb	.	.	8b	.	.	8G	8G	8bb	.	.	.	.	.	.	.
=102	=102	=102	=102	=102	=102	=102	=102	=102	=102	=102	=102	=102	=102	=102	=102
4.gg	2g	16GG	4.g	2B 2g	2d 2B	8GG	8GG	4.gg	2gg	2b	2d_	2d_	2gg	2g	2gg
.	.	16GG	.	.	.	.	.	.	.	.	.	.	.	.	.
.	.	16GG	.	.	.	8G	8G	.	.	.	.	.	.	.	.
.	.	16GG	.	.	.	.	.	.	.	.	.	.	.	.	.
.	.	16GG	.	.	.	8G	8G	.	.	.	.	.	.	.	.
.	.	16GG	.	.	.	.	.	.	.	.	.	.	.	.	.
16ff#	.	16GG	16f#	.	.	8G	8G	16ff#	.	.	.	.	.	.	.
16gg	.	16GG	16g	.	.	.	.	16gg	.	.	.	.	.	.	.
=103	=103	=103	=103	=103	=103	=103	=103	=103	=103	=103	=103	=103	=103	=103	=103
4.aa	2dd	16GG	4.a	4.f#	2d 2c	8GG	8GG	4.aa	4.ff#	2cc	2d_	2d_	2dd	2dd	2dd
.	.	16GG	.	.	.	.	.	.	.	.	.	.	.	.	.
.	.	16GG	.	.	.	8G	8G	.	.	.	.	.	.	.	.
.	.	16GG	.	.	.	.	.	.	.	.	.	.	.	.	.
.	.	16GG	.	.	.	8G	8G	.	.	.	.	.	.	.	.
.	.	16GG	.	.	.	.	.	.	.	.	.	.	.	.	.
16bb	.	16GG	16b	16g	.	8G	8G	16bb	8aa	.	.	.	.	.	.
16ccc	.	16GG	16cc	16a	.	.	.	16ccc	.	.	.	.	.	.	.
=104	=104	=104	=104	=104	=104	=104	=104	=104	=104	=104	=104	=104	=104	=104	=104
8ddd	2g	16GG	8dd	8b	2d 2B	8GG	8GG	8ddd	2gg	2b	2d_	2d_	2gg	2g	2gg
.	.	16GG	.	.	.	.	.	.	.	.	.	.	.	.	.
8bb	.	16GG	8b	8g	.	8G	8G	8bb	.	.	.	.	.	.	.
.	.	16GG	.	.	.	.	.	.	.	.	.	.	.	.	.
8gg	.	16GG	8g	8d	.	8G	8G	8gg	.	.	.	.	.	.	.
.	.	16GG	.	.	.	.	.	.	.	.	.	.	.	.	.
8gg	.	16GG	8g	8d	.	8G	8G	8gg	.	.	.	.	.	.	.
.	.	16GG	.	.	.	.	.	.	.	.	.	.	.	.	.
=105	=105	=105	=105	=105	=105	=105	=105	=105	=105	=105	=105	=105	=105	=105	=105
8aa	2dd	16GG	8a	2f# 2A	2d 2c	8GG	8GG	8aa	2ff#	2cc	2d]	2d]	2dd	2dd	2ff#
.	.	16GG	.	.	.	.	.	.	.	.	.	.	.	.	.
8gg	.	16GG	8g	.	.	8G	8G	8gg	.	.	.	.	.	.	.
.	.	16GG	.	.	.	.	.	.	.	.	.	.	.	.	.
8aa	.	16GG	8a	.	.	8G	8G	8aa	.	.	.	.	.	.	.
.	.	16GG	.	.	.	.	.	.	.	.	.	.	.	.	.
8bb	.	16GG	8b	.	.	8G	8G	8bb	.	.	.	.	.	.	.
.	.	16GG	.	.	.	.	.	.	.	.	.	.	.	.	.
=106	=106	=106	=106	=106	=106	=106	=106	=106	=106	=106	=106	=106	=106	=106	=106
4gg	4g	4GG	4g	4g 4B	2d 2B	8GG	8GG	4gg	4gg	4b	4G	4G	4gg	4g	4gg
.	.	.	.	.	.	8G	8G	.	.	.	.	.	.	.	.
4r	4r	4r	8r	4r	.	4GG	4GG	4r	4r	4r	4r	4r	4r	4r	4r
.	.	.	16g	.	.	.	.	.	.	.	.	.	.	.	.
.	.	.	16a	.	.	.	.	.	.	.	.	.	.	.	.
=107	=107	=107	=107	=107	=107	=107	=107	=107	=107	=107	=107	=107	=107	=107	=107
2r	2r	2r	4b	8r	8r	8r	8r	2r	2r	2r	2r	2r	2r	2r	2r
.	.	.	.	8B	8d	8G	8G	.	.	.	.	.	.	.	.
.	.	.	8r	8B	8d	8G	8G	.	.	.	.	.	.	.	.
.	.	.	16b	8r	8r	8r	8r	.	.	.	.	.	.	.	.
.	.	.	16cc	.	.	.	.	.	.	.	.	.	.	.	.
=108	=108	=108	=108	=108	=108	=108	=108	=108	=108	=108	=108	=108	=108	=108	=108
2r	2r	2r	4dd	8r	8r	8r	8r	2r	2r	2r	2r	2r	2r	2r	2r
.	.	.	.	8B	8d	8G	8G	.	.	.	.	.	.	.	.
.	.	.	8r	8B	8d	8G	8G	.	.	.	.	.	.	.	.
.	.	.	8ff	8r	8r	8r	8r	.	.	.	.	.	.	.	.
=109	=109	=109	=109	=109	=109	=109	=109	=109	=109	=109	=109	=109	=109	=109	=109
2r	2r	2r	4ee	8r	8r	8r	8r	2r	2r	2r	2r	2r	2r	2r	2r
.	.	.	.	8B	8f	8G	8G	.	.	.	.	.	.	.	.
.	.	.	8dd	8B	8f	8G	8G	.	.	.	.	.	.	.	.
.	.	.	8aa	8r	8r	8r	8r	.	.	.	.	.	.	.	.
=110	=110	=110	=110	=110	=110	=110	=110	=110	=110	=110	=110	=110	=110	=110	=110
2r	2r	2r	4gg	8r	8r	8r	8r	2r	2r	2r	2r	2r	2r	2r	2r
.	.	.	.	8B 8d	8f	8G	8G	.	.	.	.	.	.	.	.
.	.	.	8ff	8d 8B	8f	8G	8G	.	.	.	.	.	.	.	.
.	.	.	8ddd	8r	8r	8r	8r	.	.	.	.	.	.	.	.
=111	=111	=111	=111	=111	=111	=111	=111	=111	=111	=111	=111	=111	=111	=111	=111
2r	2r	2r	8ccc	2r	2r	2r	2r	2r	2r	2r	2r	2r	2r	2r	2r
.	.	.	8bb	.	.	.	.	.	.	.	.	.	.	.	.
.	.	.	8aa	.	.	.	.	.	.	.	.	.	.	.	.
.	.	.	8gg	.	.	.	.	.	.	.	.	.	.	.	.
=112	=112	=112	=112	=112	=112	=112	=112	=112	=112	=112	=112	=112	=112	=112	=112
2r	2r	2r	8ff	2r	2r	2r	2r	2r	2r	2r	2r	2r	2r	2r	2r
.	.	.	8ee	.	.	.	.	.	.	.	.	.	.	.	.
.	.	.	8dd	.	.	.	.	.	.	.	.	.	.	.	.
.	.	.	8cc	.	.	.	.	.	.	.	.	.	.	.	.
=113	=113	=113	=113	=113	=113	=113	=113	=113	=113	=113	=113	=113	=113	=113	=113
2r	2r	2r	8b	2r	2r	2r	2r	2r	2r	2r	2r	2r	2r	2r	2r
.	.	.	8b-	.	.	.	.	.	.	.	.	.	.	.	.
.	.	.	8a	.	.	.	.	.	.	.	.	.	.	.	.
.	.	.	8a-	.	.	.	.	.	.	.	.	.	.	.	.
=114	=114	=114	=114	=114	=114	=114	=114	=114	=114	=114	=114	=114	=114	=114	=114
2r	2r	2r	8g	2r	2r	2r	2r	2r	2r	2r	4.r	2r	2r	2r	2r
.	.	.	8f#	.	.	.	.	.	.	.	.	.	.	.	.
.	.	.	8f	.	.	.	.	.	.	.	.	.	.	.	.
.	.	.	16e	.	.	.	.	.	.	.	16E	.	.	.	.
.	.	.	16f	.	.	.	.	.	.	.	16F	.	.	.	.
=115	=115	=115	=115	=115	=115	=115	=115	=115	=115	=115	=115	=115	=115	=115	=115
2r	2r	2r	4g	8r	8r	8r	8r	2r	2r	2r	4G	2r	2r	2r	2r
.	.	.	.	8e	8G	8C	8C	.	.	.	.	.	.	.	.
.	.	.	8e	8e	8G	8C	8C	.	.	.	8E	.	.	.	.
.	.	.	8cc	8r	8r	8r	8r	.	.	.	8c	.	.	.	.
=116	=116	=116	=116	=116	=116	=116	=116	=116	=116	=116	=116	=116	=116	=116	=116
2r	2r	2r	4b	8r	8r	8r	8r	2r	2r	2r	4B	2r	2r	2r	2r
.	.	.	.	8c	8F	8F	8F	.	.	.	.	.	.	.	.
.	.	.	8a	8c	8F	8F	8F	.	.	.	8A	.	.	.	.
.	.	.	16ff	8r	8r	8r	8r	.	.	.	16f	.	.	.	.
.	.	.	16dd	.	.	.	.	.	.	.	16d	.	.	.	.
=117	=117	=117	=117	=117	=117	=117	=117	=117	=117	=117	=117	=117	=117	=117	=117
2r	2r	2r	4cc	8r	8r	8r	8r	2r	2r	2r	4c	2r	2r	2r	2r
.	.	.	.	8f	8d	8G	8G	.	.	.	.	.	.	.	.
.	.	.	8b	8f	8d	8G	8G	.	.	.	8B	.	.	.	.
.	.	.	8gg	8r	8r	8r	8r	.	.	.	8g	.	.	.	.
=118	=118	=118	=118	=118	=118	=118	=118	=118	=118	=118	=118	=118	=118	=118	=118
4.r	4.r	4.r	4ff	8r	8r	8r	8r	4.r	4.r	4.r	4f	32r	4.r	4.r	4.r
.	.	.	.	.	.	.	.	.	.	.	.	8c	.	.	.
.	.	.	.	8d	8B	8C	8C	.	.	.	.	.	.	.	.
.	.	.	.	.	.	.	.	.	.	.	.	32ryy	.	.	.
.	.	.	.	.	.	.	.	.	.	.	.	32ryy	.	.	.
.	.	.	.	.	.	.	.	.	.	.	.	32ryy	.	.	.
.	.	.	8ee	8e	8c	8C	8C	.	.	.	8e	32ryy	.	.	.
.	.	.	.	.	.	.	.	.	.	.	.	32ryy	.	.	.
.	.	.	.	.	.	.	.	.	.	.	.	32ryy	.	.	.
.	.	.	.	.	.	.	.	.	.	.	.	32ryy	.	.	.
8ccc	8c	8C	8ccc	8cc	8cc	8c	8c	8ccc	8ccc	8ccc	8c	32ryy	8cc	8c	8cc
.	.	.	.	.	.	.	.	.	.	.	.	32ryy	.	.	.
.	.	.	.	.	.	.	.	.	.	.	.	32ryy	.	.	.
.	.	.	.	.	.	.	.	.	.	.	.	32ryy	.	.	.
=119	=119	=119	=119	=119	=119	=119	=119	=119	=119	=119	=119	=119	=119	=119	=119
8bb	8c	8C	8bb	8b	8b	8B	8B	8bb	8bb	8bb	8B	8B	8cc	8c	8cc
8aa	8c	8C	8aa	8a	8a	8A	8A	8aa	8aa	8aa	8A	8A	8cc	8c	8cc
8gg	8c	8C	8gg	8g	8g	8G	8G	8gg	8gg	8gg	8G	8G	8cc	8c	8cc
8ff	8c	8C	8ff	8f	8f	8F	8F	8ff	8ff	8ff	8F	8F	8cc	8c	8cc
=120	=120	=120	=120	=120	=120	=120	=120	=120	=120	=120	=120	=120	=120	=120	=120
8ee	4c	4C	8ee	8e	8e	8E	8E	8ee	8ee	8ee	8E	8E	4cc	4c	4cc
8dd	.	.	8dd	8d	8d	8D	8D	8dd	8dd	8dd	8D	8D	.	.	.
8cc	4r	4r	8cc	8c	8c	8C	8C	8cc	8cc	8cc	8C	8C	4r	4r	4r
8b	.	.	8b	8B	8B	8BB	8BB	8b	8b	8b	8BB	8BB	.	.	.
=121	=121	=121	=121	=121	=121	=121	=121	=121	=121	=121	=121	=121	=121	=121	=121
8a	2r	2r	8a	8A	8A	8AA	8AA	8a	8a	8a	8AA	8AA	2r	2r	2r
8r	.	.	8r	8r	8r	8r	8r	8r	8r	8r	8r	8r	.	.	.
8dd	.	.	8dd	8d	8d	8D	8D	8dd	8dd	8dd	8D	8D	.	.	.
8r	.	.	8r	8r	8r	8r	8r	8r	8r	8r	8r	8r	.	.	.
=122	=122	=122	=122	=122	=122	=122	=122	=122	=122	=122	=122	=122	=122	=122	=122
4g	2r	2r	4g	4G	4G	4GG	4GG	4g	4g	4g	4GG	4GG	2r	2r	2r
8r	.	.	8r	4r	4r	4r	4r	8r	4r	4r	4r	4r	.	.	.
16ee-	.	.	16e-	.	.	.	.	16ee-	.	.	.	.	.	.	.
16ff	.	.	16f	.	.	.	.	16ff	.	.	.	.	.	.	.
=123	=123	=123	=123	=123	=123	=123	=123	=123	=123	=123	=123	=123	=123	=123	=123
4gg	2r	2r	4g	8r	8r	8r	8r	4gg	8r	8r	4C	4CC	2r	2r	2r
.	.	.	.	8G 8e-	8c	8C	8C	.	8g	8e-	.	.	.	.	.
8ee-	.	.	8e-	8e- 8G	8c	8C	8C	8ee-	8e-	8e-	4r	4r	.	.	.
8ccc	.	.	8cc	8r	8r	8r	8r	8ccc	8r	8r	.	.	.	.	.
=124	=124	=124	=124	=124	=124	=124	=124	=124	=124	=124	=124	=124	=124	=124	=124
4bb-	2r	2r	4b-	8r	8r	8r	8r	4bb-	8r	8r	4F	4FF	2r	2r	2r
.	.	.	.	8c	8c	8F	8F	.	8b-	8g	.	.	.	.	.
8aa-	.	.	8a-	8c	8c	8F	8F	8aa-	8a-	8f	4r	4r	.	.	.
8ff	.	.	8ff	8r	8r	8r	8r	8ff	8r	8r	.	.	.	.	.
=125	=125	=125	=125	=125	=125	=125	=125	=125	=125	=125	=125	=125	=125	=125	=125
4ee-	2r	2r	4ee-	8r	8r	8r	8r	4ee-	8r	8r	4BB-	4BBB-	2r	2r	2r
.	.	.	.	8A- 8f	8d	8BB-	8BB-	.	8ee-	8a-	.	.	.	.	.
8dd	.	.	8dd	8A- 8f	8d	8BB-	8BB-	8dd	8dd	8f	4r	4r	.	.	.
8bb-	.	.	8bb-	8r	8r	8r	8r	8bb-	8r	8r	.	.	.	.	.
=126	=126	=126	=126	=126	=126	=126	=126	=126	=126	=126	=126	=126	=126	=126	=126
4aa-	2r	2r	4aa-	8r	8r	8r	8r	4aa-	8r	8r	4E-	4EE-	2r	2r	2r
.	.	.	.	8dd 8f	8f	8E-	8E-	.	8aa-	8ff	.	.	.	.	.
8gg	.	.	8gg	8e- 8ee-	8B-	8E-	8E-	8gg	8gg	8ee-	4r	4r	.	.	.
8eee-	.	.	8eee-	8b-	8g	8g	8r	8eee-	8ee-	8r	.	.	.	.	.
=127	=127	=127	=127	=127	=127	=127	=127	=127	=127	=127	=127	=127	=127	=127	=127
8ddd	2r	2r	8ddd	8a-	8f	8f	2r	8ddd	8dd	8r	2r	2r	2r	2r	2r
8ccc	.	.	8ccc	8g	8e-	8e-	.	8ccc	8cc	8cc	.	.	.	.	.
8bb-	.	.	8bb-	8f	8d	8d	.	8bb-	8b-	8b-	.	.	.	.	.
8aa	.	.	8aa	8e-	8c	8c	.	8aa	8a	8a	.	.	.	.	.
=128	=128	=128	=128	=128	=128	=128	=128	=128	=128	=128	=128	=128	=128	=128	=128
8bb-	2r	2r	8bb-	4.d	4.d	4.d	4.r	8bb-	4b-	4b-	4.r	4.r	2r	2r	2r
8aa	.	.	8aa	.	.	.	.	8aa	.	.	.	.	.	.	.
8bb-	.	.	8bb-	.	.	.	.	8bb-	8r	8r	.	.	.	.	.
8aa-	.	.	8aa-	8e-	8c	8c	8c	8aa-	8aa-	8ee-	8c	8c	.	.	.
=129	=129	=129	=129	=129	=129	=129	=129	=129	=129	=129	=129	=129	=129	=129	=129
8gg	2r	2r	8gg	8d	8B-	8B-	8B-	8gg	8gg	8dd	8B-	8B-	2r	2r	2r
8ff	.	.	8ff	8c	8A-	8A-	8A-	8ff	8ff	8cc	8A-	8A-	.	.	.
8ee-	.	.	8ee-	8B-	8G	8G	8G	8ee-	8ee-	8b-	8G	8G	.	.	.
8dd	.	.	8dd	8B-	8F	8F	8F	8dd	8dd	8b-	8F	8F	.	.	.
=130	=130	=130	=130	=130	=130	=130	=130	=130	=130	=130	=130	=130	=130	=130	=130
2ee-	2r	2r	8ee-	16B- 16e-	2E-	8G	8G	2ee-	[2ee-	2ee-	[2G	[2G	2r	2r	2r
.	.	.	.	16e- 16B-	.	.	.	.	.	.	.	.	.	.	.
.	.	.	8dd	16B- 16e-	.	8G	8G	.	.	.	.	.	.	.	.
.	.	.	.	16e- 16B-	.	.	.	.	.	.	.	.	.	.	.
.	.	.	8ee-	16B- 16e-	.	8G	8G	.	.	.	.	.	.	.	.
.	.	.	.	16e- 16B-	.	.	.	.	.	.	.	.	.	.	.
.	.	.	8bb-	16B- 16e-	.	8G	8G	.	.	.	.	.	.	.	.
.	.	.	.	16e- 16B-	.	.	.	.	.	.	.	.	.	.	.
=131	=131	=131	=131	=131	=131	=131	=131	=131	=131	=131	=131	=131	=131	=131	=131
2eee-	2r	2r	8ee-	16B- 16e-	2e-	8G	8G	2eee-	2ee-]	2dd-	2G]	2G]	2r	2r	2r
.	.	.	.	16B- 16e-	.	.	.	.	.	.	.	.	.	.	.
.	.	.	8dd	16B- 16e-	.	8G	8G	.	.	.	.	.	.	.	.
.	.	.	.	16B- 16e-	.	.	.	.	.	.	.	.	.	.	.
.	.	.	8ee-	16e- 16B-	.	8G	8G	.	.	.	.	.	.	.	.
.	.	.	.	16e- 16B-	.	.	.	.	.	.	.	.	.	.	.
.	.	.	8eee-	16B- 16e-	.	8G	8G	.	.	.	.	.	.	.	.
.	.	.	.	16B- 16e-	.	.	.	.	.	.	.	.	.	.	.
=132	=132	=132	=132	=132	=132	=132	=132	=132	=132	=132	=132	=132	=132	=132	=132
2ccc	2r	2r	8ff	16e- 16c	[2f	8A-	8A-	2ccc	[2ff	[2cc	2A-	2A-	2r	2r	2r
.	.	.	.	16e- 16c	.	.	.	.	.	.	.	.	.	.	.
.	.	.	8ee	16c 16e-	.	8A-	8A-	.	.	.	.	.	.	.	.
.	.	.	.	16e- 16c	.	.	.	.	.	.	.	.	.	.	.
.	.	.	8ff	16c 16e-	.	8A-	8A-	.	.	.	.	.	.	.	.
.	.	.	.	16c 16e-	.	.	.	.	.	.	.	.	.	.	.
.	.	.	8ccc	16c 16e-	.	8A-	8A-	.	.	.	.	.	.	.	.
.	.	.	.	16e- 16c	.	.	.	.	.	.	.	.	.	.	.
=133	=133	=133	=133	=133	=133	=133	=133	=133	=133	=133	=133	=133	=133	=133	=133
2ee-	2r	2r	8ee-	16f 16c	2f]	8A	8A	2ee-	2ff]	2cc]	2A	2A	2r	2r	2r
.	.	.	.	16f 16c	.	.	.	.	.	.	.	.	.	.	.
.	.	.	8dd	16c 16f	.	8A	8A	.	.	.	.	.	.	.	.
.	.	.	.	16f 16c	.	.	.	.	.	.	.	.	.	.	.
.	.	.	8ee-	16c 16f	.	8A	8A	.	.	.	.	.	.	.	.
.	.	.	.	16c 16f	.	.	.	.	.	.	.	.	.	.	.
.	.	.	8ccc	16c 16f	.	8A	8A	.	.	.	.	.	.	.	.
.	.	.	.	16c 16f	.	.	.	.	.	.	.	.	.	.	.
=134	=134	=134	=134	=134	=134	=134	=134	=134	=134	=134	=134	=134	=134	=134	=134
[2bb-	2r	2r	16b-	4f 4d	16B-	4B-	4B-	[2bb-	[2bb-	[2b-	4B-	4B-	2r	2r	2r
.	.	.	16bb-	.	16B-	.	.	.	.	.	.	.	.	.	.
.	.	.	16b-	.	16B-	.	.	.	.	.	.	.	.	.	.
.	.	.	16bb-	.	16B-	.	.	.	.	.	.	.	.	.	.
.	.	.	16b-	4r	16B-	4r	4r	.	.	.	4r	4r	.	.	.
.	.	.	16bb-	.	16B-	.	.	.	.	.	.	.	.	.	.
.	.	.	16b-	.	16B-	.	.	.	.	.	.	.	.	.	.
.	.	.	16bb-	.	16B-	.	.	.	.	.	.	.	.	.	.
=135	=135	=135	=135	=135	=135	=135	=135	=135	=135	=135	=135	=135	=135	=135	=135
4.bb-]	2r	2r	16b-	4.r	16B-	4.r	4.r	4.bb-]	2bb-_	4b-]	4.r	4.r	2r	2r	2r
.	.	.	16bb-	.	16B-	.	.	.	.	.	.	.	.	.	.
.	.	.	16b-	.	16B-	.	.	.	.	.	.	.	.	.	.
.	.	.	16bb-	.	16B-	.	.	.	.	.	.	.	.	.	.
.	.	.	16b-	.	16B-	.	.	.	.	4r	.	.	.	.	.
.	.	.	16bb-	.	16B-	.	.	.	.	.	.	.	.	.	.
8ff	.	.	16b-	8f	16B-	8D	8D	8ff	.	.	8D	8D	.	.	.
.	.	.	16bb-	.	16B-	.	.	.	.	.	.	.	.	.	.
=136	=136	=136	=136	=136	=136	=136	=136	=136	=136	=136	=136	=136	=136	=136	=136
4ee-	2r	2r	16b-	4e-	16B-	4C	4C	4ee-	2bb-_	2r	4C	4C	2r	2r	2r
.	.	.	16bb-	.	16B-	.	.	.	.	.	.	.	.	.	.
.	.	.	16b-	.	16B-	.	.	.	.	.	.	.	.	.	.
.	.	.	16bb-	.	16B-	.	.	.	.	.	.	.	.	.	.
8dd	.	.	16b-	8d	16B-	8BB-	8BB-	8dd	.	.	8BB-	8BB-	.	.	.
.	.	.	16bb-	.	16B-	.	.	.	.	.	.	.	.	.	.
8aa-	.	.	16b-	8a-	16B-	8F	8F	8aa-	.	.	8F	8F	.	.	.
.	.	.	16bb-	.	16B-	.	.	.	.	.	.	.	.	.	.
=137	=137	=137	=137	=137	=137	=137	=137	=137	=137	=137	=137	=137	=137	=137	=137
4gg	2r	2r	16b-	4g	16B-	4E-	4E-	4gg	2bb-_	4.r	4E-	4E-	2r	2r	2r
.	.	.	16bb-	.	16B-	.	.	.	.	.	.	.	.	.	.
.	.	.	16b-	.	16B-	.	.	.	.	.	.	.	.	.	.
.	.	.	16bb-	.	16B-	.	.	.	.	.	.	.	.	.	.
8ff	.	.	16b-	8f	16B-	8D	8D	8ff	.	.	8D	8D	.	.	.
.	.	.	16bb-	.	16B-	.	.	.	.	.	.	.	.	.	.
8r	.	.	16b-	8cc	16B-	8A-	8A-	8r	.	8cc	8A-	8A-	.	.	.
.	.	.	16bb-	.	16B-	.	.	.	.	.	.	.	.	.	.
=138	=138	=138	=138	=138	=138	=138	=138	=138	=138	=138	=138	=138	=138	=138	=138
2r	2r	2r	16b-	4b-	16B-	4G	4G	2r	2bb-]	4b-	4G	4G	2r	2r	2r
.	.	.	16bb-	.	16B-	.	.	.	.	.	.	.	.	.	.
.	.	.	16b-	.	16B-	.	.	.	.	.	.	.	.	.	.
.	.	.	16bb-	.	16B-	.	.	.	.	.	.	.	.	.	.
.	.	.	16b-	8a-	16B-	8F	8F	.	.	8a-	8F	8F	.	.	.
.	.	.	16bb-	.	16B-	.	.	.	.	.	.	.	.	.	.
.	.	.	16b-	8ff	16B-	8d	8d	.	.	8ff	8d	8d	.	.	.
.	.	.	16bb-	.	16B-	.	.	.	.	.	.	.	.	.	.
=139	=139	=139	=139	=139	=139	=139	=139	=139	=139	=139	=139	=139	=139	=139	=139
2r	2r	2r	16b-	4ee-	16b-	4c	4c	2r	4.bb-	4ee-	4c	4c	2r	2r	2r
.	.	.	16bb-	.	16b-	.	.	.	.	.	.	.	.	.	.
.	.	.	16b-	.	16b-	.	.	.	.	.	.	.	.	.	.
.	.	.	16bb-	.	16b-	.	.	.	.	.	.	.	.	.	.
.	.	.	16b-	8dd	16b-	8B-	8B-	.	.	8dd	8B-	8B-	.	.	.
.	.	.	16bb-	.	16b-	.	.	.	.	.	.	.	.	.	.
.	.	.	16b-	8ff	16b-	8d	8d	.	8ff	8ff	8d	8d	.	.	.
.	.	.	16bb-	.	16b-	.	.	.	.	.	.	.	.	.	.
=140	=140	=140	=140	=140	=140	=140	=140	=140	=140	=140	=140	=140	=140	=140	=140
[2bb-	2r	2r	16b-	16aa-	16b-	8f	8f	[2bb-	8aa-	8aa-	8f	8f	2r	2r	2r
.	.	.	16bb-	16aa-	16b-	.	.	.	.	.	.	.	.	.	.
.	.	.	16b-	16gg	16b-	8e-	8e-	.	8gg	8gg	8e-	8e-	.	.	.
.	.	.	16bb-	16gg	16b-	.	.	.	.	.	.	.	.	.	.
.	.	.	16b-	16ff	16b-	8d	8d	.	8ff	8ff	8d	8d	.	.	.
.	.	.	16bb-	16ff	16b-	.	.	.	.	.	.	.	.	.	.
.	.	.	16b-	16ee-	16b-	8c	8c	.	8ee-	8ee-	8c	8c	.	.	.
.	.	.	16bb-	16ee-	16b-	.	.	.	.	.	.	.	.	.	.
=141	=141	=141	=141	=141	=141	=141	=141	=141	=141	=141	=141	=141	=141	=141	=141
2bb-_	2r	2r	16b-	16dd	16b-	8B-	8B-	2bb-_	8dd	8dd	8B-	8B-	2r	2r	2r
.	.	.	16bb-	16dd	16b-	.	.	.	.	.	.	.	.	.	.
.	.	.	16b-	16cc	16a-	8A-	8A-	.	8cc	8cc	8A-	8A-	.	.	.
.	.	.	16bb-	16cc	16a-	.	.	.	.	.	.	.	.	.	.
.	.	.	16b-	16b-	16g	8G	8G	.	8b-	8b-	8G	8G	.	.	.
.	.	.	16bb-	16b-	16g	.	.	.	.	.	.	.	.	.	.
.	.	.	16b-	16a-	16f	8F	8F	.	8aa-	8ff	8F	8F	.	.	.
.	.	.	16bb-	16a-	16f	.	.	.	.	.	.	.	.	.	.
=142	=142	=142	=142	=142	=142	=142	=142	=142	=142	=142	=142	=142	=142	=142	=142
2bb-_	2r	2r	16bb-	2g 2B-	2e-	8E-	8E-	2bb-_	4gg	4gg	4E-	4E-	2r	2r	2r
.	.	.	16gg	.	.	.	.	.	.	.	.	.	.	.	.
.	.	.	16ff	.	.	8E-	8E-	.	.	.	.	.	.	.	.
.	.	.	16ee-	.	.	.	.	.	.	.	.	.	.	.	.
.	.	.	16dd	.	.	8E-	8E-	.	4r	4r	4r	4r	.	.	.
.	.	.	16ee-	.	.	.	.	.	.	.	.	.	.	.	.
.	.	.	16dd	.	.	8E-	8E-	.	.	.	.	.	.	.	.
.	.	.	16ee-	.	.	.	.	.	.	.	.	.	.	.	.
=143	=143	=143	=143	=143	=143	=143	=143	=143	=143	=143	=143	=143	=143	=143	=143
2bb-]	2r	2r	16ff	2d 2f	2B-	8A-	8A-	2bb-]	4ff	4dd	4A-	4A-	2r	2r	2r
.	.	.	16dd	.	.	.	.	.	.	.	.	.	.	.	.
.	.	.	16cc	.	.	8A-	8A-	.	.	.	.	.	.	.	.
.	.	.	16b-	.	.	.	.	.	.	.	.	.	.	.	.
.	.	.	16a	.	.	8A-	8A-	.	4r	4r	4r	4r	.	.	.
.	.	.	16b-	.	.	.	.	.	.	.	.	.	.	.	.
.	.	.	16a	.	.	8A-	8A-	.	.	.	.	.	.	.	.
.	.	.	16b-	.	.	.	.	.	.	.	.	.	.	.	.
=144	=144	=144	=144	=144	=144	=144	=144	=144	=144	=144	=144	=144	=144	=144	=144
2bb-	2r	2r	16b-	2e- 2B-	2E-	8G	8G	2bb-	4ee-	4b-	4G	4G	2r	2r	2r
.	.	.	16g	.	.	.	.	.	.	.	.	.	.	.	.
.	.	.	16f	.	.	8G	8G	.	.	.	.	.	.	.	.
.	.	.	16e-	.	.	.	.	.	.	.	.	.	.	.	.
.	.	.	16d	.	.	8G	8G	.	4r	4r	4r	4r	.	.	.
.	.	.	16e-	.	.	.	.	.	.	.	.	.	.	.	.
.	.	.	16d	.	.	8G	8G	.	.	.	.	.	.	.	.
.	.	.	16e-	.	.	.	.	.	.	.	.	.	.	.	.
=145	=145	=145	=145	=145	=145	=145	=145	=145	=145	=145	=145	=145	=145	=145	=145
2aa-	2r	2r	16f	2B- 2a-	2F	8D	8D	2aa-	4ff	4b-	4D	4D	2r	2r	2r
.	.	.	16d	.	.	.	.	.	.	.	.	.	.	.	.
.	.	.	16c	.	.	8D	8D	.	.	.	.	.	.	.	.
.	.	.	16B-	.	.	.	.	.	.	.	.	.	.	.	.
.	.	.	16A	.	.	8D	8D	.	4r	4r	4r	4r	.	.	.
.	.	.	16B-	.	.	.	.	.	.	.	.	.	.	.	.
.	.	.	16A	.	.	8D	8D	.	.	.	.	.	.	.	.
.	.	.	16B-	.	.	.	.	.	.	.	.	.	.	.	.
=146	=146	=146	=146	=146	=146	=146	=146	=146	=146	=146	=146	=146	=146	=146	=146
2gg	2r	2r	16g	2g 2B-	2E-	8E-	8E-	2gg	2gg	2b-	2E-	2E-	2r	2r	2r
.	.	.	16B-	.	.	.	.	.	.	.	.	.	.	.	.
.	.	.	16A	.	.	8E-	8E-	.	.	.	.	.	.	.	.
.	.	.	16B-	.	.	.	.	.	.	.	.	.	.	.	.
.	.	.	16A	.	.	8E-	8E-	.	.	.	.	.	.	.	.
.	.	.	16B-	.	.	.	.	.	.	.	.	.	.	.	.
.	.	.	16A	.	.	8E-	8E-	.	.	.	.	.	.	.	.
.	.	.	16B-	.	.	.	.	.	.	.	.	.	.	.	.
=147	=147	=147	=147	=147	=147	=147	=147	=147	=147	=147	=147	=147	=147	=147	=147
2aa-	2r	2r	16a-	2a- 2B-	2F	8D	8D	2aa-	2ff	2ff	2D	2D	2r	2r	2r
.	.	.	16B-	.	.	.	.	.	.	.	.	.	.	.	.
.	.	.	16A	.	.	8D	8D	.	.	.	.	.	.	.	.
.	.	.	16B-	.	.	.	.	.	.	.	.	.	.	.	.
.	.	.	16A	.	.	8D	8D	.	.	.	.	.	.	.	.
.	.	.	16B-	.	.	.	.	.	.	.	.	.	.	.	.
.	.	.	16A	.	.	8D	8D	.	.	.	.	.	.	.	.
.	.	.	16B-	.	.	.	.	.	.	.	.	.	.	.	.
=148	=148	=148	=148	=148	=148	=148	=148	=148	=148	=148	=148	=148	=148	=148	=148
8gg	2r	2r	16g	8g 8B-	8E-	8E-	8E-	8gg	8gg	8gg	8E-	8E-	2r	2r	2r
.	.	.	16B-	.	.	.	.	.	.	.	.	.	.	.	.
8r	.	.	16B-	8r	8r	8r	8r	8r	8r	8r	8r	8r	.	.	.
.	.	.	16B-	.	.	.	.	.	.	.	.	.	.	.	.
8aa-	.	.	16a-	8a- 8A-	8F	8F	8F	8aa-	8aa-	8aa-	8F	8F	.	.	.
.	.	.	16d	.	.	.	.	.	.	.	.	.	.	.	.
8r	.	.	16d	8r	8r	8r	8r	8r	8r	8r	8r	8r	.	.	.
.	.	.	16d	.	.	.	.	.	.	.	.	.	.	.	.
=149	=149	=149	=149	=149	=149	=149	=149	=149	=149	=149	=149	=149	=149	=149	=149
8bb-	2r	2r	16b-	8b- 8e- 8G	8G	8G	8G	8bb-	8bb-	8bb-	8G	8G	2r	2r	2r
.	.	.	16e-	.	.	.	.	.	.	.	.	.	.	.	.
8r	.	.	16e-	8r	8r	8r	8r	8r	8r	8r	8r	8r	.	.	.
.	.	.	16e-	.	.	.	.	.	.	.	.	.	.	.	.
8ccc	.	.	16cc	8ee- 8e- 8A-	8A-	8A-	8A-	8ccc	8ccc	8ccc	8A-	8A-	.	.	.
.	.	.	16e-	.	.	.	.	.	.	.	.	.	.	.	.
8r	.	.	16e-	8r	8r	8r	8r	8r	8r	8r	8r	8r	.	.	.
.	.	.	16e-	.	.	.	.	.	.	.	.	.	.	.	.
=150	=150	=150	=150	=150	=150	=150	=150	=150	=150	=150	=150	=150	=150	=150	=150
8dd	2r	2r	16dd	8dd 8f 8A-	8a-	8AA-	8AA-	8dd	8dd	8dd	8AA-	8AA-	2r	2r	2r
.	.	.	16f	.	.	.	.	.	.	.	.	.	.	.	.
8r	.	.	16f	8r	8r	8r	8r	8r	8r	8r	8r	8r	.	.	.
.	.	.	16f	.	.	.	.	.	.	.	.	.	.	.	.
8ee-	.	.	16ee-	8ee- 8e- 8G	8b-	8GG	8GG	8ee-	8ee-	8ee-	8GG	8GG	.	.	.
.	.	.	16g	.	.	.	.	.	.	.	.	.	.	.	.
8r	.	.	16g	8r	8r	8r	8r	8r	8r	8r	8r	8r	.	.	.
.	.	.	16g	.	.	.	.	.	.	.	.	.	.	.	.
=151	=151	=151	=151	=151	=151	=151	=151	=151	=151	=151	=151	=151	=151	=151	=151
8ff	2r	2r	16ff	8ff 8b- 8d	8f	8D	8D	8ff	8aa-	8ff	8D	8D	2r	2r	2r
.	.	.	16b-	.	.	.	.	.	.	.	.	.	.	.	.
8r	.	.	16b-	8r	8r	8r	8r	8r	8r	8r	8r	8r	.	.	.
.	.	.	16b-	.	.	.	.	.	.	.	.	.	.	.	.
8gg	.	.	16gg	8gg 8b- 8e-	8e-	8E-	8E-	8gg	8gg	8gg	8E-	8E-	.	.	.
.	.	.	16b-	.	.	.	.	.	.	.	.	.	.	.	.
8r	.	.	16b-	8r	8r	8r	8r	8r	8r	8r	8r	8r	.	.	.
.	.	.	16b-	.	.	.	.	.	.	.	.	.	.	.	.
=152	=152	=152	=152	=152	=152	=152	=152	=152	=152	=152	=152	=152	=152	=152	=152
4aa	2r	2r	16aa	16e- 16a	16e-	16C	16C	4aa	[2ff	[2aa	[2e-	[2e-	2r	2r	2r
.	.	.	16aa	16a 16e-	16e-	16C	16C	.	.	.	.	.	.	.	.
.	.	.	16aa	16a 16e-	16e-	16C	16C	.	.	.	.	.	.	.	.
.	.	.	16aa	16e- 16a	16e-	16C	16C	.	.	.	.	.	.	.	.
4ccc	.	.	16ccc	16e- 16a	16e-	16C	16C	4ccc	.	.	.	.	.	.	.
.	.	.	16ccc	16e- 16a	16e-	16C	16C	.	.	.	.	.	.	.	.
.	.	.	16ccc	16e- 16a	16e-	16C	16C	.	.	.	.	.	.	.	.
.	.	.	16ccc	16a 16e-	16e-	16C	16C	.	.	.	.	.	.	.	.
=153	=153	=153	=153	=153	=153	=153	=153	=153	=153	=153	=153	=153	=153	=153	=153
4eee-	2r	2r	16eee-	16e- 16a	16e-	16C	16C	4eee-	2ff]	2aa]	2e-]	2e-]	2r	2r	2r
.	.	.	16eee-	16e- 16a	16e-	16C	16C	.	.	.	.	.	.	.	.
.	.	.	16eee-	16e- 16a	16e-	16C	16C	.	.	.	.	.	.	.	.
.	.	.	16eee-	16e- 16a	16e-	16C	16C	.	.	.	.	.	.	.	.
4aa	.	.	16aa	16e- 16a	16e-	16C	16C	4aa	.	.	.	.	.	.	.
.	.	.	16aa	16e- 16a	16e-	16C	16C	.	.	.	.	.	.	.	.
.	.	.	16aa	16e- 16a	16e-	16C	16C	.	.	.	.	.	.	.	.
.	.	.	16aa	16e- 16a	16e-	16C	16C	.	.	.	.	.	.	.	.
=154	=154	=154	=154	=154	=154	=154	=154	=154	=154	=154	=154	=154	=154	=154	=154
4bb-	2r	2r	16bb-	16B- 16a-	16f 16d	16BB-	16BB-	4bb-	[2ff	[2aa-	[2d	[2d	2r	2r	2r
.	.	.	16bb-	16a- 16B-	16f 16d	16BB-	16BB-	.	.	.	.	.	.	.	.
.	.	.	16bb-	16a- 16B-	16d 16f	16BB-	16BB-	.	.	.	.	.	.	.	.
.	.	.	16bb-	16a- 16B-	16f 16d	16BB-	16BB-	.	.	.	.	.	.	.	.
4ddd	.	.	16ddd	16B- 16a-	16f 16d	16BB-	16BB-	4ddd	.	.	.	.	.	.	.
.	.	.	16ddd	16a- 16B-	16f 16d	16BB-	16BB-	.	.	.	.	.	.	.	.
.	.	.	16ddd	16a- 16B-	16f 16d	16BB-	16BB-	.	.	.	.	.	.	.	.
.	.	.	16ddd	16a- 16B-	16f 16d	16BB-	16BB-	.	.	.	.	.	.	.	.
=155	=155	=155	=155	=155	=155	=155	=155	=155	=155	=155	=155	=155	=155	=155	=155
[2fff	2r	2r	16fff	16B- 16a-	16f 16d	16BB-	16BB-	[2fff	2ff_	2aa-_	2d_	2d_	2r	2r	2r
.	.	.	16fff	16B- 16a-	16d 16f	16BB-	16BB-	.	.	.	.	.	.	.	.
.	.	.	16fff	16a- 16B-	16f 16d	16BB-	16BB-	.	.	.	.	.	.	.	.
.	.	.	16fff	16a- 16B-	16f 16d	16BB-	16BB-	.	.	.	.	.	.	.	.
.	.	.	16ddd	16a- 16B-	16f 16d	16BB-	16BB-	.	.	.	.	.	.	.	.
.	.	.	16ddd	16B- 16a-	16f 16d	16BB-	16BB-	.	.	.	.	.	.	.	.
.	.	.	16ddd	16B- 16a-	16d 16f	16BB-	16BB-	.	.	.	.	.	.	.	.
.	.	.	16ddd	16a- 16B-	16f 16d	16BB-	16BB-	.	.	.	.	.	.	.	.
=156	=156	=156	=156	=156	=156	=156	=156	=156	=156	=156	=156	=156	=156	=156	=156
4fff]	2r	2r	4fff	4B- 4a-	4f 4d	4BB-	4BB-	4fff]	4ff]	4aa-]	4d]	4d]	2r	2r	2r
4r	.	.	4r	4r	4r	4r	4r	4r	4r	4r	4r	4r	.	.	.
=157	=157	=157	=157	=157	=157	=157	=157	=157	=157	=157	=157	=157	=157	=157	=157
2r	2r	2r	2r	2r	2r	2r	2r	2r	2r	2r	2r	2r	2r	2r	2r
=158	=158	=158	=158	=158	=158	=158	=158	=158	=158	=158	=158	=158	=158	=158	=158
2r	2r	2r	4.r	4.r	4.r	2r	2r	2r	2r	2r	2r	2r	2r	2r	2r
.	.	.	8bb-	8gg	8g	.	.	.	.	.	.	.	.	.	.
=159	=159	=159	=159	=159	=159	=159	=159	=159	=159	=159	=159	=159	=159	=159	=159
2r	2r	2r	8bb-	8gg	8a-	2r	2r	2r	2r	2r	2r	2r	2r	2r	2r
.	.	.	8bb-	8gg	8b-	.	.	.	.	.	.	.	.	.	.
.	.	.	8bb-	8gg	8cc	.	.	.	.	.	.	.	.	.	.
.	.	.	8bb-	8gg	8dd	.	.	.	.	.	.	.	.	.	.
=160	=160	=160	=160	=160	=160	=160	=160	=160	=160	=160	=160	=160	=160	=160	=160
2r	2r	2r	8.bb-	8.gg	4ee-	2r	2r	2r	2r	2r	2r	2r	2r	2r	2r
.	.	.	16aa-	16ff	.	.	.	.	.	.	.	.	.	.	.
.	.	.	8gg	8ee-	8r	.	.	.	.	.	.	.	.	.	.
.	.	.	8gg	8ee-	8e-	.	.	.	.	.	.	.	.	.	.
=161	=161	=161	=161	=161	=161	=161	=161	=161	=161	=161	=161	=161	=161	=161	=161
2r	2r	2r	8gg	8ee-	8f	2r	2r	2r	2r	2r	2r	2r	2r	2r	2r
.	.	.	8gg	8ee-	8g	.	.	.	.	.	.	.	.	.	.
.	.	.	8gg	8ee-	8a-	.	.	.	.	.	.	.	.	.	.
.	.	.	8gg	8ee-	8b-	.	.	.	.	.	.	.	.	.	.
=162	=162	=162	=162	=162	=162	=162	=162	=162	=162	=162	=162	=162	=162	=162	=162
2r	2r	2r	8.gg	8.ee-	4cc	4.r	4.r	2r	2r	2r	2r	2r	2r	2r	2r
.	.	.	16ff	16dd	.	.	.	.	.	.	.	.	.	.	.
.	.	.	8ee-	8cc	8r	.	.	.	.	.	.	.	.	.	.
.	.	.	8c	8c	8c	8C	8C	.	.	.	.	.	.	.	.
=163	=163	=163	=163	=163	=163	=163	=163	=163	=163	=163	=163	=163	=163	=163	=163
2r	2r	2r	8c	8c	8c	8C	8C	2r	2r	2r	2r	2r	2r	2r	2r
.	.	.	8c	8c	8c	8C	8C	.	.	.	.	.	.	.	.
.	.	.	8c	8c	8c	8C	8C	.	.	.	.	.	.	.	.
.	.	.	8c	8c	8c	8C	8C	.	.	.	.	.	.	.	.
=164	=164	=164	=164	=164	=164	=164	=164	=164	=164	=164	=164	=164	=164	=164	=164
4.r	2r	2r	8.c	8.c	8.c	8.C	8.C	4.r	4.r	4.r	4.r	4.r	2r	2r	2r
.	.	.	16B-	16B-	16B-	16BB-	16BB-	.	.	.	.	.	.	.	.
.	.	.	8A-	8A-	8A-	8AA-	8AA-	.	.	.	.	.	.	.	.
8cc-	.	.	8c-	8c-	8c-	8C-	8C-	8cc-	8cc-	8cc-	8c-	8c-	.	.	.
=165	=165	=165	=165	=165	=165	=165	=165	=165	=165	=165	=165	=165	=165	=165	=165
8cc-	2r	2r	8c-	8c-	8c-	8C-	8C-	8cc-	8cc-	8cc-	8c-	8c-	2r	2r	2r
8cc-	.	.	8c-	8c-	8c-	8C-	8C-	8cc-	8cc-	8cc-	8c-	8c-	.	.	.
8cc-	.	.	8c-	8c-	8c-	8C-	8C-	8cc-	8cc-	8cc-	8c-	8c-	.	.	.
8cc-	.	.	8c-	8c-	8c-	8C-	8C-	8cc-	8cc-	8cc-	8c-	8c-	.	.	.
=166	=166	=166	=166	=166	=166	=166	=166	=166	=166	=166	=166	=166	=166	=166	=166
8.cc-	2r	2r	8.c-	8.c-	8.c-	8.C-	8.C-	8.cc-	8.cc-	8.cc-	8.c-	8.c-	2r	2r	2r
16b-	.	.	16B-	16B-	16B-	16BB-	16BB-	16b-	16b-	16b-	16B-	16B-	.	.	.
8a	.	.	8A	8A	8A	8AA	8AA	8a	8a	8a	8A	8A	.	.	.
8gg-	.	.	8g-	8e-	8A	8AA	8AA	8gg-	8gg-	8ee-	8AA	8AA	.	.	.
=167	=167	=167	=167	=167	=167	=167	=167	=167	=167	=167	=167	=167	=167	=167	=167
8gg-	2r	2r	8g-	8e-	8A	8AA	8AA	8gg-	8gg-	8ee-	8AA	8AA	2r	2r	2r
8gg-	.	.	8g-	8e-	8A	8AA	8AA	8gg-	8gg-	8ee-	8AA	8AA	.	.	.
8gg-	.	.	8g-	8e-	8A	8AA	8AA	8gg-	8gg-	8ee-	8AA	8AA	.	.	.
8gg-	.	.	8g-	8e-	8A	8AA	8AA	8gg-	8gg-	8ee-	8AA	8AA	.	.	.
=168	=168	=168	=168	=168	=168	=168	=168	=168	=168	=168	=168	=168	=168	=168	=168
2ff	2r	2r	8.f	8.d	8.B-	8.BB-	8.BB-	2ff	2ff	2dd	[2BB-	[2BB-	2r	2r	2r
.	.	.	16e-	16c	16c	16C	16C	.	.	.	.	.	.	.	.
.	.	.	8d	8B-	8d	8D	8D	.	.	.	.	.	.	.	.
.	.	.	8f	8d	8r	8r	8r	.	.	.	.	.	.	.	.
=169	=169	=169	=169	=169	=169	=169	=169	=169	=169	=169	=169	=169	=169	=169	=169
2aa-	2r	2r	8.a-	8.f	8.d	8.BB-	8.BB-	2aa-	2aa-	2ff	2BB-]	2BB-]	2r	2r	2r
.	.	.	16g	16e-	16e-	16C	16C	.	.	.	.	.	.	.	.
.	.	.	8f	8d	8f	8D	8D	.	.	.	.	.	.	.	.
.	.	.	8a-	8f	8r	8r	8r	.	.	.	.	.	.	.	.
=170	=170	=170	=170	=170	=170	=170	=170	=170	=170	=170	=170	=170	=170	=170	=170
8.ccc	2r	2r	8.cc	8.a-	8.B-	8.BB-	8.BB-	8.ccc	8.ccc	8.aa-	8.BB-	8.BB-	2r	2r	2r
16bb-	.	.	16b-	16g	16c	16C	16C	16bb-	16bb-	16gg	16C	16C	.	.	.
8aa-	.	.	8a-	8f	8d	8D	8D	8aa-	8aa-	8ff	8D	8D	.	.	.
8gg	.	.	8g	8e-	8e-	8E-	8E-	8gg	8gg	8ee-	8E-	8E-	.	.	.
=171	=171	=171	=171	=171	=171	=171	=171	=171	=171	=171	=171	=171	=171	=171	=171
8ff	2r	2r	8f	8d	8f	8F	8F	8ff	8ff	8dd	8F	8F	2r	2r	2r
8ee-	.	.	8e-	8c	8g	8G	8G	8ee-	8ee-	8cc	8G	8G	.	.	.
8dd	.	.	8d	8B-	8a-	8A-	8A-	8dd	8dd	8b-	8A-	8A-	.	.	.
8ff	.	.	8f	8f	8B-	8A-	8A-	8ff	8ff	8ff	8A-	8A-	.	.	.
=172	=172	=172	=172	=172	=172	=172	=172	=172	=172	=172	=172	=172	=172	=172	=172
4ee-	2r	2r	16e-	16e-	8b-	8G	8G	4ee-	4ee-	4ee-	4G	4G	2r	2r	2r
.	.	.	16ee-	16ee-	.	.	.	.	.	.	.	.	.	.	.
.	.	.	16ee-	16ee-	8b-	8G	8G	.	.	.	.	.	.	.	.
.	.	.	16ee-	16ee-	.	.	.	.	.	.	.	.	.	.	.
4ff	.	.	16f	16f	8a-	8D	8D	4ff	4ff	[4b-	4D	4D	.	.	.
.	.	.	16ff	16ff	.	.	.	.	.	.	.	.	.	.	.
.	.	.	16ff	16ff	8a-	8D	8D	.	.	.	.	.	.	.	.
.	.	.	16ff	16ff	.	.	.	.	.	.	.	.	.	.	.
=173	=173	=173	=173	=173	=173	=173	=173	=173	=173	=173	=173	=173	=173	=173	=173
4gg	2r	2r	16g	16g	8g	8E-	8E-	4gg	4gg	4b-]	4E-	4E-	2r	2r	2r
.	.	.	16gg	16gg	.	.	.	.	.	.	.	.	.	.	.
.	.	.	16gg	16gg	8g	8E-	8E-	.	.	.	.	.	.	.	.
.	.	.	16gg	16gg	.	.	.	.	.	.	.	.	.	.	.
4aa-	.	.	16a-	16a-	8e-	8C	8C	4aa-	4aa-	[4ee-	4C	4C	.	.	.
.	.	.	16aa-	16aa-	.	.	.	.	.	.	.	.	.	.	.
.	.	.	16aa-	16aa-	8e-	8C	8C	.	.	.	.	.	.	.	.
.	.	.	16aa-	16aa-	.	.	.	.	.	.	.	.	.	.	.
=174	=174	=174	=174	=174	=174	=174	=174	=174	=174	=174	=174	=174	=174	=174	=174
4bb-	2r	2r	16b-	16b-	8e-	8GG	8GG	4bb-	4bb-	4ee-]	4GG	4GG	2r	2r	2r
.	.	.	16bb-	16bb-	.	.	.	.	.	.	.	.	.	.	.
.	.	.	16bb-	16bb-	8e-	8GG	8GG	.	.	.	.	.	.	.	.
.	.	.	16bb-	16bb-	.	.	.	.	.	.	.	.	.	.	.
4ccc	.	.	16cc	16cc	8e-	8AA-	8AA-	4ccc	4ccc	4ee-	4AA-	4AA-	.	.	.
.	.	.	16ccc	16ccc	.	.	.	.	.	.	.	.	.	.	.
.	.	.	16ccc	16ccc	8e-	8AA-	8AA-	.	.	.	.	.	.	.	.
.	.	.	16ccc	16ccc	.	.	.	.	.	.	.	.	.	.	.
=175	=175	=175	=175	=175	=175	=175	=175	=175	=175	=175	=175	=175	=175	=175	=175
4ddd	2r	2r	16dd	16aa-	8B-	8FF	8FF	4ddd	4aa-	2b-	4FF	4FF	2r	2r	2r
.	.	.	16ddd	16aa-	.	.	.	.	.	.	.	.	.	.	.
.	.	.	16ddd	16aa-	8B-	8FF	8FF	.	.	.	.	.	.	.	.
.	.	.	16ddd	16aa-	.	.	.	.	.	.	.	.	.	.	.
4eee-	.	.	16ee-	16gg	8B-	8GG	8GG	4eee-	4gg	.	4GG	4GG	.	.	.
.	.	.	16eee-	16gg	.	.	.	.	.	.	.	.	.	.	.
.	.	.	16eee-	16gg	8B-	8GG	8GG	.	.	.	.	.	.	.	.
.	.	.	16eee-	16gg	.	.	.	.	.	.	.	.	.	.	.
=176	=176	=176	=176	=176	=176	=176	=176	=176	=176	=176	=176	=176	=176	=176	=176
2ccc	2r	2r	2ccc	16ff 16ee-	8A-	8AA-	8AA-	2ccc	[2ff	2cc	2AA-	2AA-	2r	2r	2r
.	.	.	.	16ff 16ee-	.	.	.	.	.	.	.	.	.	.	.
.	.	.	.	16ee- 16ff	8A-	8AA-	8AA-	.	.	.	.	.	.	.	.
.	.	.	.	16ee- 16ff	.	.	.	.	.	.	.	.	.	.	.
.	.	.	.	16ff 16ee-	8A-	8AA-	8AA-	.	.	.	.	.	.	.	.
.	.	.	.	16ee- 16ff	.	.	.	.	.	.	.	.	.	.	.
.	.	.	.	16ff 16ee-	8A-	8AA-	8AA-	.	.	.	.	.	.	.	.
.	.	.	.	16ff 16ee-	.	.	.	.	.	.	.	.	.	.	.
=177	=177	=177	=177	=177	=177	=177	=177	=177	=177	=177	=177	=177	=177	=177	=177
2dd	2r	2r	2dd	16dd 16ff	8B-	8BB-	8BB-	2dd	2ff]	2dd	2BB-	2BB-	2r	2r	2r
.	.	.	.	16ff 16dd	.	.	.	.	.	.	.	.	.	.	.
.	.	.	.	16ff 16dd	8B-	8BB-	8BB-	.	.	.	.	.	.	.	.
.	.	.	.	16ff 16dd	.	.	.	.	.	.	.	.	.	.	.
.	.	.	.	16ff 16dd	8B-	8BB-	8BB-	.	.	.	.	.	.	.	.
.	.	.	.	16ff 16dd	.	.	.	.	.	.	.	.	.	.	.
.	.	.	.	16ff 16dd	8B-	8BB-	8BB-	.	.	.	.	.	.	.	.
.	.	.	.	16dd 16ff	.	.	.	.	.	.	.	.	.	.	.
=178	=178	=178	=178	=178	=178	=178	=178	=178	=178	=178	=178	=178	=178	=178	=178
4ee-	2r	2r	8ee-	8ee-	4e-	4E-	4E-	4ee-	4gg	4ee-	4E-	4E-	2r	2r	2r
.	.	.	8bb-	8gg	.	.	.	.	.	.	.	.	.	.	.
4r	.	.	8aa-	8ff	8r	8r	4r	4r	4r	4r	4r	4r	.	.	.
.	.	.	8gg	8ee-	8B-	8B-	.	.	.	.	.	.	.	.	.
=179	=179	=179	=179	=179	=179	=179	=179	=179	=179	=179	=179	=179	=179	=179	=179
2r	2r	2r	8ff	8dd	8B-	8B-	2r	2r	2r	2r	2r	2r	2r	2r	2r
.	.	.	8ee-	8cc	8B-	8B-	.	.	.	.	.	.	.	.	.
.	.	.	8dd	8b-	8B-	8B-	.	.	.	.	.	.	.	.	.
.	.	.	8cc	8a-	8B-	8B-	.	.	.	.	.	.	.	.	.
=180	=180	=180	=180	=180	=180	=180	=180	=180	=180	=180	=180	=180	=180	=180	=180
2r	4.r	4.r	8b-	8g	8.B-	8.B-	4.r	2r	2r	2r	2r	2r	4.r	4.r	4.r
.	.	.	8a-	8f	.	.	.	.	.	.	.	.	.	.	.
.	.	.	.	.	32c	32c	.	.	.	.	.	.	.	.	.
.	.	.	.	.	32d	32d	.	.	.	.	.	.	.	.	.
.	.	.	8g	8e-	8e-	8e-	.	.	.	.	.	.	.	.	.
.	8g	8GG	8gg	8g	8e-	8e-	8e-	.	.	.	.	.	8g	8g	8g
=181	=181	=181	=181	=181	=181	=181	=181	=181	=181	=181	=181	=181	=181	=181	=181
2r	8g	8GG	8ff	8g	8d	8d	8d	2r	2r	2r	2r	2r	8g	8g	8g
.	8g	8GG	8ee-	8g	8c	8c	8c	.	.	.	.	.	8g	8g	8g
.	8g	8GG	8dd	8g	8B	8B	8B	.	.	.	.	.	8g	8g	8g
.	8g	8GG	8cc	8g	8A	8A	8A	.	.	.	.	.	8g	8g	8g
=182	=182	=182	=182	=182	=182	=182	=182	=182	=182	=182	=182	=182	=182	=182	=182
4.r	4g	4GG	8.b	8g	8.G	8.G	8.G	4.r	4.r	4.r	4.r	4.r	4g	4g	4g
.	.	.	.	8f	.	.	.	.	.	.	.	.	.	.	.
.	.	.	32cc	.	32A	32A	32A	.	.	.	.	.	.	.	.
.	.	.	32dd	.	32B	32B	32B	.	.	.	.	.	.	.	.
.	8r	8r	8ee-	8e-	8c	8c	8c	.	.	.	.	.	8r	8r	8r
8ccc	8c	8C	8cc	8a-	8c	8C	8C	8ccc	8ccc	8aa-	8C	8C	8cc	8c	8cc
=183	=183	=183	=183	=183	=183	=183	=183	=183	=183	=183	=183	=183	=183	=183	=183
8bb-	8c	8C	8b-	8g	8c	8C	8C	8bb-	8bb-	8gg	8C	8C	8cc	8c	8cc
8aa-	8c	8C	8a-	8f	8c	8C	8C	8aa-	8aa-	8ff	8C	8C	8cc	8c	8cc
8gg	8c	8C	8g	8e	8c	8C	8C	8gg	8gg	8ee	8C	8C	8cc	8c	8cc
8ff	8c	8C	8f	8d	8c	8C	8C	8ff	8ff	8dd	8C	8C	8cc	8c	8cc
=184	=184	=184	=184	=184	=184	=184	=184	=184	=184	=184	=184	=184	=184	=184	=184
8.ee	[2c	4C	8.e	4c	8.c	8.C	8.C	8.ee	8.ee	[2cc	8.C	8.C	[2cc	[2c	[2cc
32ff	.	.	32f	.	32d	32D	32D	32ff	32ff	.	32D	32D	.	.	.
32gg	.	.	32g	.	32e	32E	32E	32gg	32gg	.	32E	32E	.	.	.
8aa-	.	8r	8a-	4c	8f	8F	8F	8aa-	8aa-	.	8F	8F	.	.	.
8gg	.	8C	8g	.	8G	8G	8G	8gg	8gg	.	8G	8G	.	.	.
=185	=185	=185	=185	=185	=185	=185	=185	=185	=185	=185	=185	=185	=185	=185	=185
8ff	2c]	8C	8f	2c	8A-	8A-	8A-	8ff	8ff	2cc]	8A-	8A-	2cc]	2c]	2cc]
8ee-	.	8C	8e-	.	8G	8G	8G	8ee-	8ee-	.	8G	8G	.	.	.
8dd	.	8C	8d	.	8F	8F	8F	8dd	8dd	.	8F	8F	.	.	.
8cc	.	8C	8c	.	8F#	8F#	8F#	8cc	8cc	.	8F#	8F#	.	.	.
=186	=186	=186	=186	=186	=186	=186	=186	=186	=186	=186	=186	=186	=186	=186	=186
4gg	4g	4GG	4g	4B	4G	8G	8G	4gg	4gg	4b	8G	8G	4g	4g	4g
.	.	.	.	.	.	8GG	8GG	.	.	.	8GG	8GG	.	.	.
4r	4r	4r	4r	8r	8r	8GG	8GG	4r	4r	4r	8GG	8GG	4r	4r	4r
.	.	.	.	8f	8d	8r	8r	.	.	.	8r	8r	.	.	.
=187	=187	=187	=187	=187	=187	=187	=187	=187	=187	=187	=187	=187	=187	=187	=187
2r	2r	2r	2r	8f	8d	2r	2r	2r	2r	2r	2r	2r	2r	2r	2r
.	.	.	.	8f	8d	.	.	.	.	.	.	.	.	.	.
.	.	.	.	8f	8d	.	.	.	.	.	.	.	.	.	.
.	.	.	.	8f	8d	.	.	.	.	.	.	.	.	.	.
=188	=188	=188	=188	=188	=188	=188	=188	=188	=188	=188	=188	=188	=188	=188	=188
2r	2r	2r	4.r	8.f	8.d	4GG	4GG	2r	2r	2r	2r	2r	2r	2r	2r
.	.	.	.	16e-	16c	.	.	.	.	.	.	.	.	.	.
.	.	.	.	8d	8B	4r	4r	.	.	.	.	.	.	.	.
.	.	.	16b	8r	8r	.	.	.	.	.	.	.	.	.	.
.	.	.	16cc	.	.	.	.	.	.	.	.	.	.	.	.
=189	=189	=189	=189	=189	=189	=189	=189	=189	=189	=189	=189	=189	=189	=189	=189
2r	2r	2r	8dd	8.a-	8.f	4GG	4GG	2r	2r	2r	2r	2r	2r	2r	2r
.	.	.	4r	.	.	.	.	.	.	.	.	.	.	.	.
.	.	.	.	16g	16e-	.	.	.	.	.	.	.	.	.	.
.	.	.	.	8f	8d	4r	4r	.	.	.	.	.	.	.	.
.	.	.	16dd	8r	8r	.	.	.	.	.	.	.	.	.	.
.	.	.	16ee	.	.	.	.	.	.	.	.	.	.	.	.
=190	=190	=190	=190	=190	=190	=190	=190	=190	=190	=190	=190	=190	=190	=190	=190
2r	2r	2r	8ff	8.f	8.d	4GG	4GG	2r	2r	2r	2r	2r	2r	2r	2r
.	.	.	4r	.	.	.	.	.	.	.	.	.	.	.	.
.	.	.	.	16e-	16c	.	.	.	.	.	.	.	.	.	.
.	.	.	.	8d	8B	4r	4r	.	.	.	.	.	.	.	.
.	.	.	16ff	8r	8r	.	.	.	.	.	.	.	.	.	.
.	.	.	16gg	.	.	.	.	.	.	.	.	.	.	.	.
=191	=191	=191	=191	=191	=191	=191	=191	=191	=191	=191	=191	=191	=191	=191	=191
2r	2r	2r	8aa-	8.d	8.B	4GG	4GG	2r	2r	2r	2r	2r	2r	2r	2r
.	.	.	4r	.	.	.	.	.	.	.	.	.	.	.	.
.	.	.	.	16e-	16c	.	.	.	.	.	.	.	.	.	.
.	.	.	.	8f	8d	4r	4r	.	.	.	.	.	.	.	.
.	.	.	16ff	8r	8r	.	.	.	.	.	.	.	.	.	.
.	.	.	16gg	.	.	.	.	.	.	.	.	.	.	.	.
=192	=192	=192	=192	=192	=192	=192	=192	=192	=192	=192	=192	=192	=192	=192	=192
2r	2r	2r	8aa-	8.d	8.B	4GG	4GG	2r	2r	2r	2r	2r	2r	2r	2r
.	.	.	4r	.	.	.	.	.	.	.	.	.	.	.	.
.	.	.	.	16e-	16c	.	.	.	.	.	.	.	.	.	.
.	.	.	.	8f	8d	4r	4r	.	.	.	.	.	.	.	.
.	.	.	16ff	8r	8r	.	.	.	.	.	.	.	.	.	.
.	.	.	16gg	.	.	.	.	.	.	.	.	.	.	.	.
=193	=193	=193	=193	=193	=193	=193	=193	=193	=193	=193	=193	=193	=193	=193	=193
2r	2r	2r	8aa-	8d	8B	4GG	4GG	2r	2r	2r	2r	2r	2r	2r	2r
.	.	.	8gg	4.r	4.r	.	.	.	.	.	.	.	.	.	.
.	.	.	8ff	.	.	4r	4r	.	.	.	.	.	.	.	.
.	.	.	8ee-	.	.	.	.	.	.	.	.	.	.	.	.
=194	=194	=194	=194	=194	=194	=194	=194	=194	=194	=194	=194	=194	=194	=194	=194
2r	2r	2r	8dd	2r	2r	2r	2r	2r	2r	2r	2r	2r	2r	2r	2r
.	.	.	8cc	.	.	.	.	.	.	.	.	.	.	.	.
.	.	.	8b	.	.	.	.	.	.	.	.	.	.	.	.
.	.	.	16b	.	.	.	.	.	.	.	.	.	.	.	.
.	.	.	16cc	.	.	.	.	.	.	.	.	.	.	.	.
=195	=195	=195	=195	=195	=195	=195	=195	=195	=195	=195	=195	=195	=195	=195	=195
2r	2r	2r	8dd	2r	2r	2r	2r	2r	2r	2r	2r	2r	2r	2r	2r
.	.	.	8cc	.	.	.	.	.	.	.	.	.	.	.	.
.	.	.	8b	.	.	.	.	.	.	.	.	.	.	.	.
.	.	.	8a-	.	.	.	.	.	.	.	.	.	.	.	.
=196	=196	=196	=196	=196	=196	=196	=196	=196	=196	=196	=196	=196	=196	=196	=196
2r	2r	2r	8g	2r	2r	2r	2r	2r	2r	2r	2r	2r	2r	2r	2r
.	.	.	8f#	.	.	.	.	.	.	.	.	.	.	.	.
.	.	.	8f	.	.	.	.	.	.	.	.	.	.	.	.
.	.	.	16e	.	.	.	.	.	.	.	.	.	.	.	.
.	.	.	16f	.	.	.	.	.	.	.	.	.	.	.	.
=197	=197	=197	=197	=197	=197	=197	=197	=197	=197	=197	=197	=197	=197	=197	=197
2r	2r	2r	4g	8r	8r	8r	8r	2r	2r	2r	2r	2r	2r	2r	2r
.	.	.	.	8e	8G	8C	8C	.	.	.	.	.	.	.	.
.	.	.	8e	8e	8G	8C	8C	.	.	.	.	.	.	.	.
.	.	.	8cc	8r	8r	8r	8r	.	.	.	.	.	.	.	.
=198	=198	=198	=198	=198	=198	=198	=198	=198	=198	=198	=198	=198	=198	=198	=198
2r	2r	2r	4b	8r	8r	8r	8r	2r	2r	2r	2r	2r	2r	2r	2r
.	.	.	.	8c	8F	8F	8F	.	.	.	.	.	.	.	.
.	.	.	8a	8c	8F	8F	8F	.	.	.	.	.	.	.	.
.	.	.	16ff	8r	8r	8r	8r	.	.	.	.	.	.	.	.
.	.	.	16dd	.	.	.	.	.	.	.	.	.	.	.	.
=199	=199	=199	=199	=199	=199	=199	=199	=199	=199	=199	=199	=199	=199	=199	=199
2r	2r	2r	4cc	8r	8r	8r	8r	2r	2r	2r	2r	2r	2r	2r	2r
.	.	.	.	8f	8d	8G	8G	.	.	.	.	.	.	.	.
.	.	.	8b	8f	8d	8G	8G	.	.	.	.	.	.	.	.
.	.	.	8gg	8r	8r	8r	8r	.	.	.	.	.	.	.	.
=200	=200	=200	=200	=200	=200	=200	=200	=200	=200	=200	=200	=200	=200	=200	=200
4.r	2r	2r	4ff	8r	8r	8r	8r	4.r	4.r	4.r	4.r	4.r	2r	2r	2r
.	.	.	.	8d	8B	8C	8C	.	.	.	.	.	.	.	.
.	.	.	8ee	8e	8c	8C	8C	.	.	.	.	.	.	.	.
8ccc	.	.	8ccc	8cc	8cc	8c	8c	8ccc	8ccc	8ccc	8c	8c	.	.	.
=201	=201	=201	=201	=201	=201	=201	=201	=201	=201	=201	=201	=201	=201	=201	=201
8bb	2r	2r	8bb	8b	8b	8B	8B	8bb	8bb	8bb	8B	8B	2r	2r	2r
8aa	.	.	8aa	8a	8a	8A	8A	8aa	8aa	8aa	8A	8A	.	.	.
8gg	.	.	8gg	8g	8g	8G	8G	8gg	8gg	8gg	8G	8G	.	.	.
8ff	.	.	8ff	8f	8f	8F	8F	8ff	8ff	8ff	8F	8F	.	.	.
=202	=202	=202	=202	=202	=202	=202	=202	=202	=202	=202	=202	=202	=202	=202	=202
8ee	2r	2r	8ee	8e	8e	8E	8E	8ee	8ee	8ee	8E	8E	2r	2r	2r
8dd	.	.	8dd	8d	8d	8D	8D	8dd	8dd	8dd	8D	8D	.	.	.
8cc	.	.	8cc	8c	8c	8C	8C	8cc	8cc	8cc	8C	8C	.	.	.
8b	.	.	8b	8B	8B	8BB	8BB	8b	8b	8b	8BB	8BB	.	.	.
=203	=203	=203	=203	=203	=203	=203	=203	=203	=203	=203	=203	=203	=203	=203	=203
8a	2r	2r	8a	8A	8A	8AA	8AA	8a	8a	8a	8AA	8AA	2r	2r	2r
8r	.	.	8r	8r	8r	8r	8r	8r	8r	8r	8r	8r	.	.	.
8dd	.	.	8dd	8d	8d	8D	8D	8dd	8dd	8dd	8D	8D	.	.	.
8r	.	.	8r	8r	8r	8r	8r	8r	8r	8r	8r	8r	.	.	.
=204	=204	=204	=204	=204	=204	=204	=204	=204	=204	=204	=204	=204	=204	=204	=204
4g	2r	2r	4g	4G	4G	4GG	4GG	4g	4g	4g	4GG	4GG	2r	2r	2r
4r	.	.	8r	4r	4r	4r	4r	4r	4r	4r	8r	4r	.	.	.
.	.	.	16e	.	.	.	.	.	.	.	16E	.	.	.	.
.	.	.	16f	.	.	.	.	.	.	.	16F	.	.	.	.
=205	=205	=205	=205	=205	=205	=205	=205	=205	=205	=205	=205	=205	=205	=205	=205
2r	2r	2r	4g	8r	8r	8r	8r	2r	2r	2r	4G	2r	2r	2r	2r
.	.	.	.	8e	8G	8C	8C	.	.	.	.	.	.	.	.
.	.	.	8e	8e	8G	8C	8C	.	.	.	8E	.	.	.	.
.	.	.	8cc	8r	8r	8r	8r	.	.	.	8c	.	.	.	.
=206	=206	=206	=206	=206	=206	=206	=206	=206	=206	=206	=206	=206	=206	=206	=206
2r	2r	2r	4b	8r	8r	8r	8r	2r	2r	2r	4B	2r	2r	2r	2r
.	.	.	.	8c	8F	8F	8F	.	.	.	.	.	.	.	.
.	.	.	8a	8c	8F	8F	8F	.	.	.	8A	.	.	.	.
.	.	.	16ff	8r	8r	8r	8r	.	.	.	16f	.	.	.	.
.	.	.	16dd	.	.	.	.	.	.	.	16d	.	.	.	.
=207	=207	=207	=207	=207	=207	=207	=207	=207	=207	=207	=207	=207	=207	=207	=207
2r	2r	2r	4cc	8r	8r	8r	8r	2r	2r	2r	4c	2r	2r	2r	2r
.	.	.	.	8f	8d	8G	8G	.	.	.	.	.	.	.	.
.	.	.	8b	8f	8d	8G	8G	.	.	.	8B	.	.	.	.
.	.	.	8gg	8r	8r	8r	8r	.	.	.	8g	.	.	.	.
=208	=208	=208	=208	=208	=208	=208	=208	=208	=208	=208	=208	=208	=208	=208	=208
4.r	2r	2r	4ff	8r	8r	8r	8r	4.r	4.r	4.r	4f	4.r	2r	2r	2r
.	.	.	.	8d	8B	8C	8C	.	.	.	.	.	.	.	.
.	.	.	8ee	8e	8c	8C	8C	.	.	.	8e	.	.	.	.
8eee	.	.	8eee	8ee	8ee	8e	8e	8eee	8ee	8ee	8e	8e	.	.	.
=209	=209	=209	=209	=209	=209	=209	=209	=209	=209	=209	=209	=209	=209	=209	=209
8ddd	2r	2r	8ddd	8dd	8dd	8d	8d	8ddd	8dd	8dd	8d	8d	2r	2r	2r
8ccc	.	.	8ccc	8cc	8cc	8c	8c	8ccc	8cc	8cc	8c	8c	.	.	.
8bb	.	.	8bb	8b	8b	8B	8B	8bb	8b	8b	8B	8B	.	.	.
8aa	.	.	8aa	8a	8a	8A	8A	8aa	8a	8a	8A	8A	.	.	.
=210	=210	=210	=210	=210	=210	=210	=210	=210	=210	=210	=210	=210	=210	=210	=210
8gg#	2r	2r	8gg#	8g#	8g#	8G#	8G#	8gg#	8g#	8g#	8G#	8G#	2r	2r	2r
8aa	.	.	8aa	8a	8a	8A	8A	8aa	8a	8a	8A	8A	.	.	.
8bb	.	.	8bb	8b	8b	8B	8B	8bb	8b	8b	8B	8B	.	.	.
8ccc	.	.	8ccc	8cc	8cc	8c	8c	8ccc	8cc	8cc	8c	8c	.	.	.
=211	=211	=211	=211	=211	=211	=211	=211	=211	=211	=211	=211	=211	=211	=211	=211
8ddd	2r	2r	8ddd	8dd	8dd	8d	8d	8ddd	8dd	8dd	8d	8d	2r	2r	2r
8r	.	.	8r	8r	8r	8r	8r	8r	8r	8r	8r	8r	.	.	.
8ff#	.	.	8ff#	8f#	8f#	8F#	8F#	8ff#	8ff#	8ff#	8F#	8F#	.	.	.
8r	.	.	8r	8r	8r	8r	8r	8r	8r	8r	8r	8r	.	.	.
=212	=212	=212	=212	=212	=212	=212	=212	=212	=212	=212	=212	=212	=212	=212	=212
4gg	2r	2r	4gg	4g	4g	4G	4G	4gg	4gg	4gg	4G	4G	4.r	4.r	2r
4r	.	.	8r	8r	8r	8r	8r	4r	4r	4r	4r	4r	.	.	.
.	.	.	8B	8B	8G	8G	8G	.	.	.	.	.	8gg	8g	.
=213	=213	=213	=213	=213	=213	=213	=213	=213	=213	=213	=213	=213	=213	=213	=213
2r	2r	2r	8c	8c	8A	8A	8A	2r	2r	2r	2r	2r	8gg	8g	2r
.	.	.	8d	8d	8B	8B	8B	.	.	.	.	.	8gg	8g	.
.	.	.	8e	8e	8c	8c	8c	.	.	.	.	.	8gg	8g	.
.	.	.	8f	8f	8d	8d	8d	.	.	.	.	.	8gg	8g	.
=214	=214	=214	=214	=214	=214	=214	=214	=214	=214	=214	=214	=214	=214	=214	=214
2r	2r	2r	4g	4g	4e	4e	4e	2r	4.r	4.r	2r	2r	8gg	8g	2r
.	.	.	.	.	.	.	.	.	.	.	.	.	8gg	8g	.
.	.	.	4r	4r	4r	4r	4r	.	.	.	.	.	8gg	8g	.
.	.	.	.	.	.	.	.	.	8gg	8ee	.	.	8gg	8g	.
=215	=215	=215	=215	=215	=215	=215	=215	=215	=215	=215	=215	=215	=215	=215	=215
2r	2r	2r	2r	2r	2r	2r	2r	2r	8aa	8ff	2r	2r	8gg	8g	2r
.	.	.	.	.	.	.	.	.	8gg	8ee	.	.	8gg	8g	.
.	.	.	.	.	.	.	.	.	8ff	8dd	.	.	8gg	8g	.
.	.	.	.	.	.	.	.	.	8ee	8cc#	.	.	8gg	8g	.
=216	=216	=216	=216	=216	=216	=216	=216	=216	=216	=216	=216	=216	=216	=216	=216
2r	2r	2r	4.r	4.r	4.r	4.r	4.r	2r	4ff	4dd	2r	2r	8gg	8g	2r
.	.	.	.	.	.	.	.	.	.	.	.	.	8gg	8g	.
.	.	.	.	.	.	.	.	.	4r	4r	.	.	8gg	8g	.
.	.	.	8d	8d	8d	8D	8D	.	.	.	.	.	8gg	8g	.
=217	=217	=217	=217	=217	=217	=217	=217	=217	=217	=217	=217	=217	=217	=217	=217
2r	2r	2r	8B	8B	8B	8BB	8BB	2r	2r	2r	2r	2r	8gg	8g	2r
.	.	.	8B-	8B-	8B-	8BB-	8BB-	.	.	.	.	.	8gg	8g	.
.	.	.	8A	8A	8A	8AA	8AA	.	.	.	.	.	8gg	8g	.
.	.	.	8A-	8A-	8A-	8AA-	8AA-	.	.	.	.	.	8gg	8g	.
=218	=218	=218	=218	=218	=218	=218	=218	=218	=218	=218	=218	=218	=218	=218	=218
2r	2r	2r	4G	4G	4G	4GG	4GG	2r	4.r	4.r	2r	2r	8gg	8g	2r
.	.	.	.	.	.	.	.	.	.	.	.	.	8gg	8g	.
.	.	.	4r	4r	4r	4r	4r	.	.	.	.	.	8gg	8g	.
.	.	.	.	.	.	.	.	.	8ff	8dd	.	.	8gg	8g	.
=219	=219	=219	=219	=219	=219	=219	=219	=219	=219	=219	=219	=219	=219	=219	=219
2r	2r	2r	2r	2r	2r	2r	2r	2r	8gg	8ee	2r	2r	8gg	8g	2r
.	.	.	.	.	.	.	.	.	8ff	8dd	.	.	8gg	8g	.
.	.	.	.	.	.	.	.	.	8ee	8cc	.	.	8gg	8g	.
.	.	.	.	.	.	.	.	.	8dd	8b	.	.	8gg	8g	.
=220	=220	=220	=220	=220	=220	=220	=220	=220	=220	=220	=220	=220	=220	=220	=220
4.r	8c	4C	4.r	4.r	4.r	4.r	4.r	4.r	4ee	4cc	2r	2r	4ee	4cc	8cc
.	8c	.	.	.	.	.	.	.	.	.	.	.	.	.	8cc
.	8c	4r	.	.	.	.	.	.	4r	4r	.	.	4r	4r	8cc
8ccc	8c	.	8cc	8cc	8cc	8c	8c	8ccc	.	.	.	.	.	.	8cc
=221	=221	=221	=221	=221	=221	=221	=221	=221	=221	=221	=221	=221	=221	=221	=221
8aa	8c	2r	8a	8a	8a	8A	8A	8aa	2r	2r	2r	2r	2r	2r	8cc
8aa-	8c	.	8a-	8a-	8a-	8A-	8A-	8aa-	.	.	.	.	.	.	8cc
8gg	8c	.	8g	8g	8g	8G	8G	8gg	.	.	.	.	.	.	8cc
8ff	8c	.	8f	8f	8f	8F	8F	8ff	.	.	.	.	.	.	8cc
=222	=222	=222	=222	=222	=222	=222	=222	=222	=222	=222	=222	=222	=222	=222	=222
8ee	8c	4C	8e	8e	8e	8E	8E	8ee	2r	2r	2r	2r	2r	2r	8cc
8ee	8c	.	8e	8e	8e	8E	8E	8ee	.	.	.	.	.	.	8cc
8ee	8c	4r	8e	8e	8e	8E	8E	8ee	.	.	.	.	.	.	8cc
8ddd	8c	.	8dd	8dd	8dd	8d	8d	8ddd	.	.	.	.	.	.	8cc
=223	=223	=223	=223	=223	=223	=223	=223	=223	=223	=223	=223	=223	=223	=223	=223
8ccc	8c	2r	8cc	8cc	8cc	8c	8c	8ccc	2r	2r	2r	2r	2r	2r	8cc
8bb-	8c	.	8b-	8b-	8b-	8B-	8B-	8bb-	.	.	.	.	.	.	8cc
8aa	8c	.	8a	8a	8a	8A	8A	8aa	.	.	.	.	.	.	8cc
8gg	8c	.	8g	8g	8g	8G	8G	8gg	.	.	.	.	.	.	8cc
=224	=224	=224	=224	=224	=224	=224	=224	=224	=224	=224	=224	=224	=224	=224	=224
8ff	4c	4C	8f	8f	8f	8F	8F	8ff	8aa	8a	8A	8A	2r	2r	4cc
8ff	.	.	8f	8f	8f	8F	8F	8ff	8aa	8a	8A	8A	.	.	.
8ff	4r	4r	8f	8f	8f	8F	8F	8ff	8aa	8a	8A	8A	.	.	4r
8aa	.	.	8aa	8a	8e	8C#	8C#	8aa	8aa	8a	8A	8A	.	.	.
=225	=225	=225	=225	=225	=225	=225	=225	=225	=225	=225	=225	=225	=225	=225	=225
8aa	2r	2r	8ff	8a	8f	8D	8D	8aa	8aa	8a	8A	8A	2r	2r	2r
8aa	.	.	8ee	8a	8g	8E	8E	8aa	8aa	8a	8A	8A	.	.	.
8aa	.	.	8dd	8a	8a	8F	8F	8aa	8aa	8a	8A	8A	.	.	.
8aa	.	.	8cc#	8a	8e	8G	8G	8aa	8aa	8a	8A	8A	.	.	.
=226	=226	=226	=226	=226	=226	=226	=226	=226	=226	=226	=226	=226	=226	=226	=226
8aa	2r	2r	8dd	8a	8f	8F	8F	8aa	8aa	8a	8A	8A	2r	2r	2r
8aa	.	.	8dd	8a	8f	8F	8F	8aa	8aa	8a	8A	8A	.	.	.
8aa	.	.	8dd	8a	8f	8F	8F	8aa	8aa	8a	8A	8A	.	.	.
8aa	.	.	8aa	8a	8e	8C#	8C#	8aa	8aa	8a	8A	8A	.	.	.
=227	=227	=227	=227	=227	=227	=227	=227	=227	=227	=227	=227	=227	=227	=227	=227
8aa	2r	2r	8ff	8a	8f	8D	8D	8aa	8aa	8a	8A	8A	2r	2r	2r
8aa	.	.	8ee	8a	8g	8E	8E	8aa	8aa	8a	8A	8A	.	.	.
8aa	.	.	8dd	8a	8a	8F	8F	8aa	8aa	8a	8A	8A	.	.	.
8aa	.	.	8cc	8a	8d	8F#	8F#	8aa	8aa	8a	8A	8A	.	.	.
=228	=228	=228	=228	=228	=228	=228	=228	=228	=228	=228	=228	=228	=228	=228	=228
8gg	8g	8GG	8gg	8g	8G	8G	8G	8gg	8gg	8g	8G	8G	8dd	8g	8gg
8gg	8g	8GG	8gg	8b	8g	8G	8G	8gg	8gg	8g	8G	8G	8dd	8g	8gg
8gg	8g	8GG	8gg	8b	8g	8G	8G	8gg	8gg	8g	8G	8G	8dd	8g	8gg
8ccc	8g	8GG	8ccc	8ee	8g	8G	8G	8ccc	8ccc	8ee	8G	8G	8ee	8cc	8gg
=229	=229	=229	=229	=229	=229	=229	=229	=229	=229	=229	=229	=229	=229	=229	=229
8bb	8g	8GG	8bb	8dd	8G	8G	8G	8bb	8bb	8dd	8G	8G	8dd	8g	8gg
8gg	8g	8GG	8gg	8b	8g	8G	8G	8gg	8gg	8b	8G	8G	8dd	8g	8gg
8gg	8g	8GG	8gg	8b	8g	8G	8G	8gg	8gg	8b	8G	8G	8dd	8g	8gg
8ccc	8g	8GG	8ccc	8ee	8g	8G	8G	8ccc	8ccc	8ee	8G	8G	8ee	8cc	8gg
=230	=230	=230	=230	=230	=230	=230	=230	=230	=230	=230	=230	=230	=230	=230	=230
8bb	8g	8GG	8bb	8dd	8G	8G	8G	8bb	8bb	8dd	8G	8G	8dd	8g	8gg
8gg	8g	8GG	8gg	8b	8g	8G	8G	8gg	8gg	8b	8G	8G	8dd	8g	8gg
8gg	8g	8GG	8gg	8b	8g	8G	8G	8gg	8gg	8b	8G	8G	8dd	8g	8gg
8eee	8g	8GG	8ccc	8ee	8g	8G	8G	8eee	8ccc	8ee	8G	8G	8ee	8cc	8gg
=231	=231	=231	=231	=231	=231	=231	=231	=231	=231	=231	=231	=231	=231	=231	=231
8ddd	8g	8GG	8bb	8dd	8G	8G	8G	8ddd	8bb	8dd	8G	8G	4dd	4g	8gg
8ccc	8g	8GG	8aa	8cc	8g	8G	8G	8ccc	8aa	8cc	8G	8G	.	.	8gg
8bb	8g	8GG	8gg	8b	8g	8G	8G	8bb	8gg	8b	8G	8G	4r	4r	8gg
8aa	8g	8GG	8ff#	8a	8g	8G	8G	8aa	8ff#	8a	8G	8G	.	.	8gg
=232	=232	=232	=232	=232	=232	=232	=232	=232	=232	=232	=232	=232	=232	=232	=232
4gg	4g	4GG	4gg	4g	4G	4G	4G	4gg	4gg	4g	4G	4G	4dd	4g	4gg
4r	4r	4r	8r	4r	4r	4r	4r	4r	4r	4r	8r	4r	4r	4r	4r
.	.	.	16e	.	.	.	.	.	.	.	16E	.	.	.	.
.	.	.	16f	.	.	.	.	.	.	.	16F	.	.	.	.
=233	=233	=233	=233	=233	=233	=233	=233	=233	=233	=233	=233	=233	=233	=233	=233
2r	2r	2r	4g	8r	8r	8r	8r	2r	2r	2r	4G	2r	2r	2r	2r
.	.	.	.	8e	8G	8C	8C	.	.	.	.	.	.	.	.
.	.	.	8e	8e	8G	8C	8C	.	.	.	8E	.	.	.	.
.	.	.	8cc	8r	8r	8r	8r	.	.	.	8c	.	.	.	.
=234	=234	=234	=234	=234	=234	=234	=234	=234	=234	=234	=234	=234	=234	=234	=234
2r	2r	2r	4b	8r	8r	8r	8r	2r	2r	2r	4B	2r	2r	2r	2r
.	.	.	.	8c	8F	8F	8F	.	.	.	.	.	.	.	.
.	.	.	8a	8c	8F	8F	8F	.	.	.	8A	.	.	.	.
.	.	.	16ff	8r	8r	8r	8r	.	.	.	16f	.	.	.	.
.	.	.	16dd	.	.	.	.	.	.	.	16d	.	.	.	.
=235	=235	=235	=235	=235	=235	=235	=235	=235	=235	=235	=235	=235	=235	=235	=235
2r	2r	2r	4cc	8r	8r	8r	8r	2r	2r	2r	4c	2r	2r	2r	2r
.	.	.	.	8f	8d	8G	8G	.	.	.	.	.	.	.	.
.	.	.	8b	8f	8d	8G	8G	.	.	.	8B	.	.	.	.
.	.	.	8gg	8r	8r	8r	8r	.	.	.	8g	.	.	.	.
=236	=236	=236	=236	=236	=236	=236	=236	=236	=236	=236	=236	=236	=236	=236	=236
4.r	4.r	4.r	4ff	8r	8r	8r	8r	4.r	4.r	4.r	4f	4.r	4.r	4.r	4.r
.	.	.	.	8d	8B	8C	8C	.	.	.	.	.	.	.	.
.	.	.	8ee	8e	8c	8C	8C	.	.	.	8e	.	.	.	.
8eee	8cc	8C	8eee	8ccc	8e	8C	8C	8eee	8ccc	8ee	8C	8C	8ee	8cc	8ee
=237	=237	=237	=237	=237	=237	=237	=237	=237	=237	=237	=237	=237	=237	=237	=237
8eee	8cc	8C	8eee	8ccc	8f	8D	8D	8eee	8ccc	8ee	8D	8D	8ee	8cc	8ee
8eee	8cc	8C	8eee	8ccc	8g	8E	8E	8eee	8ccc	8ee	8E	8E	8ee	8cc	8ee
8eee	8cc	8C	8eee	8ccc	8a	8F	8F	8eee	8ccc	8ee	8F	8F	8ee	8cc	8ee
8eee	8cc	8C	8eee	8ccc	8b	8G	8G	8eee	8ccc	8ee	8G	8G	8ee	8cc	8ee
=238	=238	=238	=238	=238	=238	=238	=238	=238	=238	=238	=238	=238	=238	=238	=238
8.eee	4cc	4C	8.eee	8.ccc	4cc	4A	4A	8.eee	8.ccc	8.ee	4A	4A	4ee	4cc	4ee
16ddd	.	.	16ddd	16bb	.	.	.	16ddd	16bb	16dd	.	.	.	.	.
8ccc	8r	8r	8ccc	8aa	8r	8r	8r	8ccc	8aa	8cc	8r	8r	8r	8r	8r
8ccc	8cc	8C	8ccc	8aa	8A	8A	8A	8ccc	8aa	8cc	8A	8A	8cc	8cc	8cc
=239	=239	=239	=239	=239	=239	=239	=239	=239	=239	=239	=239	=239	=239	=239	=239
8ccc	8cc	8C	8ccc	8aa	8B-	8B-	8B-	8ccc	8aa	8cc	8B-	8B-	8cc	8cc	8cc
8ccc	8cc	8C	8ccc	8aa	8c	8c	8c	8ccc	8aa	8cc	8c	8c	8cc	8cc	8cc
8ccc	8cc	8C	8ccc	8aa	8d	8d	8d	8ccc	8aa	8cc	8d	8d	8cc	8cc	8cc
8ccc	8cc	8C	8ccc	8aa	8e	8e	8e	8ccc	8aa	8cc	8e	8e	8cc	8cc	8cc
=240	=240	=240	=240	=240	=240	=240	=240	=240	=240	=240	=240	=240	=240	=240	=240
8.ccc	4cc	4C	8.ccc	8.aa	4f	4f	4f	8.ccc	8.aa	8.cc	4f	4f	4cc	4cc	4cc
16bb-	.	.	16bb-	16gg	.	.	.	16bb-	16gg	16b-	.	.	.	.	.
8aa	4r	4r	8aa	8ff	4r	4r	4r	8aa	8ff	8a	4r	4r	4r	4r	4r
8r	.	.	8a	8f	.	.	.	8r	8r	8r	.	.	.	.	.
=241	=241	=241	=241	=241	=241	=241	=241	=241	=241	=241	=241	=241	=241	=241	=241
2r	2r	2r	8a	8f	2r	2r	2r	2r	2r	2r	2r	2r	2r	2r	2r
.	.	.	8a	8f	.	.	.	.	.	.	.	.	.	.	.
.	.	.	8a	8f	.	.	.	.	.	.	.	.	.	.	.
.	.	.	8a	8f	.	.	.	.	.	.	.	.	.	.	.
=242	=242	=242	=242	=242	=242	=242	=242	=242	=242	=242	=242	=242	=242	=242	=242
2r	2r	2r	4a	4f	4.r	4.r	4.r	2r	2r	2r	2r	2r	2r	2r	2r
.	.	.	8r	8r	.	.	.	.	.	.	.	.	.	.	.
.	.	.	8c#	8c#	8c#	8C#	8C#	.	.	.	.	.	.	.	.
=243	=243	=243	=243	=243	=243	=243	=243	=243	=243	=243	=243	=243	=243	=243	=243
2r	2r	2r	8c#	8c#	8c#	8C#	8C#	2r	2r	2r	2r	2r	2r	2r	2r
.	.	.	8c#	8c#	8c#	8C#	8C#	.	.	.	.	.	.	.	.
.	.	.	8c#	8c#	8c#	8C#	8C#	.	.	.	.	.	.	.	.
.	.	.	8c#	8c#	8c#	8C#	8C#	.	.	.	.	.	.	.	.
=244	=244	=244	=244	=244	=244	=244	=244	=244	=244	=244	=244	=244	=244	=244	=244
2r	2r	2r	8.d	8.d	8.d	8.D	8.D	2r	2r	2r	2r	2r	2r	2r	2r
.	.	.	16e	16e	16e	16E	16E	.	.	.	.	.	.	.	.
.	.	.	8f	8f	8f	8F	8F	.	.	.	.	.	.	.	.
.	.	.	8a	8f	8F	8FF	8FF	.	.	.	.	.	.	.	.
=245	=245	=245	=245	=245	=245	=245	=245	=245	=245	=245	=245	=245	=245	=245	=245
2r	2r	2r	8g	8e	8G	8GG	8GG	2r	2r	2r	2r	2r	2r	2r	2r
.	.	.	8f	8d	8G	8GG	8GG	.	.	.	.	.	.	.	.
.	.	.	8e	8c	8G	8GG	8GG	.	.	.	.	.	.	.	.
.	.	.	8d	8B	8G	8GG	8GG	.	.	.	.	.	.	.	.
=246	=246	=246	=246	=246	=246	=246	=246	=246	=246	=246	=246	=246	=246	=246	=246
4.r	2r	2r	4c	4c	4c	4C	4C	4.r	4.r	4.r	4.r	4.r	2r	2r	2r
.	.	.	8r	8r	8r	8r	8r	.	.	.	.	.	.	.	.
8a-	.	.	8A-	8A-	8A-	8AA-	8AA-	8a-	8a-	8a-	8AA-	8AA-	.	.	.
=247	=247	=247	=247	=247	=247	=247	=247	=247	=247	=247	=247	=247	=247	=247	=247
8a-	2r	2r	8A-	8A-	8A-	8AA-	8AA-	8a-	8a-	8a-	8AA-	8AA-	2r	2r	2r
8a-	.	.	8A-	8A-	8A-	8AA-	8AA-	8a-	8a-	8a-	8AA-	8AA-	.	.	.
8a-	.	.	8A-	8A-	8A-	8AA-	8AA-	8a-	8a-	8a-	8AA-	8AA-	.	.	.
8a-	.	.	8A-	8A-	8A-	8AA-	8AA-	8a-	8a-	8a-	8AA-	8AA-	.	.	.
=248	=248	=248	=248	=248	=248	=248	=248	=248	=248	=248	=248	=248	=248	=248	=248
4a-	2r	2r	4A-	4A-	4A-	4AA-	4AA-	4a-	4a-	4a-	4AA-	4AA-	2r	2r	2r
4r	.	.	8r	8r	8r	8r	8r	4r	4r	4r	4r	4r	.	.	.
.	.	.	8f	8c	8A-	8A-	8A-	.	.	.	.	.	.	.	.
=249	=249	=249	=249	=249	=249	=249	=249	=249	=249	=249	=249	=249	=249	=249	=249
2r	2r	2r	8f	8c	8A-	8A-	8A-	2r	2r	2r	2r	2r	2r	2r	2r
.	.	.	8f	8c	8A-	8A-	8A-	.	.	.	.	.	.	.	.
.	.	.	8f	8c	8A-	8A-	8A-	.	.	.	.	.	.	.	.
.	.	.	8f	8c	8A-	8A-	8A-	.	.	.	.	.	.	.	.
=250	=250	=250	=250	=250	=250	=250	=250	=250	=250	=250	=250	=250	=250	=250	=250
2r	2r	2r	4.f	8B	8G	8G	8G	2r	2r	2r	2r	2r	2r	2r	2r
.	.	.	.	16B	16G	16G	16G	.	.	.	.	.	.	.	.
.	.	.	.	16c	16A	16A	16A	.	.	.	.	.	.	.	.
.	.	.	.	8d	8B	8B	8B	.	.	.	.	.	.	.	.
.	.	.	16d	8r	8r	8r	8r	.	.	.	.	.	.	.	.
.	.	.	16e	.	.	.	.	.	.	.	.	.	.	.	.
=251	=251	=251	=251	=251	=251	=251	=251	=251	=251	=251	=251	=251	=251	=251	=251
2r	2r	2r	4.f	8r	8r	8r	8r	2r	2r	2r	2r	2r	2r	2r	2r
.	.	.	.	16B	16G	16G	16G	.	.	.	.	.	.	.	.
.	.	.	.	16c	16A	16A	16A	.	.	.	.	.	.	.	.
.	.	.	.	8d	8B	8B	8B	.	.	.	.	.	.	.	.
.	.	.	16d	8r	8r	8r	8r	.	.	.	.	.	.	.	.
.	.	.	16e	.	.	.	.	.	.	.	.	.	.	.	.
=252	=252	=252	=252	=252	=252	=252	=252	=252	=252	=252	=252	=252	=252	=252	=252
2r	2r	2r	4f	8r	8r	8r	8r	2r	2r	2r	2r	2r	2r	2r	2r
.	.	.	.	16B	16G	16G	16G	.	.	.	.	.	.	.	.
.	.	.	.	16c	16A	16A	16A	.	.	.	.	.	.	.	.
.	.	.	4r	8d	8B	8B	8B	.	.	.	.	.	.	.	.
.	.	.	.	16B	16G	16G	16G	.	.	.	.	.	.	.	.
.	.	.	.	16c	16A	16A	16A	.	.	.	.	.	.	.	.
=253	=253	=253	=253	=253	=253	=253	=253	=253	=253	=253	=253	=253	=253	=253	=253
2r	2r	2r	8r	4d	4B	4B	4B	2r	2r	2r	2r	2r	2r	2r	2r
.	.	.	8c#	.	.	.	.	.	.	.	.	.	.	.	.
.	.	.	8d	4r	4r	4r	4r	.	.	.	.	.	.	.	.
.	.	.	8e	.	.	.	.	.	.	.	.	.	.	.	.
=254	=254	=254	=254	=254	=254	=254	=254	=254	=254	=254	=254	=254	=254	=254	=254
2r	2r	2r	8f	2r	2r	2r	2r	2r	2r	2r	2r	2r	2r	2r	2r
.	.	.	8c#	.	.	.	.	.	.	.	.	.	.	.	.
.	.	.	8d	.	.	.	.	.	.	.	.	.	.	.	.
.	.	.	8e	.	.	.	.	.	.	.	.	.	.	.	.
=255	=255	=255	=255	=255	=255	=255	=255	=255	=255	=255	=255	=255	=255	=255	=255
4.r	2r	2r	8f	4.r	2r	2r	2r	2r	4.r	2r	2r	2r	2r	2r	2r
.	.	.	16d	.	.	.	.	.	.	.	.	.	.	.	.
.	.	.	16e	.	.	.	.	.	.	.	.	.	.	.	.
.	.	.	8f	.	.	.	.	.	.	.	.	.	.	.	.
16ee	.	.	16e	16e	.	.	.	.	16e	.	.	.	.	.	.
16ff	.	.	16f	16f	.	.	.	.	16f	.	.	.	.	.	.
=256	=256	=256	=256	=256	=256	=256	=256	=256	=256	=256	=256	=256	=256	=256	=256
4gg	2r	2r	4g	4g	8r	8r	8r	2r	4g	8r	8r	8r	2r	2r	2r
.	.	.	.	.	8d	8BB	8BB	.	.	8d	8BB	8BB	.	.	.
8ee	.	.	8e	8e	8e	8C	8C	.	8e	8e	8C	8C	.	.	.
8ccc	.	.	8cc	8cc	8r	8r	8r	.	8cc	8r	8r	8r	.	.	.
=257	=257	=257	=257	=257	=257	=257	=257	=257	=257	=257	=257	=257	=257	=257	=257
4bb	2r	2r	4b	4b	8r	8r	8r	2r	4b	8r	8r	8r	2r	2r	2r
.	.	.	.	.	8g	8E	8E	.	.	8g	8E	8E	.	.	.
8aa	.	.	8a	8a	8f	8F	8F	.	8a	8f	8F	8F	.	.	.
16ff	.	.	16ff	16ff	8r	8r	8r	.	16ff	8r	8r	8r	.	.	.
16dd	.	.	16dd	16dd	.	.	.	.	16dd	.	.	.	.	.	.
=258	=258	=258	=258	=258	=258	=258	=258	=258	=258	=258	=258	=258	=258	=258	=258
4cc	2r	2r	4cc	4cc	8r	8r	8r	4.r	4cc	8r	8r	8r	2r	2r	2r
.	.	.	.	.	8a	8F#	8F#	.	.	8a	8F#	8F#	.	.	.
8b	.	.	8b	8b	8g	8G	8G	.	8b	8g	8G	8G	.	.	.
8gg	.	.	8gg	8ee	8r	8r	8r	8gg	8gg	8ee	8r	8r	.	.	.
=259	=259	=259	=259	=259	=259	=259	=259	=259	=259	=259	=259	=259	=259	=259	=259
[2ff	2r	2r	[2ff	[2dd	2r	2r	2r	[2ff	[2ff	[2dd	2r	2r	2r	2r	2r
=260	=260	=260	=260	=260	=260	=260	=260	=260	=260	=260	=260	=260	=260	=260	=260
2ff]	2r	2r	2ff]	2dd]	2g#	2G#	2G#	2ff]	2ff]	2dd]	2G#	2G#	2r	2r	2r
=261	=261	=261	=261	=261	=261	=261	=261	=261	=261	=261	=261	=261	=261	=261	=261
2ee	2r	2r	2ee	2cc	2a	2A	2A	2ee	2ee	2cc	2A	2A	2r	2r	2r
=262	=262	=262	=262	=262	=262	=262	=262	=262	=262	=262	=262	=262	=262	=262	=262
2r	2r	2r	4d	4d	4d	4D	4D	2r	2r	2r	2r	2r	2r	2r	2r
.	.	.	8r	8r	8r	8r	8r	.	.	.	.	.	.	.	.
.	.	.	8ff#	8cc	8a	8d	8d	.	.	.	.	.	.	.	.
=263	=263	=263	=263	=263	=263	=263	=263	=263	=263	=263	=263	=263	=263	=263	=263
2r	2r	2r	8ff#	8cc	8a	8d	8d	2r	2r	2r	2r	2r	2r	2r	2r
.	.	.	8ff#	8cc	8a	8d	8d	.	.	.	.	.	.	.	.
.	.	.	8ff#	8cc	8a	8d	8d	.	.	.	.	.	.	.	.
.	.	.	8ff#	8cc	8a	8d	8d	.	.	.	.	.	.	.	.
=264	=264	=264	=264	=264	=264	=264	=264	=264	=264	=264	=264	=264	=264	=264	=264
4.r	2r	2r	8.ff#	8.cc	8.a	4d	4d	2r	4.r	4.r	4.r	2r	2r	2r	2r
.	.	.	16gg	16b	16g	.	.	.	.	.	.	.	.	.	.
.	.	.	8aa	8a	8f#	4r	4r	.	.	.	.	.	.	.	.
8ddd	.	.	8r	8r	8r	.	.	.	8ccc	8aa	8f#	.	.	.	.
=265	=265	=265	=265	=265	=265	=265	=265	=265	=265	=265	=265	=265	=265	=265	=265
8ddd	2r	2r	2r	2r	2r	2r	2r	2r	8ccc	8aa	8f#	2r	2r	2r	2r
8ddd	.	.	.	.	.	.	.	.	8ccc	8aa	8f#	.	.	.	.
8ddd	.	.	.	.	.	.	.	.	8ccc	8aa	8f#	.	.	.	.
8ddd	.	.	.	.	.	.	.	.	8ccc	8aa	8f#	.	.	.	.
=266	=266	=266	=266	=266	=266	=266	=266	=266	=266	=266	=266	=266	=266	=266	=266
8.ddd	2r	2r	4G	4G	4G	4GG	4GG	2r	8.bb	8gg	4g	2r	2r	2r	2r
.	.	.	.	.	.	.	.	.	.	4.r	.	.	.	.	.
16ccc	.	.	.	.	.	.	.	.	16aa	.	.	.	.	.	.
8bb	.	.	8r	8r	8r	8r	8r	.	8gg	.	4r	.	.	.	.
8r	.	.	8b	8f	8d	8G	8G	.	8r	.	.	.	.	.	.
=267	=267	=267	=267	=267	=267	=267	=267	=267	=267	=267	=267	=267	=267	=267	=267
2r	2r	2r	8b	8f	8d	8G	8G	2r	2r	2r	2r	2r	2r	2r	2r
.	.	.	8b	8f	8d	8G	8G	.	.	.	.	.	.	.	.
.	.	.	8b	8f	8d	8G	8G	.	.	.	.	.	.	.	.
.	.	.	8b	8f	8d	8G	8G	.	.	.	.	.	.	.	.
=268	=268	=268	=268	=268	=268	=268	=268	=268	=268	=268	=268	=268	=268	=268	=268
4.r	2r	2r	8.b	8.f	8.d	4G	4G	2r	4.r	4.r	4.r	2r	2r	2r	2r
.	.	.	16cc	16e	16c	.	.	.	.	.	.	.	.	.	.
.	.	.	8dd	8d	8B	4r	4r	.	.	.	.	.	.	.	.
8fff	.	.	8r	8r	8r	.	.	.	8ddd	8bb	8g	.	.	.	.
=269	=269	=269	=269	=269	=269	=269	=269	=269	=269	=269	=269	=269	=269	=269	=269
8fff	2r	2r	2r	2r	2r	2r	2r	2r	8ddd	8bb	8g	2r	2r	2r	2r
8fff	.	.	.	.	.	.	.	.	8ddd	8bb	8g	.	.	.	.
8fff	.	.	.	.	.	.	.	.	8ddd	8bb	8g	.	.	.	.
8fff	.	.	.	.	.	.	.	.	8ddd	8bb	8g	.	.	.	.
=270	=270	=270	=270	=270	=270	=270	=270	=270	=270	=270	=270	=270	=270	=270	=270
4eee	8c	8C	4.r	4.r	4.r	4.r	4.r	2r	4ccc	4ccc	4c	2r	8cc	8c	8cc
.	8c	8C	.	.	.	.	.	.	.	.	.	.	8cc	8c	8cc
4r	8c	8C	.	.	.	.	.	.	4r	4r	4r	.	8cc	8c	8cc
.	8c	8C	8ccc	8cc	8cc	8c	8c	.	.	.	.	.	8cc	8c	8cc
=271	=271	=271	=271	=271	=271	=271	=271	=271	=271	=271	=271	=271	=271	=271	=271
2r	8c	8C	8bb	8b	8b	8B	8B	2r	2r	2r	2r	2r	8cc	8c	8cc
.	8c	8C	8aa	8a	8a	8A	8A	.	.	.	.	.	8cc	8c	8cc
.	8c	8C	8gg	8g	8g	8G	8G	.	.	.	.	.	8cc	8c	8cc
.	8c	8C	8ff	8f	8f	8F	8F	.	.	.	.	.	8cc	8c	8cc
=272	=272	=272	=272	=272	=272	=272	=272	=272	=272	=272	=272	=272	=272	=272	=272
4.r	4c	4C	8ee	8e	8e	8E	8E	4.r	4.r	4.r	4.r	4.r	4cc	4c	4cc
.	.	.	8dd	8d	8d	8D	8D	.	.	.	.	.	.	.	.
.	8r	8r	8cc	8c	8c	8C	8C	.	.	.	.	.	8r	8r	8r
8ccc	8c	8C	16ccc	16cc	8cc	8c	8c	8ccc	8ccc	8cc	8c	8c	8cc	8c	8cc
.	.	.	16ccc	16cc	.	.	.	.	.	.	.	.	.	.	.
=273	=273	=273	=273	=273	=273	=273	=273	=273	=273	=273	=273	=273	=273	=273	=273
8ccc	8c	8C	16bb	16b	8b	8B	8B	8ccc	8ccc	8cc	8B	8B	8cc	8c	8cc
.	.	.	16bb	16b	.	.	.	.	.	.	.	.	.	.	.
8ccc	8c	8C	16aa	16a	8a	8A	8A	8ccc	8ccc	8cc	8A	8A	8cc	8c	8cc
.	.	.	16aa	16a	.	.	.	.	.	.	.	.	.	.	.
8ccc	8c	8C	16gg	16g	8g	8G	8G	8ccc	8ccc	8cc	8G	8G	8cc	8c	8cc
.	.	.	16gg	16g	.	.	.	.	.	.	.	.	.	.	.
8ccc	8c	8C	16ff	16f	8f	8F	8F	8ccc	8ccc	8cc	8F	8F	8cc	8c	8cc
.	.	.	16ff	16f	.	.	.	.	.	.	.	.	.	.	.
=274	=274	=274	=274	=274	=274	=274	=274	=274	=274	=274	=274	=274	=274	=274	=274
4ccc	4c	4C	16ee	16e	8e	8E	8E	4ccc	4ccc	4cc	8E	8E	4cc	4c	4cc
.	.	.	16ee	16e	.	.	.	.	.	.	.	.	.	.	.
.	.	.	16dd	16d	8d	8D	8D	.	.	.	8D	8D	.	.	.
.	.	.	16dd	16d	.	.	.	.	.	.	.	.	.	.	.
8r	8r	8r	8cc	8c	8c	8C	8C	8r	8r	8r	8C	8C	8r	8r	8r
8ccc	8c	8C	16eee	16ee	8ee	8e	8e	8ccc	8ccc	8cc	8e	8e	8cc	8c	8cc
.	.	.	16eee	16ee	.	.	.	.	.	.	.	.	.	.	.
=275	=275	=275	=275	=275	=275	=275	=275	=275	=275	=275	=275	=275	=275	=275	=275
8ccc	8c	8C	16ddd	16dd	8dd	8d	8d	8ccc	8ccc	8cc	8d	8d	8cc	8c	8cc
.	.	.	16ddd	16dd	.	.	.	.	.	.	.	.	.	.	.
8ccc	8c	8C	16ccc	16cc	8cc	8c	8c	8ccc	8ccc	8cc	8c	8c	8cc	8c	8cc
.	.	.	16ccc	16cc	.	.	.	.	.	.	.	.	.	.	.
8ccc	8c	8C	16bb	16b	8b	8B	8B	8ccc	8ccc	8cc	8B	8B	8cc	8c	8cc
.	.	.	16bb	16b	.	.	.	.	.	.	.	.	.	.	.
8ccc	8c	8C	16aa	16a	8a	8A	8A	8ccc	8ccc	8cc	8A	8A	8cc	8c	8cc
.	.	.	16aa	16a	.	.	.	.	.	.	.	.	.	.	.
=276	=276	=276	=276	=276	=276	=276	=276	=276	=276	=276	=276	=276	=276	=276	=276
[2ccc	8c	8C	16gg	16g	8g	8G	8G	[2ccc	[2ccc	[2cc	8G	8G	8cc	8c	8cc
.	.	.	16gg	16g	.	.	.	.	.	.	.	.	.	.	.
.	8c	8C	16ff	16f	8f	8F	8F	.	.	.	8F	8F	8cc	8c	8cc
.	.	.	16ff	16f	.	.	.	.	.	.	.	.	.	.	.
.	8c	8C	16ee	16e	8e	8E	8E	.	.	.	8E	8E	8cc	8c	8cc
.	.	.	16ee	16e	.	.	.	.	.	.	.	.	.	.	.
.	8c	8C	16dd	16d	8d	8D	8D	.	.	.	8D	8D	8cc	8c	8cc
.	.	.	16dd	16d	.	.	.	.	.	.	.	.	.	.	.
=277	=277	=277	=277	=277	=277	=277	=277	=277	=277	=277	=277	=277	=277	=277	=277
2ccc]	8c	8C	16cc	16c	8c	8C	8C	2ccc]	2ccc]	2cc]	8C	8C	8cc	8c	8cc
.	.	.	16cc	16c	.	.	.	.	.	.	.	.	.	.	.
.	8c	8C	16b	16B	8B	8BB	8BB	.	.	.	8BB	8BB	8cc	8c	8cc
.	.	.	16b	16B	.	.	.	.	.	.	.	.	.	.	.
.	8c	8C	16a	16A	8A	8AA	8AA	.	.	.	8AA	8AA	8cc	8c	8cc
.	.	.	16a	16A	.	.	.	.	.	.	.	.	.	.	.
.	8c	8C	16g	16G	8G	8GG	8GG	.	.	.	8GG	8GG	8cc	8c	8cc
.	.	.	16g	16G	.	.	.	.	.	.	.	.	.	.	.
=278	=278	=278	=278	=278	=278	=278	=278	=278	=278	=278	=278	=278	=278	=278	=278
2r	2r	2r	4f	4c	4F	4FF	4FF	2r	4ccc	2cc	4FF	4FF	2r	2r	2r
.	.	.	4aa	4ff	4F	4FF	4FF	.	4aa	.	4FF	4FF	.	.	.
=279	=279	=279	=279	=279	=279	=279	=279	=279	=279	=279	=279	=279	=279	=279	=279
2r	2r	2r	4gg	4ee 4cc	4G	4GG	4GG	2r	4gg	4ee	4GG	4GG	2r	2r	2r
.	.	.	4bb	4dd 4g	4G	4GG	4GG	.	4bb	4dd	4GG	4GG	.	.	.
=280	=280	=280	=280	=280	=280	=280	=280	=280	=280	=280	=280	=280	=280	=280	=280
2r	2r	2r	4ccc	4cc 4e	4c	4C	4C	2r	4ccc	4cc	4C	4C	2r	2r	2r
.	.	.	4r	4r	4r	4r	4r	.	8r	8r	8r	8r	.	.	.
.	.	.	.	.	.	.	.	.	8ee	8cc	8e	8c	.	.	.
=281	=281	=281	=281	=281	=281	=281	=281	=281	=281	=281	=281	=281	=281	=281	=281
2r	2r	2r	2r	2r	2r	2r	2r	2r	8ee	8cc	8d	8B	2r	2r	2r
.	.	.	.	.	.	.	.	.	8ee	8cc	8c	8A	.	.	.
.	.	.	.	.	.	.	.	.	8ee	8cc	8B	8G	.	.	.
.	.	.	.	.	.	.	.	.	8ee	8cc	8A	8F	.	.	.
=282	=282	=282	=282	=282	=282	=282	=282	=282	=282	=282	=282	=282	=282	=282	=282
2r	2r	2r	2r	2r	2r	2r	2r	2r	8.ee	8.cc	8.G	8.E	2r	2r	2r
.	.	.	.	.	.	.	.	.	16ff	16dd	16F	16D	.	.	.
.	.	.	.	.	.	.	.	.	8gg	8ee	8E	8C	.	.	.
.	.	.	.	.	.	.	.	.	8ee	8cc	8e	8c	.	.	.
=283	=283	=283	=283	=283	=283	=283	=283	=283	=283	=283	=283	=283	=283	=283	=283
2r	2r	2r	2r	2r	2r	2r	2r	2r	8ee	8cc	8d	8b	2r	2r	2r
.	.	.	.	.	.	.	.	.	8ee	8cc	8c	8a	.	.	.
.	.	.	.	.	.	.	.	.	8ee	8cc	8B	8G	.	.	.
.	.	.	.	.	.	.	.	.	8ee	8cc	8A	8F	.	.	.
=284	=284	=284	=284	=284	=284	=284	=284	=284	=284	=284	=284	=284	=284	=284	=284
4.r	2r	2r	4.r	2r	2r	2r	2r	4.r	8.ee	8.cc	8.G	8.E	2r	2r	2r
.	.	.	.	.	.	.	.	.	16ff	16dd	16F	16D	.	.	.
.	.	.	.	.	.	.	.	.	8gg	8ee	8E	8C	.	.	.
8ccc	.	.	8cc	.	.	.	.	8aa	8r	8r	8r	8r	.	.	.
=285	=285	=285	=285	=285	=285	=285	=285	=285	=285	=285	=285	=285	=285	=285	=285
8bb-	2r	2r	8cc	2r	2r	2r	2r	8gg	2r	2r	2r	2r	2r	2r	2r
8aa	.	.	8cc	.	.	.	.	8ff	.	.	.	.	.	.	.
8gg	.	.	8cc	.	.	.	.	8ee	.	.	.	.	.	.	.
8ff	.	.	8cc	.	.	.	.	8dd	.	.	.	.	.	.	.
=286	=286	=286	=286	=286	=286	=286	=286	=286	=286	=286	=286	=286	=286	=286	=286
8.ee	2r	2r	8cc	2r	2r	2r	2r	8.cc	2r	2r	2r	2r	2r	2r	2r
.	.	.	8cc	.	.	.	.	.	.	.	.	.	.	.	.
16ff	.	.	.	.	.	.	.	16dd	.	.	.	.	.	.	.
8gg	.	.	8cc	.	.	.	.	8ee	.	.	.	.	.	.	.
8ddd	.	.	8cc	.	.	.	.	8bb-	.	.	.	.	.	.	.
=287	=287	=287	=287	=287	=287	=287	=287	=287	=287	=287	=287	=287	=287	=287	=287
8ccc	2r	2r	8cc	2r	2r	2r	2r	8aa	2r	2r	2r	2r	2r	2r	2r
8bb-	.	.	8cc	.	.	.	.	8gg	.	.	.	.	.	.	.
8aa	.	.	8cc	.	.	.	.	8ff	.	.	.	.	.	.	.
8gg	.	.	8cc	.	.	.	.	8ee	.	.	.	.	.	.	.
=288	=288	=288	=288	=288	=288	=288	=288	=288	=288	=288	=288	=288	=288	=288	=288
8.aa	2r	2r	8f	2r	2r	2r	2r	8.ff	2r	2r	2r	2r	2r	2r	2r
.	.	.	8f	.	.	.	.	.	.	.	.	.	.	.	.
16bb	.	.	.	.	.	.	.	16gg	.	.	.	.	.	.	.
8ccc	.	.	8f	.	.	.	.	8aa	.	.	.	.	.	.	.
8bb	.	.	8f	.	.	.	.	8gg	.	.	.	.	.	.	.
=289	=289	=289	=289	=289	=289	=289	=289	=289	=289	=289	=289	=289	=289	=289	=289
8aa	2r	2r	8f	2r	2r	2r	2r	8ff	2r	2r	2r	2r	2r	2r	2r
8gg	.	.	8f	.	.	.	.	8ee	.	.	.	.	.	.	.
8ff	.	.	8f	.	.	.	.	8dd	.	.	.	.	.	.	.
8ee	.	.	8f#	.	.	.	.	8cc	.	.	.	.	.	.	.
=290	=290	=290	=290	=290	=290	=290	=290	=290	=290	=290	=290	=290	=290	=290	=290
4dd	[2G	4GG	4G 4g	16gg	4G	4GG	4GG	4b	[2gg	[2g	[2G	[2G	[2g	[2G	[2g
.	.	.	.	16gg	.	.	.	.	.	.	.	.	.	.	.
.	.	.	.	16gg	.	.	.	.	.	.	.	.	.	.	.
.	.	.	.	16gg	.	.	.	.	.	.	.	.	.	.	.
4r	.	4r	4r	16gg	4r	4r	4r	4r	.	.	.	.	.	.	.
.	.	.	.	16gg	.	.	.	.	.	.	.	.	.	.	.
.	.	.	.	16gg	.	.	.	.	.	.	.	.	.	.	.
.	.	.	.	16gg	.	.	.	.	.	.	.	.	.	.	.
=291	=291	=291	=291	=291	=291	=291	=291	=291	=291	=291	=291	=291	=291	=291	=291
2r	2G_	2r	4.r	16gg	4.r	4.r	4.r	2r	2gg_	4.g]	4.G]	4.G]	2g_	2G_	2g_
.	.	.	.	16gg	.	.	.	.	.	.	.	.	.	.	.
.	.	.	.	16gg	.	.	.	.	.	.	.	.	.	.	.
.	.	.	.	16gg	.	.	.	.	.	.	.	.	.	.	.
.	.	.	.	16gg	.	.	.	.	.	.	.	.	.	.	.
.	.	.	.	16gg	.	.	.	.	.	.	.	.	.	.	.
.	.	.	8dd	16gg	8B	8B	8B	.	.	8dd	8B	8B	.	.	.
.	.	.	.	16gg	.	.	.	.	.	.	.	.	.	.	.
=292	=292	=292	=292	=292	=292	=292	=292	=292	=292	=292	=292	=292	=292	=292	=292
2r	2G_	4GG	4cc	16gg	4A	4A	4A	2r	2gg_	4cc	4A	4A	2g_	2G_	2g_
.	.	.	.	16gg	.	.	.	.	.	.	.	.	.	.	.
.	.	.	.	16gg	.	.	.	.	.	.	.	.	.	.	.
.	.	.	.	16gg	.	.	.	.	.	.	.	.	.	.	.
.	.	4r	8b	16gg	8G	8G	8G	.	.	8b	8G	8G	.	.	.
.	.	.	.	16gg	.	.	.	.	.	.	.	.	.	.	.
.	.	.	8ff	16gg	8d	8d	8d	.	.	8ff	8d	8d	.	.	.
.	.	.	.	16gg	.	.	.	.	.	.	.	.	.	.	.
=293	=293	=293	=293	=293	=293	=293	=293	=293	=293	=293	=293	=293	=293	=293	=293
2r	2G_	4GG	4ee	16gg	4c	4c	4c	2r	2gg_	4ee	4c	4c	2g]	2G]	2g_
.	.	.	.	16gg	.	.	.	.	.	.	.	.	.	.	.
.	.	.	.	16gg	.	.	.	.	.	.	.	.	.	.	.
.	.	.	.	16gg	.	.	.	.	.	.	.	.	.	.	.
.	.	4r	8dd	16gg	8B	8B	8B	.	.	8dd	8B	8B	.	.	.
.	.	.	.	16gg	.	.	.	.	.	.	.	.	.	.	.
.	.	.	8gg	16gg	8e	8e	8e	.	.	8gg	8e	8e	.	.	.
.	.	.	.	16gg	.	.	.	.	.	.	.	.	.	.	.
=294	=294	=294	=294	=294	=294	=294	=294	=294	=294	=294	=294	=294	=294	=294	=294
2r	2G_	4GG	8ff	16gg	8d	8d	8d	2r	2gg_	8ff	8d	8d	[2dd	[2g	2g_
.	.	.	.	16gg	.	.	.	.	.	.	.	.	.	.	.
.	.	.	8ee	16gg	8c	8c	8c	.	.	8ee	8c	8c	.	.	.
.	.	.	.	16gg	.	.	.	.	.	.	.	.	.	.	.
.	.	4r	8dd	16gg	8B	8B	8B	.	.	8dd	8B	8B	.	.	.
.	.	.	.	16gg	.	.	.	.	.	.	.	.	.	.	.
.	.	.	8cc	16gg	8A	8A	8A	.	.	8cc	8A	8A	.	.	.
.	.	.	.	16gg	.	.	.	.	.	.	.	.	.	.	.
=295	=295	=295	=295	=295	=295	=295	=295	=295	=295	=295	=295	=295	=295	=295	=295
2r	2G]	4GG	8b	16gg	8G	8G	8G	2r	2gg]	8b	8G	8G	2dd]	2g]	2g]
.	.	.	.	16gg	.	.	.	.	.	.	.	.	.	.	.
.	.	.	8a	16gg	8F	8F	8F	.	.	8a	8F	8F	.	.	.
.	.	.	.	16gg	.	.	.	.	.	.	.	.	.	.	.
.	.	4r	8g	16gg	8E	8E	8E	.	.	8g	8E	8E	.	.	.
.	.	.	.	16gg	.	.	.	.	.	.	.	.	.	.	.
.	.	.	8ff	16gg	8D	8D	8D	.	.	8ff	8D	8D	.	.	.
.	.	.	.	16gg	.	.	.	.	.	.	.	.	.	.	.
=296	=296	=296	=296	=296	=296	=296	=296	=296	=296	=296	=296	=296	=296	=296	=296
[2ccc	[2c	4C	16ee	4cc	16C	4C	4C	[2ccc	[2ccc	4ee	4C	4C	[2cc	[2cc	[2cc
.	.	.	16ccc	.	16c	.	.	.	.	.	.	.	.	.	.
.	.	.	16ccc	.	16c	.	.	.	.	.	.	.	.	.	.
.	.	.	16ccc	.	16c	.	.	.	.	.	.	.	.	.	.
.	.	4r	16ccc	4r	16c	4r	4r	.	.	4r	4r	4r	.	.	.
.	.	.	16ccc	.	16c	.	.	.	.	.	.	.	.	.	.
.	.	.	16ccc	.	16c	.	.	.	.	.	.	.	.	.	.
.	.	.	16ccc	.	16c	.	.	.	.	.	.	.	.	.	.
=297	=297	=297	=297	=297	=297	=297	=297	=297	=297	=297	=297	=297	=297	=297	=297
4.ccc]	2c_	2r	16ccc	4.r	16c	4.r	4.r	4.ccc]	4.ccc]	[2ccc	4.r	4.r	2cc_	2cc_	2cc_
.	.	.	16ccc	.	16cc	.	.	.	.	.	.	.	.	.	.
.	.	.	16ccc	.	16cc	.	.	.	.	.	.	.	.	.	.
.	.	.	16ccc	.	16cc	.	.	.	.	.	.	.	.	.	.
.	.	.	16ccc	.	16cc	.	.	.	.	.	.	.	.	.	.
.	.	.	16ccc	.	16cc	.	.	.	.	.	.	.	.	.	.
8gg	.	.	16ccc	8g	16cc	8E	8E	8gg	8gg	.	8E	8E	.	.	.
.	.	.	16ccc	.	16cc	.	.	.	.	.	.	.	.	.	.
=298	=298	=298	=298	=298	=298	=298	=298	=298	=298	=298	=298	=298	=298	=298	=298
4ff	2c_	4C	16ccc	4f	16cc	4D	4D	4ff	4ff	2ccc_	4D	4D	2cc_	2cc_	2cc_
.	.	.	16ccc	.	16cc	.	.	.	.	.	.	.	.	.	.
.	.	.	16ccc	.	16cc	.	.	.	.	.	.	.	.	.	.
.	.	.	16ccc	.	16cc	.	.	.	.	.	.	.	.	.	.
8ee	.	4r	16ccc	8e	16cc	8C	8C	8ee	8ee	.	8C	8C	.	.	.
.	.	.	16ccc	.	16cc	.	.	.	.	.	.	.	.	.	.
8bb-	.	.	16ccc	8b-	16cc	8G	8G	8bb-	8bb-	.	8G	8G	.	.	.
.	.	.	16ccc	.	16cc	.	.	.	.	.	.	.	.	.	.
=299	=299	=299	=299	=299	=299	=299	=299	=299	=299	=299	=299	=299	=299	=299	=299
4aa	2c_	4C	16ccc	4a	16cc	4F	4F	4aa	4aa	2ccc_	4F	4F	2cc_	2cc_	2cc_
.	.	.	16ccc	.	16cc	.	.	.	.	.	.	.	.	.	.
.	.	.	16ccc	.	16cc	.	.	.	.	.	.	.	.	.	.
.	.	.	16ccc	.	16cc	.	.	.	.	.	.	.	.	.	.
8gg	.	4r	16ccc	8g	16cc	8E	8E	8gg	8gg	.	8E	8E	.	.	.
.	.	.	16ccc	.	16cc	.	.	.	.	.	.	.	.	.	.
8gg	.	.	16ccc	8gg	16cc	8e	8e	8gg	8gg	.	8e	8e	.	.	.
.	.	.	16ccc	.	16cc	.	.	.	.	.	.	.	.	.	.
=300	=300	=300	=300	=300	=300	=300	=300	=300	=300	=300	=300	=300	=300	=300	=300
8bb-	2c_	4C	16ccc	8bb-	16cc	8g	8g	8bb-	8bb-	2ccc_	8g	8g	2cc_	2cc_	2cc_
.	.	.	16ccc	.	16cc	.	.	.	.	.	.	.	.	.	.
8aa	.	.	16ccc	8aa	16cc	8f	8f	8aa	8aa	.	8f	8f	.	.	.
.	.	.	16ccc	.	16cc	.	.	.	.	.	.	.	.	.	.
8gg	.	4r	16ccc	8gg	16cc	8e	8e	8gg	8gg	.	8e	8e	.	.	.
.	.	.	16ccc	.	16cc	.	.	.	.	.	.	.	.	.	.
8ff	.	.	16ccc	8ff	16cc	8d	8d	8ff	8ff	.	8d	8d	.	.	.
.	.	.	16ccc	.	16cc	.	.	.	.	.	.	.	.	.	.
=301	=301	=301	=301	=301	=301	=301	=301	=301	=301	=301	=301	=301	=301	=301	=301
8ee	2c]	4C	16ccc	8ee	16cc	8c	8c	8ee	8ee	2ccc_	8c	8c	2cc]	2cc]	2cc]
.	.	.	16ccc	.	16cc	.	.	.	.	.	.	.	.	.	.
8dd	.	.	16ccc	8dd	16cc	8B-	8B-	8dd	8dd	.	8B-	8B-	.	.	.
.	.	.	16ccc	.	16cc	.	.	.	.	.	.	.	.	.	.
8cc	.	4r	16ccc	8cc	16cc	8A	8A	8cc	8cc	.	8A	8A	.	.	.
.	.	.	16ccc	.	16cc	.	.	.	.	.	.	.	.	.	.
8b-	.	.	16ccc	8b-	16cc	8G	8G	8b-	8b-	.	8G	8G	.	.	.
.	.	.	16ccc	.	16cc	.	.	.	.	.	.	.	.	.	.
=302	=302	=302	=302	=302	=302	=302	=302	=302	=302	=302	=302	=302	=302	=302	=302
4a	4cc	4C	4ccc	4a	4cc	4F	4F	4a	4a	4ccc]	4F	4F	4cc	4cc	4cc
4fff	4dd	4r	4fff	4aa	4f	4F	4F	4fff	4aa	4ff	4F	4F	4ff	4dd	4ff
=303	=303	=303	=303	=303	=303	=303	=303	=303	=303	=303	=303	=303	=303	=303	=303
4eee	4cc	4GG	4eee	4gg	4g	4G	4G	4eee	4gg	4ee	4G	4G	4ee	4cc	4ee
4bb	4g	4GG	4bb	4ff 4dd	4G	4GG	4GG	4bb	4bb	4dd	4GG	4GG	4dd	4g	4dd
=304	=304	=304	=304	=304	=304	=304	=304	=304	=304	=304	=304	=304	=304	=304	=304
4ccc	4e	4C	4ccc	4ee 4cc	4c	4C	4C	4ccc	4ccc	4cc	4C	4C	4cc	4e	4cc
4r	4r	4r	8r	4r	4r	4r	4r	4r	4r	4r	4r	4r	4r	4r	4r
.	.	.	8g	.	.	.	.	.	.	.	.	.	.	.	.
=305	=305	=305	=305	=305	=305	=305	=305	=305	=305	=305	=305	=305	=305	=305	=305
2r	2r	2r	4g	2r	2r	2r	2r	2r	2r	2r	2r	2r	2r	2r	2r
.	.	.	8r	.	.	.	.	.	.	.	.	.	.	.	.
.	.	.	8g	.	.	.	.	.	.	.	.	.	.	.	.
=306	=306	=306	=306	=306	=306	=306	=306	=306	=306	=306	=306	=306	=306	=306	=306
2r	2r	2r	8g	2r	2r	2r	2r	2r	2r	2r	2r	2r	2r	2r	2r
.	.	.	8g	.	.	.	.	.	.	.	.	.	.	.	.
.	.	.	8r	.	.	.	.	.	.	.	.	.	.	.	.
.	.	.	8g	.	.	.	.	.	.	.	.	.	.	.	.
=307	=307	=307	=307	=307	=307	=307	=307	=307	=307	=307	=307	=307	=307	=307	=307
2r	2r	2r	8g	2r	2r	2r	2r	2r	2r	2r	2r	2r	2r	2r	2r
.	.	.	8g	.	.	.	.	.	.	.	.	.	.	.	.
.	.	.	8g	.	.	.	.	.	.	.	.	.	.	.	.
.	.	.	8g	.	.	.	.	.	.	.	.	.	.	.	.
=308	=308	=308	=308	=308	=308	=308	=308	=308	=308	=308	=308	=308	=308	=308	=308
2r	2r	2r	2f	2d	2G	2BB	2BB	2r	2r	2r	2r	2r	2r	2r	2r
=309	=309	=309	=309	=309	=309	=309	=309	=309	=309	=309	=309	=309	=309	=309	=309
2r	2r	2r	2e	2c	2G	2C	2C	2r	2r	2r	2r	2r	2r	2r	2r
=310	=310	=310	=310	=310	=310	=310	=310	=310	=310	=310	=310	=310	=310	=310	=310
2r	2r	2r	4.r	2r	2r	2r	2r	2r	2r	2r	2r	2r	2r	2r	2r
.	.	.	8g	.	.	.	.	.	.	.	.	.	.	.	.
=311	=311	=311	=311	=311	=311	=311	=311	=311	=311	=311	=311	=311	=311	=311	=311
2r	2r	2r	8g	2r	2r	2r	2r	2r	2r	2r	2r	2r	2r	2r	2r
.	.	.	8g	.	.	.	.	.	.	.	.	.	.	.	.
.	.	.	8g	.	.	.	.	.	.	.	.	.	.	.	.
.	.	.	8g	.	.	.	.	.	.	.	.	.	.	.	.
=312	=312	=312	=312	=312	=312	=312	=312	=312	=312	=312	=312	=312	=312	=312	=312
2bb	2g	2GG	2b	2f	2d	2G	2G	2bb	2ff	2dd	2G	2G	2dd	2g	2dd
=313	=313	=313	=313	=313	=313	=313	=313	=313	=313	=313	=313	=313	=313	=313	=313
4.ccc	4.cc	4.C	4.cc	4.e	4.e	4.C	4.C	4.ccc	4.ee	4.ee	4.C	4.C	4.ee	4.cc	4.ee
8r	8r	8r	8gg	8g	8G	8G	8G	8r	8r	8r	8r	8r	8r	8r	8r
=314	=314	=314	=314	=314	=314	=314	=314	=314	=314	=314	=314	=314	=314	=314	=314
2r	2r	2r	4ff	4dd	4.g	4B	4B	2r	2r	2r	2r	2r	2r	2r	2r
.	.	.	8ee	8cc	.	8c	8c	.	.	.	.	.	.	.	.
.	.	.	8gg	8ee	8G	8G	8G	.	.	.	.	.	.	.	.
=315	=315	=315	=315	=315	=315	=315	=315	=315	=315	=315	=315	=315	=315	=315	=315
4.r	4.r	4.r	4ff	4dd	4.g	4B	4B	4.r	4.r	4.r	4.r	4.r	4.r	4.r	4.r
.	.	.	8ee	8cc	.	8c	8c	.	.	.	.	.	.	.	.
8gg	8cc	8C	8gg	8ee	8G	8G	8G	8gg	8gg	8gg	8G	8G	8ee	8cc	8ee
=316	=316	=316	=316	=316	=316	=316	=316	=316	=316	=316	=316	=316	=316	=316	=316
4bb	4g	4GG	4bb	4dd	4.g	4F	4F	4bb	4bb	2gg	4F	4F	4dd	4g	4dd
8ccc	8cc	8C	8ccc	8cc	.	8E	8E	8ccc	8ccc	.	8E	8E	8ee	8cc	8ee
8gg	8cc	8C	8gg	8ee	8G	8G	8G	8gg	8gg	.	8G	8G	8ee	8cc	8ee
=317	=317	=317	=317	=317	=317	=317	=317	=317	=317	=317	=317	=317	=317	=317	=317
4bb	4g	4GG	4bb	4dd	4.g	4F	4F	4bb	4bb	2gg	4F	4F	4dd	4g	4dd
8ccc	8cc	8C	8ccc	8cc	.	8E	8E	8ccc	8ccc	.	8E	8E	8ee	8cc	8ee
8ccc	8cc	8C	8ccc	8gg	8g	8E	8E	8ccc	8ccc	.	8E	8E	8ee	8cc	8ee
=318	=318	=318	=318	=318	=318	=318	=318	=318	=318	=318	=318	=318	=318	=318	=318
4aa	4dd	4C	4aa	4aa	4c	4F	4F	4aa	4aa	4ff	4F	4F	4ff	4dd	4ff
4r	4r	4r	4r	4r	4r	4r	4r	4r	4r	4r	4r	4r	4r	4r	4r
=319	=319	=319	=319	=319	=319	=319	=319	=319	=319	=319	=319	=319	=319	=319	=319
4b	4g	4GG	4b 4d	4f 4b	4G	4G	4G	4b	4dd	4dd	4G	4G	4dd	4g	4dd
4r	4r	4r	4r	4r	4r	4r	4r	4r	4r	4r	4r	4r	4r	4r	4r
=320	=320	=320	=320	=320	=320	=320	=320	=320	=320	=320	=320	=320	=320	=320	=320
[2eee	[2cc	16C	4cc 4e	4cc 4e	16c	8C	8C	[2eee	[2ccc	[2ee	[2C	[2C	[2cc	[2cc	[2cc
.	.	16C	.	.	16c	.	.	.	.	.	.	.	.	.	.
.	.	16C	.	.	16c	8C	8C	.	.	.	.	.	.	.	.
.	.	16C	.	.	16c	.	.	.	.	.	.	.	.	.	.
.	.	16C	4r	4r	16c	8C	8C	.	.	.	.	.	.	.	.
.	.	16C	.	.	16c	.	.	.	.	.	.	.	.	.	.
.	.	16C	.	.	16c	8C	8C	.	.	.	.	.	.	.	.
.	.	16C	.	.	16c	.	.	.	.	.	.	.	.	.	.
=321	=321	=321	=321	=321	=321	=321	=321	=321	=321	=321	=321	=321	=321	=321	=321
2eee]	2cc_	16C	4.r	4.r	16c	8C	8C	2eee]	2ccc]	4.ee]	2C_	2C_	2cc_	2cc_	2cc_
.	.	16C	.	.	16c	.	.	.	.	.	.	.	.	.	.
.	.	16C	.	.	16c	8C	8C	.	.	.	.	.	.	.	.
.	.	16C	.	.	16c	.	.	.	.	.	.	.	.	.	.
.	.	16C	.	.	16c	8C	8C	.	.	.	.	.	.	.	.
.	.	16C	.	.	16c	.	.	.	.	.	.	.	.	.	.
.	.	16C	8eee	8gg	16c	8C	8C	.	.	8gg	.	.	.	.	.
.	.	16C	.	.	16c	.	.	.	.	.	.	.	.	.	.
=322	=322	=322	=322	=322	=322	=322	=322	=322	=322	=322	=322	=322	=322	=322	=322
4ddd	2cc_	16C	4ddd	4ff	16c 16C	8C	8C	4ddd	4bb	4ff	2C_	2C_	2cc_	2cc_	2cc_
.	.	16C	.	.	16c 16C	.	.	.	.	.	.	.	.	.	.
.	.	16C	.	.	16c 16C	8C	8C	.	.	.	.	.	.	.	.
.	.	16C	.	.	16c 16C	.	.	.	.	.	.	.	.	.	.
8ccc	.	16C	8ccc	8ee	16c 16C	8C	8C	8ccc	8ccc	8ee	.	.	.	.	.
.	.	16C	.	.	16c 16C	.	.	.	.	.	.	.	.	.	.
8gg	.	16C	8gg	8ee	16c 16C	8C	8C	8gg	8gg	8ee	.	.	.	.	.
.	.	16C	.	.	16c 16C	.	.	.	.	.	.	.	.	.	.
=323	=323	=323	=323	=323	=323	=323	=323	=323	=323	=323	=323	=323	=323	=323	=323
4ff	2cc_	16C	4ff	4dd	16c 16C	8C	8C	4ff	4ff	4dd	2C_	2C_	2cc_	2cc_	2cc_
.	.	16C	.	.	16c 16C	.	.	.	.	.	.	.	.	.	.
.	.	16C	.	.	16c 16C	8C	8C	.	.	.	.	.	.	.	.
.	.	16C	.	.	16C 16c	.	.	.	.	.	.	.	.	.	.
8ee	.	16C	8ee	8cc	16C 16c	8C	8C	8ee	8ee	8cc	.	.	.	.	.
.	.	16C	.	.	16c 16C	.	.	.	.	.	.	.	.	.	.
8ee	.	16C	8ee	8g	16c 16C	8C	8C	8ee	8ee	8cc	.	.	.	.	.
.	.	16C	.	.	16c 16C	.	.	.	.	.	.	.	.	.	.
=324	=324	=324	=324	=324	=324	=324	=324	=324	=324	=324	=324	=324	=324	=324	=324
4dd	2cc]	16C	4dd	4f	16c 16C	8C	8C	4dd	4dd	4f	2C]	2C]	2cc]	2cc]	2cc]
.	.	16C	.	.	16c 16C	.	.	.	.	.	.	.	.	.	.
.	.	16C	.	.	16c 16C	8C	8C	.	.	.	.	.	.	.	.
.	.	16C	.	.	16C 16c	.	.	.	.	.	.	.	.	.	.
8cc	.	16C	8cc	8e	16c 16C	8C	8C	8cc	8cc	8e	.	.	.	.	.
.	.	16C	.	.	16c 16C	.	.	.	.	.	.	.	.	.	.
8gg	.	16C	8g	8e	16C 16c	8C	8C	8gg	8cc	8e	.	.	.	.	.
.	.	16C	.	.	16C 16c	.	.	.	.	.	.	.	.	.	.
=325	=325	=325	=325	=325	=325	=325	=325	=325	=325	=325	=325	=325	=325	=325	=325
4ff	4g	4GG	8f	8d	4G	4GG	4GG	4ff	4ff	4dd	4G	4G	4dd	4g	4dd
.	.	.	8e	8c	.	.	.	.	.	.	.	.	.	.	.
4r	4r	4r	8f	8d	4r	4r	4r	4r	4r	4r	4r	4r	4r	4r	4r
.	.	.	8d	8B	.	.	.	.	.	.	.	.	.	.	.
=326	=326	=326	=326	=326	=326	=326	=326	=326	=326	=326	=326	=326	=326	=326	=326
4ee	4e	4C	4e	4c	4c	4C	4C	4ee	4ee	4cc	4C	4C	4cc	4e	4cc
8r	4r	4r	4r	4r	4r	4r	4r	8r	8r	8r	8r	8r	4r	4r	4r
8gg	.	.	.	.	.	.	.	8ee	8gg	8ee	8g	8e	.	.	.
=327	=327	=327	=327	=327	=327	=327	=327	=327	=327	=327	=327	=327	=327	=327	=327
8ff	2g	4GG	4dd 4ff 4g	4dd 4ff 4g	4g	4G	4G	8dd	8ff	8dd	8f	8d	2dd	2g	2dd
8ee	.	.	.	.	.	.	.	8cc	8ee	8cc	8e	8c	.	.	.
8ff	.	4r	4r	4r	4r	4r	4r	8dd	8ff	8dd	8f	8d	.	.	.
8dd	.	.	.	.	.	.	.	8g	8dd	8b	8d	8G	.	.	.
=328	=328	=328	=328	=328	=328	=328	=328	=328	=328	=328	=328	=328	=328	=328	=328
8ee	2cc	4C	4ee 4cc 4g	4cc 4ee 4g	4cc	4c	4c	8cc	8ee	8cc	8e	8c	2ee	2cc	2ee
8ee	.	.	.	.	.	.	.	8cc	8ee	8cc	8e	8c	.	.	.
8ee	.	4r	4r	4r	4r	4r	4r	8cc	8ee	8cc	8e	8c	.	.	.
8eee	.	.	.	.	.	.	.	8gg	8ee	8g	8g	8e	.	.	.
=329	=329	=329	=329	=329	=329	=329	=329	=329	=329	=329	=329	=329	=329	=329	=329
8ddd	2g	4GG	4G 4d 4b	4d 4b 4G	4g	4G	4G	8ff	8dd	8f	8f	8d	2dd	2g	2dd
8ccc	.	.	.	.	.	.	.	8ee	8cc	8e	8e	8c	.	.	.
8ddd	.	4r	4r	4r	4r	4r	4r	8ff	8dd	8f	8f	8d	.	.	.
8bb	.	.	.	.	.	.	.	8dd	8b	8d	8d	8G	.	.	.
=330	=330	=330	=330	=330	=330	=330	=330	=330	=330	=330	=330	=330	=330	=330	=330
4ccc	4e	4C	4G 4e 4cc	4cc 4G 4e	4c	4C	4C	4ee	4cc	4e	4e	4c	4cc	4e	4cc
4r	4r	4r	8r	8r	8r	8r	8r	4r	4r	4r	4r	4r	4r	4r	4r
.	.	.	8G	8G	8G	8GG	8GG	.	.	.	.	.	.	.	.
=331	=331	=331	=331	=331	=331	=331	=331	=331	=331	=331	=331	=331	=331	=331	=331
2r	2r	2r	8A-	8A-	8A-	8AA-	8AA-	2r	2r	2r	2r	2r	2r	2r	2r
.	.	.	8A	8A	8A	8AA	8AA	.	.	.	.	.	.	.	.
.	.	.	8B-	8B-	8B-	8BB-	8BB-	.	.	.	.	.	.	.	.
.	.	.	8B	8B	8B	8BB	8BB	.	.	.	.	.	.	.	.
=332	=332	=332	=332	=332	=332	=332	=332	=332	=332	=332	=332	=332	=332	=332	=332
2r	2r	2r	4c	4c	4c	4C	4C	2r	2r	2r	2r	2r	2r	2r	2r
.	.	.	4r	4r	4r	4r	4r	.	.	.	.	.	.	.	.
=333	=333	=333	=333	=333	=333	=333	=333	=333	=333	=333	=333	=333	=333	=333	=333
4ccc	4e	4C	4ee 4g 4cc	4ee 4g 4cc	4c	4C	4C	4ee	4ee	4cc	4C	4C	4cc	4e	4cc
4r	4r	4r	4r	4r	4r	4r	4r	4r	4r	4r	4r	4r	4r	4r	4r
=334	=334	=334	=334	=334	=334	=334	=334	=334	=334	=334	=334	=334	=334	=334	=334
4ccc	4e	4C	4G 4cc 4e	4G 4e 4cc	4c	4C	4C	4ee	4ee	4cc	4C	4C	4cc	4e	4cc
4r	4r	4r	4r	4r	4r	4r	4r	4r	4r	4r	4r	4r	4r	4r	4r
==	==	==	==	==	==	==	==	==	==	==	==	==	==	==	==
*-	*-	*-	*-	*-	*-	*-	*-	*-	*-	*-	*-	*-	*-	*-	*-
!!!RWG1: This file contains only pitch and duration data.
!!!RWG2: Transposing instruments are not transposed.
!!!RWG3: Spines may have incompatible meters.
!!!RWG4: Durations of rests and tied notes may be interpreted.
!!!RWG: Key is interpreted using the Humdrum key tool.
!!!AFT: stage1
!!!END: 1997/04/15
!!format changes:
!!content changes:
!!public access: complete
!!!KEY: 1518999732
!!!EMD: Converted from MuseData to Humdrum Dec 16, 2000, by Andreas Kornstaedt using muse2kern.
